; GCode generated by CraftWare

G28 X0 Y0
G28 Z0


M104 S215 ;set head temp (no wait)
M190 S60 ;set bed temp (wait)
M109 S215 ;set head temp (wait)
; ------------------------------------
; Layer #0
; ------------------------------------
M106 S0 ;turn off fan
G21 ; mm
G90 ; abs
G92 E0 ;reset extr
G0 F1200 Z1.000
;segType:Skirt
G0 F3000 E-1.0000
G0 X97.281 Y117.062 F5400
G0 F3000 E0.0000
G1 X95.644 Y114.957 E2.2168 F2400
G1 X94.242 Y112.620 E4.4830
G1 X92.839 Y108.414 E8.1702
G1 X92.839 Y91.587 E22.1619
G1 X93.774 Y88.782 E24.6199
G1 X95.177 Y86.445 E26.8862
G1 X95.644 Y85.043 E28.1152
G1 X114.341 Y66.346 E50.1011
G1 X116.912 Y65.177 E52.4502
G1 X117.847 Y64.242 E53.5495
G1 X120.652 Y63.307 E56.0076
G1 X137.479 Y63.307 E69.9993
G1 X140.283 Y64.242 E72.4573
G1 X141.920 Y64.476 E73.8323
G1 X144.257 Y65.879 E76.0986
G1 X148.464 Y69.151 E80.5300
G1 X161.552 Y82.238 E95.9200
G1 X164.823 Y86.445 E100.3514
G1 X166.693 Y92.054 E105.2676
G1 X166.693 Y108.881 E119.2593
G1 X165.758 Y111.685 E121.7174
G1 X162.954 Y116.360 E126.2499
G1 X146.127 Y133.187 E146.0371
G1 X144.053 Y134.799 E148.2214
G0 F3000 E147.2214
G0 X143.101 Y117.181 F5400
G0 X142.624 Y108.371
G0 X142.148 Y99.562
G0 X141.672 Y90.753
G0 F3000 E148.2214
;segType:Loop
G1 X141.292 Y90.325 E148.4726 F2400
G1 X140.911 Y89.897 E148.7255
G1 X140.531 Y89.469 E148.9802
G1 X140.091 Y89.101 E149.2422
G1 X139.646 Y88.737 E149.5136
G1 X139.202 Y88.374 E149.7944
G1 X138.741 Y88.026 E150.0748
G1 X138.274 Y87.685 E150.3442
G1 X137.764 Y87.388 E150.6375
G1 X137.244 Y87.099 E150.9447
G1 X136.705 Y86.830 E151.2552
G1 X136.165 Y86.562 E151.5646
G1 X134.993 Y86.102 E152.2258
G1 X134.421 Y85.923 E152.5473
G1 X133.850 Y85.743 E152.8772
G1 X133.278 Y85.604 E153.1890
G1 X132.707 Y85.482 E153.4950
G1 X132.135 Y85.399 E153.8118
G1 X131.564 Y85.340 E154.1297
G1 X130.993 Y85.294 E154.4432
G1 X130.421 Y85.249 E154.7528
G1 X129.850 Y85.227 E155.0599
G1 X129.278 Y85.273 E155.3715
G1 X128.707 Y85.318 E155.6870
G1 X128.135 Y85.364 E156.0062
G1 X127.564 Y85.443 E156.3152
G1 X126.993 Y85.538 E156.6168
G1 X126.421 Y85.677 E156.9348
G1 X125.850 Y85.839 E157.2570
G1 X125.278 Y86.018 E157.5748
G1 X124.707 Y86.196 E157.8854
G1 X124.090 Y86.435 E158.2240
G1 X123.551 Y86.703 E158.5340
G1 X123.011 Y86.972 E158.8451
G1 X122.478 Y87.247 E159.1513
G1 X121.968 Y87.544 E159.4351
G1 X121.482 Y87.867 E159.7142
G1 X121.008 Y88.201 E160.0022
G1 X120.564 Y88.565 E160.2781
G1 X120.120 Y88.929 E160.5447
G1 X119.675 Y89.293 E160.8019
G1 X119.269 Y89.694 E161.0553
G1 X118.889 Y90.122 E161.3073
G1 X118.508 Y90.550 E161.5575
G1 X118.131 Y90.981 E161.8039
G0 X118.508 Y90.550 F5400
G0 X119.269 Y89.694
G0 X119.675 Y89.293
G0 X121.008 Y88.201
G0 X121.482 Y87.867
G0 X121.968 Y87.544
G0 X122.478 Y87.247
G0 X123.011 Y86.972
G0 X124.090 Y86.435
G1 X124.135 Y86.397 E161.8347 F2400
G0 X124.707 Y86.196 F5400
G0 X125.850 Y85.839
G0 X126.421 Y85.677
G0 X126.993 Y85.538
G0 X127.564 Y85.443
G0 X128.135 Y85.364
G0 X129.850 Y85.227
G0 X130.421 Y85.249
G0 X131.564 Y85.340
G0 X132.135 Y85.399
G0 X132.707 Y85.482
G0 X133.278 Y85.604
G0 X133.850 Y85.743
G0 X134.421 Y85.923
G0 X134.993 Y86.102
G1 X135.564 Y86.271 E162.1357 F2400
G1 X135.623 Y86.296 E162.1685
G0 X136.165 Y86.562 F5400
G0 X137.244 Y87.099
G0 X137.764 Y87.388
G0 X138.274 Y87.685
G0 X138.741 Y88.026
G0 X139.202 Y88.374
G0 X140.091 Y89.101
G0 X140.531 Y89.469
G0 X141.672 Y90.753
;segType:Perimeter
G0 X144.541 Y94.568
G1 X146.311 Y98.155 E165.4946 F1439
G1 X146.432 Y100.000 E167.0323
G1 X146.292 Y102.145 E168.8195
G1 X145.872 Y104.253 E170.6066
G1 X145.181 Y106.288 E172.3941
G1 X144.230 Y108.216 E174.1816
G1 X143.036 Y110.003 E175.9686
G1 X141.619 Y111.619 E177.7556
G1 X140.003 Y113.036 E179.5426
G1 X138.216 Y114.230 E181.3296
G1 X136.288 Y115.181 E183.1171
G1 X134.253 Y115.872 E184.9046
G1 X132.145 Y116.292 E186.6917
G1 X130.000 Y116.432 E188.4789
G1 X127.855 Y116.292 E190.2661
G1 X125.747 Y115.872 E192.0532
G1 X123.712 Y115.181 E193.8407
G1 X121.784 Y114.230 E195.6281
G1 X119.997 Y113.036 E197.4152
G1 X118.381 Y111.619 E199.2021
G1 X116.964 Y110.003 E200.9891
G1 X115.770 Y108.216 E202.7762
G1 X114.819 Y106.288 E204.5636
G1 X114.128 Y104.253 E206.3512
G1 X113.708 Y102.145 E208.1382
G1 X113.568 Y100.000 E209.9254
G1 X113.708 Y97.855 E211.7126
G1 X114.128 Y95.747 E213.4997
G1 X114.819 Y93.712 E215.2873
G1 X115.770 Y91.784 E217.0747
G1 X116.964 Y89.997 E218.8617
G1 X118.381 Y88.381 E220.6487
G1 X119.997 Y86.964 E222.4357
G1 X121.784 Y85.770 E224.2228
G1 X123.712 Y84.819 E226.0102
G1 X125.747 Y84.128 E227.7977
G1 X127.855 Y83.708 E229.5848
G1 X130.000 Y83.568 E231.3720
G1 X132.145 Y83.708 E233.1592
G1 X134.253 Y84.128 E234.9463
G1 X136.288 Y84.819 E236.7338
G1 X138.216 Y85.770 E238.5212
G1 X140.003 Y86.964 E240.3083
G1 X141.619 Y88.381 E242.0953
G1 X143.036 Y89.997 E243.8822
G1 X144.230 Y91.784 E245.6693
G1 X145.181 Y93.712 E247.4567
G1 X145.872 Y95.747 E249.2443
G1 X146.233 Y97.561 E250.7819
G0 X145.452 Y101.484 F5400
;segType:Loop
G0 X133.924 Y95.679
G1 X133.271 Y95.615 E251.4525 F2400
G1 X132.939 Y96.091 E251.9353
G1 X131.745 Y96.833 E253.1043
G1 X130.098 Y98.728 E255.1915
G1 X129.902 Y98.728 E255.3549
G1 X128.255 Y96.833 E257.4421
G1 X126.799 Y95.928 E258.8679
G1 X126.167 Y95.778 E259.4073
G1 X127.375 Y95.199 E260.5210
G1 X128.666 Y94.845 E261.6341
G1 X130.000 Y94.725 E262.7477
G1 X131.334 Y94.845 E263.8613
G1 X132.625 Y95.199 E264.9744
G1 X133.833 Y95.778 E266.0880
G1 X133.923 Y95.770 E266.1591
G0 X128.515 Y100.408 F5400
G1 X128.232 Y99.856 E266.6745 F2400
G1 X126.943 Y98.373 E268.3084
G1 X125.219 Y97.301 E269.9967
G1 X123.564 Y96.973 E271.3994
G1 X122.993 Y96.480 E272.3018
G1 X122.421 Y96.792 E272.9744
G1 X121.850 Y97.104 E273.5413
G0 X120.991 Y97.881 F5400
G1 X119.529 Y98.844 E274.3751 F2400
G1 X118.963 Y99.086 E274.8057
G1 X118.397 Y99.328 E275.3737
G1 X118.095 Y99.834 E275.8636
G1 X117.201 Y101.584 E277.4981
G0 X116.359 Y103.007 F5400
G0 X116.338 Y103.579
G0 X116.419 Y104.150
G0 X116.557 Y105.293
G0 X116.667 Y105.865
G1 X116.849 Y106.436 E277.8745 F2400
G1 X117.009 Y107.007 E278.1930
G1 X117.199 Y107.579 E278.4753
G0 X117.324 Y107.827 F5400
G0 X117.080 Y107.263
G0 X116.903 Y106.632
G0 X116.681 Y106.046
G0 X116.553 Y105.366
G1 X116.667 Y105.865 E278.8524 F2400
G1 X116.557 Y105.293 E279.3195
G1 X116.488 Y104.722 E279.8382
G1 X116.419 Y104.150 E280.4136
G1 X116.338 Y103.579 E281.0370
G1 X116.359 Y103.007 E281.7175
G1 X115.696 Y101.883 E282.8032
G1 X115.572 Y100.000 E284.3723
G1 X115.675 Y98.436 E285.6755
G0 X115.775 Y97.865 F5400
G0 X115.683 Y96.150
G1 X115.714 Y96.722 E286.0301 F2400
G1 X115.745 Y97.293 E286.4523
G1 X115.775 Y97.865 E286.9419
G1 X117.278 Y99.166 E288.5951
G1 X117.850 Y99.193 E289.0708
G0 X118.421 Y99.212 F5400
G0 X118.993 Y99.074
G0 X119.564 Y98.829
G1 X120.991 Y97.881 E289.8741 F2400
G0 X121.432 Y97.514 F5400
G0 X121.916 Y97.190
G0 X122.264 Y96.730
G0 X122.834 Y96.491
G1 X122.996 Y95.846 E290.4278 F2400
G1 X123.765 Y95.046 E291.3502
G1 X125.141 Y94.052 E292.7618
G1 X126.673 Y93.318 E294.1737
G1 X128.309 Y92.869 E295.5848
G1 X130.000 Y92.717 E296.9964
G1 X131.691 Y92.869 E298.4080
G1 X133.327 Y93.318 E299.8192
G1 X134.859 Y94.052 E301.2311
G1 X136.235 Y95.046 E302.6427
G1 X137.192 Y96.041 E303.7902
G0 X137.435 Y96.605 F5400
G0 X137.829 Y97.019
G0 X138.314 Y97.343
G0 X138.798 Y97.667
G1 X139.203 Y98.070 E304.0309 F2400
G1 X141.704 Y99.199 E306.3122
G1 X143.084 Y97.347 E308.2330
G0 X143.769 Y97.224 F5400
G0 X143.860 Y96.507
G0 X144.009 Y95.847
G1 X144.022 Y95.579 E308.3887 F2400
G1 X143.941 Y96.150 E308.8556
G1 X143.812 Y96.722 E309.4453
G1 X143.683 Y97.293 E310.1509
G1 X144.304 Y98.117 E311.0089
G1 X144.427 Y100.000 E312.5780
G1 X144.304 Y101.883 E314.1472
G1 X143.641 Y103.007 E315.7011
G1 X143.662 Y103.579 E316.3189
G1 X143.581 Y104.150 E316.8957
G1 X143.512 Y104.722 E317.4144
G1 X143.443 Y105.293 E317.8764
G1 X143.333 Y105.865 E318.3052
G0 X143.380 Y105.724 F5400
G0 X143.180 Y106.332
G0 X143.004 Y106.964
G0 X142.818 Y107.587
G1 X142.991 Y107.007 E318.6298 F2400
G1 X143.151 Y106.436 E319.0023
G0 X143.333 Y105.865 F5400
G0 X143.443 Y105.293
G0 X143.581 Y104.150
G0 X143.662 Y103.579
G0 X143.641 Y103.007
G1 X142.799 Y101.584 E320.3769 F2400
G1 X141.917 Y99.857 E321.9900
G0 X139.203 Y98.070 F5400
G1 X138.421 Y97.415 E322.6641 F2400
G1 X137.850 Y96.940 E323.3745
G1 X137.278 Y96.628 E324.1026
G1 X136.707 Y96.920 E324.6362
G1 X134.781 Y97.301 E326.2684
G1 X133.057 Y98.373 E327.9567
G1 X131.768 Y99.856 E329.5906
G1 X130.883 Y101.584 E331.2049
G1 X130.000 Y103.007 E333.2564
G1 X130.000 Y103.579 E333.8840
G1 X130.000 Y104.150 E334.5038
G1 X130.000 Y104.722 E335.0998
G1 X130.000 Y105.293 E335.6719
G1 X130.000 Y105.865 E336.2588
G1 X130.000 Y106.436 E336.8694
G1 X130.000 Y107.007 E337.5039
G1 X130.000 Y107.579 E338.1760
G1 X130.588 Y108.150 E338.8577
G1 X130.883 Y109.222 E339.7818
G1 X131.768 Y110.948 E341.3947
G1 X133.056 Y112.432 E343.0288
G1 X133.970 Y113.000 E343.9239
G0 X135.564 Y113.490 F5400
G1 X136.135 Y113.416 E344.2357 F2400
G0 X136.480 Y113.370 F5400
G0 X135.961 Y113.660
G1 X135.564 Y113.490 E344.5352 F2400
G1 X134.993 Y113.569 E344.9876
G1 X134.421 Y113.503 E345.5562
G1 X133.850 Y113.454 E346.2474
G1 X133.278 Y114.026 E346.9197
G1 X131.883 Y114.304 E348.1026
G1 X130.000 Y114.428 E349.6717
G1 X128.117 Y114.304 E351.2409
G1 X126.993 Y114.080 E352.1941
G1 X126.421 Y113.593 E353.0475
G1 X125.850 Y113.472 E353.6816
G1 X125.278 Y113.537 E354.1884
G1 X124.707 Y113.508 E354.6185
G1 X124.135 Y113.470 E354.9787
G1 X123.858 Y113.415 E355.1311
G1 X123.564 Y113.376 E355.2677
G0 X124.135 Y113.470 F5400
G0 X124.707 Y113.508
G1 X125.767 Y113.163 E356.1950 F2400
G1 X126.944 Y112.432 E357.3468
G1 X128.232 Y110.948 E358.9809
G1 X129.117 Y109.222 E360.5938
G1 X129.412 Y108.150 E361.5179
G0 X130.000 Y107.007 F5400
G0 X130.000 Y103.007
G1 X129.117 Y101.584 E362.9107 F2400
G1 X128.970 Y101.298 E363.1780
G0 X125.578 Y99.879 F5400
G0 X124.473 Y99.192
G0 X123.453 Y98.990
G0 X123.453 Y98.990
G0 X123.410 Y98.972
;segType:Perimeter
G0 X123.453 Y98.990
G1 X124.473 Y99.192 E364.0425 F1439
G1 X125.632 Y99.912 E365.1770
G1 X126.563 Y100.984 E366.3576
G1 X127.243 Y102.313 E367.5991
G1 X127.657 Y103.814 E368.8933
G1 X127.797 Y105.403 E370.2197
G1 X127.657 Y106.992 E371.5462
G1 X127.243 Y108.492 E372.8404
G1 X126.563 Y109.820 E374.0811
G1 X125.632 Y110.893 E375.2621
G1 X124.472 Y111.613 E376.3973
G1 X123.159 Y111.872 E377.5106
G1 X121.845 Y111.613 E378.6238
G1 X120.685 Y110.893 E379.7596
G1 X119.753 Y109.820 E380.9411
G1 X119.074 Y108.492 E382.1811
G1 X118.659 Y106.992 E383.4756
G1 X118.520 Y105.403 E384.8020
G1 X118.659 Y103.814 E386.1283
G1 X119.074 Y102.313 E387.4227
G1 X119.753 Y100.984 E388.6636
G1 X120.685 Y99.912 E389.8446
G1 X121.845 Y99.192 E390.9798
G1 X122.864 Y98.990 E391.8441
;segType:InnerHair
G0 X129.737 Y96.223 F5400
G1 X129.987 Y96.371 E391.9964 F2400
G1 X130.421 Y96.204 E392.1559
G1 X129.850 Y96.307 E392.4209
G1 X129.737 Y96.223 E392.4818
;segType:Loop
G0 X129.915 Y112.207 F5400
G1 X130.461 Y112.469 E392.9772 F2400
G1 X131.057 Y112.682 E393.3314
G1 X130.993 Y112.655 E393.3720
G1 X130.421 Y112.515 E393.8031
G1 X129.850 Y112.354 E394.3258
G1 X129.278 Y112.693 E394.7035
G1 X128.707 Y112.780 E394.9724
G1 X128.643 Y112.807 E395.0027
G1 X129.255 Y112.610 E395.4631
G1 X129.795 Y112.342 E396.0117
G1 X129.915 Y112.207 E396.1937
G0 X132.484 Y107.504 F5400
G0 X132.343 Y106.992
G0 X132.203 Y105.403
G0 X132.343 Y103.814
G0 X132.757 Y102.313
G0 X133.437 Y100.984
G0 X134.368 Y99.912
G0 X135.527 Y99.192
G0 X136.841 Y98.932
G0 X137.136 Y98.990
G0 X137.136 Y98.990
G0 X137.158 Y98.949
;segType:Perimeter
G0 X137.136 Y98.990
G1 X138.155 Y99.192 E397.0580 F1439
G1 X139.315 Y99.912 E398.1932
G1 X140.247 Y100.984 E399.3742
G1 X140.926 Y102.313 E400.6152
G1 X141.341 Y103.814 E401.9095
G1 X141.480 Y105.403 E403.2358
G1 X141.341 Y106.992 E404.5622
G1 X140.926 Y108.492 E405.8567
G1 X140.247 Y109.820 E407.0967
G1 X139.315 Y110.893 E408.2782
G1 X138.155 Y111.613 E409.4140
G1 X136.841 Y111.872 E410.5272
G1 X135.528 Y111.613 E411.6405
G1 X134.368 Y110.893 E412.7757
G1 X133.437 Y109.820 E413.9567
G1 X132.757 Y108.492 E415.1974
G1 X132.343 Y106.992 E416.4917
G1 X132.203 Y105.403 E417.8181
G1 X132.343 Y103.814 E419.1445
G1 X132.757 Y102.313 E420.4387
G1 X133.437 Y100.984 E421.6802
G1 X134.368 Y99.912 E422.8608
G1 X135.527 Y99.192 E423.9954
G1 X136.547 Y98.990 E424.8598
G0 X138.931 Y97.842 F5400
G0 X138.960 Y97.828
G0 X138.960 Y97.828
G0 X140.435 Y97.118
G0 X140.393 Y97.138
G1 X138.977 Y95.011 E426.9845 F1439
G1 X137.551 Y93.530 E428.6936
G1 X135.885 Y92.326 E430.4032
G1 X134.030 Y91.437 E432.1134
G1 X132.048 Y90.893 E433.8226
G1 X130.000 Y90.709 E435.5321
G1 X127.952 Y90.893 E437.2417
G1 X125.970 Y91.437 E438.9509
G1 X124.115 Y92.326 E440.6611
G1 X122.449 Y93.530 E442.3706
G1 X121.023 Y95.011 E444.0798
G1 X119.520 Y97.269 E446.3353
G1 X117.688 Y97.183 E447.8599
G1 X117.076 Y95.235 E449.5581
G1 X118.827 Y92.476 E452.2758
G1 X120.555 Y90.557 E454.4222
G1 X122.614 Y88.985 E456.5767
G1 X124.930 Y87.822 E458.7312
G1 X127.420 Y87.107 E460.8856
G1 X130.000 Y86.866 E463.0402
G1 X132.580 Y87.107 E465.1949
G1 X135.070 Y87.822 E467.3492
G1 X137.386 Y88.985 E469.5038
G1 X139.445 Y90.557 E471.6583
G1 X141.183 Y92.487 E473.8170
G1 X142.526 Y94.747 E476.0034
G1 X140.738 Y97.147 E478.4921
G0 X139.477 Y98.840 F5400
; ------------------------------------
; Layer #1
; ------------------------------------
M106 S0 ;turn off fan
G92 E0 ;reset extr
;segType:Loop
G0 F3000 E-1.0000
G0 F1200 Z2.000
G0 X141.672 Y90.753 F7200
G0 F3000 E0.0000
G1 X141.292 Y90.325 E0.2512 F3600
G1 X140.911 Y89.897 E0.5041
G1 X140.531 Y89.469 E0.7589
G1 X140.091 Y89.101 E1.0208
G1 X139.646 Y88.737 E1.2923
G1 X139.202 Y88.374 E1.5730
G1 X138.741 Y88.026 E1.8534
G1 X138.274 Y87.685 E2.1228
G1 X137.764 Y87.388 E2.4161
G1 X137.244 Y87.099 E2.7233
G1 X136.705 Y86.830 E3.0338
G1 X136.165 Y86.562 E3.3432
G1 X134.993 Y86.102 E4.0044
G1 X134.421 Y85.923 E4.3259
G1 X133.850 Y85.743 E4.6558
G1 X133.278 Y85.604 E4.9676
G1 X132.707 Y85.482 E5.2736
G1 X132.135 Y85.399 E5.5904
G1 X131.564 Y85.340 E5.9083
G1 X130.993 Y85.294 E6.2218
G1 X130.421 Y85.249 E6.5314
G1 X129.850 Y85.227 E6.8385
G1 X129.278 Y85.273 E7.1501
G1 X128.707 Y85.318 E7.4656
G1 X128.135 Y85.364 E7.7848
G1 X127.564 Y85.443 E8.0938
G1 X126.993 Y85.538 E8.3954
G1 X126.421 Y85.677 E8.7134
G1 X125.850 Y85.839 E9.0356
G1 X125.278 Y86.018 E9.3534
G1 X124.707 Y86.196 E9.6640
G1 X124.090 Y86.435 E10.0026
G1 X123.551 Y86.703 E10.3126
G1 X123.011 Y86.972 E10.6237
G1 X122.478 Y87.247 E10.9299
G1 X121.968 Y87.544 E11.2137
G1 X121.482 Y87.867 E11.4928
G1 X121.008 Y88.201 E11.7808
G1 X120.564 Y88.565 E12.0567
G1 X120.120 Y88.929 E12.3233
G1 X119.675 Y89.293 E12.5805
G1 X119.269 Y89.694 E12.8339
G1 X118.889 Y90.122 E13.0859
G1 X118.508 Y90.550 E13.3361
G1 X118.131 Y90.981 E13.5825
G0 X118.508 Y90.550 F7200
G0 X119.269 Y89.694
G0 X119.675 Y89.293
G0 X121.008 Y88.201
G0 X121.482 Y87.867
G0 X121.968 Y87.544
G0 X122.478 Y87.247
G0 X123.011 Y86.972
G0 X124.090 Y86.435
G1 X124.135 Y86.397 E13.6133 F3600
G0 X124.707 Y86.196 F7200
G0 X125.850 Y85.839
G0 X126.421 Y85.677
G0 X126.993 Y85.538
G0 X127.564 Y85.443
G0 X128.135 Y85.364
G0 X129.850 Y85.227
G0 X130.421 Y85.249
G0 X131.564 Y85.340
G0 X132.135 Y85.399
G0 X132.707 Y85.482
G0 X133.278 Y85.604
G0 X133.850 Y85.743
G0 X134.421 Y85.923
G0 X134.993 Y86.102
G1 X135.564 Y86.271 E13.9143 F3600
G1 X135.623 Y86.296 E13.9471
G0 X136.165 Y86.562 F7200
G0 X137.244 Y87.099
G0 X137.764 Y87.388
G0 X138.274 Y87.685
G0 X138.741 Y88.026
G0 X139.202 Y88.374
G0 X140.091 Y89.101
G0 X140.531 Y89.469
G0 X141.672 Y90.753
;segType:Perimeter
G0 X144.541 Y94.568
G1 X146.311 Y98.155 E17.2732 F2159
G1 X146.432 Y100.000 E18.8109
G1 X146.292 Y102.145 E20.5981
G1 X145.872 Y104.253 E22.3852
G1 X145.181 Y106.288 E24.1727
G1 X144.230 Y108.216 E25.9601
G1 X143.036 Y110.003 E27.7472
G1 X141.619 Y111.619 E29.5342
G1 X140.003 Y113.036 E31.3212
G1 X138.216 Y114.230 E33.1082
G1 X136.288 Y115.181 E34.8956
G1 X134.253 Y115.872 E36.6832
G1 X132.145 Y116.292 E38.4703
G1 X130.000 Y116.432 E40.2575
G1 X127.855 Y116.292 E42.0447
G1 X125.747 Y115.872 E43.8318
G1 X123.712 Y115.181 E45.6193
G1 X121.784 Y114.230 E47.4067
G1 X119.997 Y113.036 E49.1938
G1 X118.381 Y111.619 E50.9808
G1 X116.964 Y110.003 E52.7677
G1 X115.770 Y108.216 E54.5548
G1 X114.819 Y106.288 E56.3422
G1 X114.128 Y104.253 E58.1298
G1 X113.708 Y102.145 E59.9168
G1 X113.568 Y100.000 E61.7041
G1 X113.708 Y97.855 E63.4913
G1 X114.128 Y95.747 E65.2783
G1 X114.819 Y93.712 E67.0659
G1 X115.770 Y91.784 E68.8533
G1 X116.964 Y89.997 E70.6404
G1 X118.381 Y88.381 E72.4273
G1 X119.997 Y86.964 E74.2143
G1 X121.784 Y85.770 E76.0014
G1 X123.712 Y84.819 E77.7888
G1 X125.747 Y84.128 E79.5763
G1 X127.855 Y83.708 E81.3634
G1 X130.000 Y83.568 E83.1506
G1 X132.145 Y83.708 E84.9378
G1 X134.253 Y84.128 E86.7249
G1 X136.288 Y84.819 E88.5125
G1 X138.216 Y85.770 E90.2999
G1 X140.003 Y86.964 E92.0869
G1 X141.619 Y88.381 E93.8739
G1 X143.036 Y89.997 E95.6609
G1 X144.230 Y91.784 E97.4479
G1 X145.181 Y93.712 E99.2354
G1 X145.872 Y95.747 E101.0229
G1 X146.233 Y97.561 E102.5606
G0 X145.452 Y101.484 F7200
;segType:Loop
G0 X133.924 Y95.679
G1 X133.271 Y95.615 E103.2312 F3600
G1 X132.939 Y96.091 E103.7139
G1 X131.745 Y96.833 E104.8829
G1 X130.098 Y98.728 E106.9702
G1 X129.902 Y98.728 E107.1336
G1 X128.255 Y96.833 E109.2208
G1 X126.799 Y95.928 E110.6466
G1 X126.167 Y95.778 E111.1860
G1 X127.375 Y95.199 E112.2997
G1 X128.666 Y94.845 E113.4128
G1 X130.000 Y94.725 E114.5264
G1 X131.334 Y94.845 E115.6400
G1 X132.625 Y95.199 E116.7531
G1 X133.833 Y95.778 E117.8667
G1 X133.923 Y95.770 E117.9378
G0 X128.515 Y100.408 F7200
G1 X128.232 Y99.856 E118.4532 F3600
G1 X126.943 Y98.373 E120.0871
G1 X125.219 Y97.301 E121.7754
G1 X123.564 Y96.973 E123.1781
G1 X122.993 Y96.480 E124.0805
G1 X122.421 Y96.792 E124.7531
G1 X121.850 Y97.104 E125.3200
G0 X120.991 Y97.881 F7200
G1 X119.529 Y98.844 E126.1538 F3600
G1 X118.963 Y99.086 E126.5844
G1 X118.397 Y99.328 E127.1523
G1 X118.095 Y99.834 E127.6422
G1 X117.201 Y101.584 E129.2767
G0 X116.359 Y103.007 F7200
G0 X116.338 Y103.579
G0 X116.419 Y104.150
G0 X116.557 Y105.293
G0 X116.667 Y105.865
G1 X116.849 Y106.436 E129.6531 F3600
G1 X117.009 Y107.007 E129.9717
G1 X117.199 Y107.579 E130.2540
G0 X117.324 Y107.827 F7200
G0 X117.080 Y107.263
G0 X116.903 Y106.632
G0 X116.681 Y106.046
G0 X116.553 Y105.366
G1 X116.667 Y105.865 E130.6310 F3600
G1 X116.557 Y105.293 E131.0982
G1 X116.488 Y104.722 E131.6169
G1 X116.419 Y104.150 E132.1922
G1 X116.338 Y103.579 E132.8156
G1 X116.359 Y103.007 E133.4962
G1 X115.696 Y101.883 E134.5818
G1 X115.572 Y100.000 E136.1510
G1 X115.675 Y98.436 E137.4542
G0 X115.775 Y97.865 F7200
G0 X115.683 Y96.150
G1 X115.714 Y96.722 E137.8088 F3600
G1 X115.745 Y97.293 E138.2309
G1 X115.775 Y97.865 E138.7206
G1 X117.278 Y99.166 E140.3738
G1 X117.850 Y99.193 E140.8494
G0 X118.421 Y99.212 F7200
G0 X118.993 Y99.074
G0 X119.564 Y98.829
G1 X120.991 Y97.881 E141.6528 F3600
G0 X121.432 Y97.514 F7200
G0 X121.916 Y97.190
G0 X122.264 Y96.730
G0 X122.834 Y96.491
G1 X122.996 Y95.846 E142.2065 F3600
G1 X123.765 Y95.046 E143.1289
G1 X125.141 Y94.052 E144.5405
G1 X126.673 Y93.318 E145.9524
G1 X128.309 Y92.869 E147.3635
G1 X130.000 Y92.717 E148.7752
G1 X131.691 Y92.869 E150.1867
G1 X133.327 Y93.318 E151.5979
G1 X134.859 Y94.052 E153.0098
G1 X136.235 Y95.046 E154.4214
G1 X137.192 Y96.041 E155.5690
G0 X137.435 Y96.605 F7200
G0 X137.829 Y97.019
G0 X138.314 Y97.343
G0 X138.798 Y97.667
G1 X139.203 Y98.070 E155.8096 F3600
G1 X141.704 Y99.199 E158.0909
G1 X143.084 Y97.347 E160.0117
G0 X143.769 Y97.224 F7200
G0 X143.860 Y96.507
G0 X144.009 Y95.847
G1 X144.022 Y95.579 E160.1675 F3600
G1 X143.941 Y96.150 E160.6343
G1 X143.812 Y96.722 E161.2240
G1 X143.683 Y97.293 E161.9296
G1 X144.304 Y98.117 E162.7876
G1 X144.427 Y100.000 E164.3568
G1 X144.304 Y101.883 E165.9259
G1 X143.641 Y103.007 E167.4798
G1 X143.662 Y103.579 E168.0976
G1 X143.581 Y104.150 E168.6744
G1 X143.512 Y104.722 E169.1931
G1 X143.443 Y105.293 E169.6551
G1 X143.333 Y105.865 E170.0840
G0 X143.380 Y105.724 F7200
G0 X143.180 Y106.332
G0 X143.004 Y106.964
G0 X142.818 Y107.587
G1 X142.991 Y107.007 E170.4085 F3600
G1 X143.151 Y106.436 E170.7810
G0 X143.333 Y105.865 F7200
G0 X143.443 Y105.293
G0 X143.581 Y104.150
G0 X143.662 Y103.579
G0 X143.641 Y103.007
G1 X142.799 Y101.584 E172.1556 F3600
G1 X141.917 Y99.857 E173.7687
G0 X139.203 Y98.070 F7200
G1 X138.421 Y97.415 E174.4428 F3600
G1 X137.850 Y96.940 E175.1532
G1 X137.278 Y96.628 E175.8814
G1 X136.707 Y96.920 E176.4149
G1 X134.781 Y97.301 E178.0472
G1 X133.057 Y98.373 E179.7355
G1 X131.768 Y99.856 E181.3694
G1 X130.883 Y101.584 E182.9837
G1 X130.000 Y103.007 E185.0352
G1 X130.000 Y103.579 E185.6628
G1 X130.000 Y104.150 E186.2826
G1 X130.000 Y104.722 E186.8785
G1 X130.000 Y105.293 E187.4507
G1 X130.000 Y105.865 E188.0375
G1 X130.000 Y106.436 E188.6482
G1 X130.000 Y107.007 E189.2826
G1 X130.000 Y107.579 E189.9548
G1 X130.588 Y108.150 E190.6365
G1 X130.883 Y109.222 E191.5606
G1 X131.768 Y110.948 E193.1735
G1 X133.056 Y112.432 E194.8076
G1 X133.970 Y113.000 E195.7027
G0 X135.564 Y113.490 F7200
G1 X136.135 Y113.416 E196.0145 F3600
G0 X136.480 Y113.370 F7200
G0 X135.961 Y113.660
G1 X135.564 Y113.490 E196.3140 F3600
G1 X134.993 Y113.569 E196.7663
G1 X134.421 Y113.503 E197.3350
G1 X133.850 Y113.454 E198.0261
G1 X133.278 Y114.026 E198.6984
G1 X131.883 Y114.304 E199.8814
G1 X130.000 Y114.428 E201.4505
G1 X128.117 Y114.304 E203.0196
G1 X126.993 Y114.080 E203.9729
G1 X126.421 Y113.593 E204.8262
G1 X125.850 Y113.472 E205.4603
G1 X125.278 Y113.537 E205.9672
G1 X124.707 Y113.508 E206.3973
G1 X124.135 Y113.470 E206.7575
G1 X123.858 Y113.415 E206.9099
G1 X123.564 Y113.376 E207.0465
G0 X124.135 Y113.470 F7200
G0 X124.707 Y113.508
G1 X125.767 Y113.163 E207.9737 F3600
G1 X126.944 Y112.432 E209.1256
G1 X128.232 Y110.948 E210.7597
G1 X129.117 Y109.222 E212.3726
G1 X129.412 Y108.150 E213.2967
G0 X130.000 Y107.007 F7200
G0 X130.000 Y103.007
G1 X129.117 Y101.584 E214.6895 F3600
G1 X128.970 Y101.298 E214.9568
G0 X125.578 Y99.879 F7200
G0 X124.473 Y99.192
G0 X123.453 Y98.990
G0 X123.453 Y98.990
G0 X123.410 Y98.972
;segType:Perimeter
G0 X123.453 Y98.990
G1 X124.473 Y99.192 E215.8213 F2159
G1 X125.632 Y99.912 E216.9558
G1 X126.563 Y100.984 E218.1364
G1 X127.243 Y102.313 E219.3779
G1 X127.657 Y103.814 E220.6720
G1 X127.797 Y105.403 E221.9985
G1 X127.657 Y106.992 E223.3249
G1 X127.243 Y108.492 E224.6192
G1 X126.563 Y109.820 E225.8598
G1 X125.632 Y110.893 E227.0409
G1 X124.472 Y111.613 E228.1760
G1 X123.159 Y111.872 E229.2894
G1 X121.845 Y111.613 E230.4025
G1 X120.685 Y110.893 E231.5383
G1 X119.753 Y109.820 E232.7198
G1 X119.074 Y108.492 E233.9598
G1 X118.659 Y106.992 E235.2543
G1 X118.520 Y105.403 E236.5807
G1 X118.659 Y103.814 E237.9071
G1 X119.074 Y102.313 E239.2014
G1 X119.753 Y100.984 E240.4423
G1 X120.685 Y99.912 E241.6234
G1 X121.845 Y99.192 E242.7585
G1 X122.864 Y98.990 E243.6228
;segType:InnerHair
G0 X129.737 Y96.223 F7200
G1 X129.987 Y96.371 E243.7751 F3600
G1 X130.421 Y96.204 E243.9347
G1 X129.850 Y96.307 E244.1997
G1 X129.737 Y96.223 E244.2605
;segType:Loop
G0 X129.915 Y112.207 F7200
G1 X130.461 Y112.469 E244.7560 F3600
G1 X131.057 Y112.682 E245.1102
G1 X130.993 Y112.655 E245.1507
G1 X130.421 Y112.515 E245.5818
G1 X129.850 Y112.354 E246.1046
G1 X129.278 Y112.693 E246.4822
G1 X128.707 Y112.780 E246.7511
G1 X128.643 Y112.807 E246.7814
G1 X129.255 Y112.610 E247.2418
G1 X129.795 Y112.342 E247.7904
G1 X129.915 Y112.207 E247.9724
G0 X132.484 Y107.504 F7200
G0 X132.343 Y106.992
G0 X132.203 Y105.403
G0 X132.343 Y103.814
G0 X132.757 Y102.313
G0 X133.437 Y100.984
G0 X134.368 Y99.912
G0 X135.527 Y99.192
G0 X136.841 Y98.932
G0 X137.136 Y98.990
G0 X137.136 Y98.990
G0 X137.158 Y98.949
;segType:Perimeter
G0 X137.136 Y98.990
G1 X138.155 Y99.192 E248.8367 F2159
G1 X139.315 Y99.912 E249.9719
G1 X140.247 Y100.984 E251.1529
G1 X140.926 Y102.313 E252.3939
G1 X141.341 Y103.814 E253.6882
G1 X141.480 Y105.403 E255.0145
G1 X141.341 Y106.992 E256.3410
G1 X140.926 Y108.492 E257.6354
G1 X140.247 Y109.820 E258.8754
G1 X139.315 Y110.893 E260.0569
G1 X138.155 Y111.613 E261.1927
G1 X136.841 Y111.872 E262.3059
G1 X135.528 Y111.613 E263.4193
G1 X134.368 Y110.893 E264.5544
G1 X133.437 Y109.820 E265.7355
G1 X132.757 Y108.492 E266.9761
G1 X132.343 Y106.992 E268.2704
G1 X132.203 Y105.403 E269.5968
G1 X132.343 Y103.814 E270.9233
G1 X132.757 Y102.313 E272.2174
G1 X133.437 Y100.984 E273.4589
G1 X134.368 Y99.912 E274.6395
G1 X135.527 Y99.192 E275.7741
G1 X136.547 Y98.990 E276.6385
G0 X138.931 Y97.842 F7200
G0 X138.960 Y97.828
G0 X138.960 Y97.828
G0 X140.435 Y97.118
G0 X140.393 Y97.138
G1 X138.977 Y95.011 E278.7632 F2159
G1 X137.551 Y93.530 E280.4723
G1 X135.885 Y92.326 E282.1819
G1 X134.030 Y91.437 E283.8920
G1 X132.048 Y90.893 E285.6012
G1 X130.000 Y90.709 E287.3108
G1 X127.952 Y90.893 E289.0204
G1 X125.970 Y91.437 E290.7296
G1 X124.115 Y92.326 E292.4398
G1 X122.449 Y93.530 E294.1493
G1 X121.023 Y95.011 E295.8585
G1 X119.520 Y97.269 E298.1139
G1 X117.688 Y97.183 E299.6386
G1 X117.076 Y95.235 E301.3368
G1 X118.827 Y92.476 E304.0544
G1 X120.555 Y90.557 E306.2009
G1 X122.614 Y88.985 E308.3553
G1 X124.930 Y87.822 E310.5099
G1 X127.420 Y87.107 E312.6643
G1 X130.000 Y86.866 E314.8189
G1 X132.580 Y87.107 E316.9736
G1 X135.070 Y87.822 E319.1279
G1 X137.386 Y88.985 E321.2825
G1 X139.445 Y90.557 E323.4369
G1 X141.183 Y92.487 E325.5957
G1 X142.526 Y94.747 E327.7820
G1 X140.738 Y97.147 E330.2707
G0 X139.477 Y98.840 F7200
; ------------------------------------
; Layer #2
; ------------------------------------
M106 S0 ;turn off fan
G92 E0 ;reset extr
;segType:Loop
G0 F3000 E-1.0000
G0 F1200 Z3.000
G0 X141.672 Y90.753 F7200
G0 F3000 E0.0000
G1 X141.292 Y90.325 E0.2512 F3600
G1 X140.911 Y89.897 E0.5041
G1 X140.531 Y89.469 E0.7589
G1 X140.091 Y89.101 E1.0208
G1 X139.646 Y88.737 E1.2923
G1 X139.202 Y88.374 E1.5730
G1 X138.741 Y88.026 E1.8534
G1 X138.274 Y87.685 E2.1228
G1 X137.764 Y87.388 E2.4161
G1 X137.244 Y87.099 E2.7233
G1 X136.705 Y86.830 E3.0338
G1 X136.165 Y86.562 E3.3432
G1 X134.993 Y86.102 E4.0044
G1 X134.421 Y85.923 E4.3259
G1 X133.850 Y85.743 E4.6558
G1 X133.278 Y85.604 E4.9676
G1 X132.707 Y85.482 E5.2736
G1 X132.135 Y85.399 E5.5904
G1 X131.564 Y85.340 E5.9083
G1 X130.993 Y85.294 E6.2218
G1 X130.421 Y85.249 E6.5314
G1 X129.850 Y85.227 E6.8385
G1 X129.278 Y85.273 E7.1501
G1 X128.707 Y85.318 E7.4656
G1 X128.135 Y85.364 E7.7848
G1 X127.564 Y85.443 E8.0938
G1 X126.993 Y85.538 E8.3954
G1 X126.421 Y85.677 E8.7134
G1 X125.850 Y85.839 E9.0356
G1 X125.278 Y86.018 E9.3534
G1 X124.707 Y86.196 E9.6640
G1 X124.090 Y86.435 E10.0026
G1 X123.551 Y86.703 E10.3126
G1 X123.011 Y86.972 E10.6237
G1 X122.478 Y87.247 E10.9299
G1 X121.968 Y87.544 E11.2137
G1 X121.482 Y87.867 E11.4928
G1 X121.008 Y88.201 E11.7808
G1 X120.564 Y88.565 E12.0567
G1 X120.120 Y88.929 E12.3233
G1 X119.675 Y89.293 E12.5805
G1 X119.269 Y89.694 E12.8339
G1 X118.889 Y90.122 E13.0859
G1 X118.508 Y90.550 E13.3361
G1 X118.131 Y90.981 E13.5825
G0 X118.508 Y90.550 F7200
G0 X119.269 Y89.694
G0 X119.675 Y89.293
G0 X121.008 Y88.201
G0 X121.482 Y87.867
G0 X121.968 Y87.544
G0 X122.478 Y87.247
G0 X123.011 Y86.972
G0 X124.090 Y86.435
G1 X124.135 Y86.397 E13.6133 F3600
G0 X124.707 Y86.196 F7200
G0 X125.850 Y85.839
G0 X126.421 Y85.677
G0 X126.993 Y85.538
G0 X127.564 Y85.443
G0 X128.135 Y85.364
G0 X129.850 Y85.227
G0 X130.421 Y85.249
G0 X131.564 Y85.340
G0 X132.135 Y85.399
G0 X132.707 Y85.482
G0 X133.278 Y85.604
G0 X133.850 Y85.743
G0 X134.421 Y85.923
G0 X134.993 Y86.102
G1 X135.564 Y86.271 E13.9143 F3600
G1 X135.623 Y86.296 E13.9471
G0 X136.165 Y86.562 F7200
G0 X137.244 Y87.099
G0 X137.764 Y87.388
G0 X138.274 Y87.685
G0 X138.741 Y88.026
G0 X139.202 Y88.374
G0 X140.091 Y89.101
G0 X140.531 Y89.469
G0 X141.672 Y90.753
;segType:Perimeter
G0 X144.541 Y94.568
G1 X146.311 Y98.155 E17.2732 F2159
G1 X146.432 Y100.000 E18.8109
G1 X146.292 Y102.145 E20.5981
G1 X145.872 Y104.253 E22.3852
G1 X145.181 Y106.288 E24.1727
G1 X144.230 Y108.216 E25.9601
G1 X143.036 Y110.003 E27.7472
G1 X141.619 Y111.619 E29.5342
G1 X140.003 Y113.036 E31.3212
G1 X138.216 Y114.230 E33.1082
G1 X136.288 Y115.181 E34.8956
G1 X134.253 Y115.872 E36.6832
G1 X132.145 Y116.292 E38.4703
G1 X130.000 Y116.432 E40.2575
G1 X127.855 Y116.292 E42.0447
G1 X125.747 Y115.872 E43.8318
G1 X123.712 Y115.181 E45.6193
G1 X121.784 Y114.230 E47.4067
G1 X119.997 Y113.036 E49.1938
G1 X118.381 Y111.619 E50.9808
G1 X116.964 Y110.003 E52.7677
G1 X115.770 Y108.216 E54.5548
G1 X114.819 Y106.288 E56.3422
G1 X114.128 Y104.253 E58.1298
G1 X113.708 Y102.145 E59.9168
G1 X113.568 Y100.000 E61.7041
G1 X113.708 Y97.855 E63.4913
G1 X114.128 Y95.747 E65.2783
G1 X114.819 Y93.712 E67.0659
G1 X115.770 Y91.784 E68.8533
G1 X116.964 Y89.997 E70.6404
G1 X118.381 Y88.381 E72.4273
G1 X119.997 Y86.964 E74.2143
G1 X121.784 Y85.770 E76.0014
G1 X123.712 Y84.819 E77.7888
G1 X125.747 Y84.128 E79.5763
G1 X127.855 Y83.708 E81.3634
G1 X130.000 Y83.568 E83.1506
G1 X132.145 Y83.708 E84.9378
G1 X134.253 Y84.128 E86.7249
G1 X136.288 Y84.819 E88.5125
G1 X138.216 Y85.770 E90.2999
G1 X140.003 Y86.964 E92.0869
G1 X141.619 Y88.381 E93.8739
G1 X143.036 Y89.997 E95.6609
G1 X144.230 Y91.784 E97.4479
G1 X145.181 Y93.712 E99.2354
G1 X145.872 Y95.747 E101.0229
G1 X146.233 Y97.561 E102.5606
G0 X145.452 Y101.484 F7200
;segType:Loop
G0 X133.924 Y95.679
G1 X133.271 Y95.615 E103.2312 F3600
G1 X132.939 Y96.091 E103.7139
G1 X131.745 Y96.833 E104.8829
G1 X130.098 Y98.728 E106.9702
G1 X129.902 Y98.728 E107.1336
G1 X128.255 Y96.833 E109.2208
G1 X126.799 Y95.928 E110.6466
G1 X126.167 Y95.778 E111.1860
G1 X127.375 Y95.199 E112.2997
G1 X128.666 Y94.845 E113.4128
G1 X130.000 Y94.725 E114.5264
G1 X131.334 Y94.845 E115.6400
G1 X132.625 Y95.199 E116.7531
G1 X133.833 Y95.778 E117.8667
G1 X133.923 Y95.770 E117.9378
G0 X128.515 Y100.408 F7200
G1 X128.232 Y99.856 E118.4532 F3600
G1 X126.943 Y98.373 E120.0871
G1 X125.219 Y97.301 E121.7754
G1 X123.564 Y96.973 E123.1781
G1 X122.993 Y96.480 E124.0805
G1 X122.421 Y96.792 E124.7531
G1 X121.850 Y97.104 E125.3200
G0 X120.991 Y97.881 F7200
G1 X119.529 Y98.844 E126.1538 F3600
G1 X118.963 Y99.086 E126.5844
G1 X118.397 Y99.328 E127.1523
G1 X118.095 Y99.834 E127.6422
G1 X117.201 Y101.584 E129.2767
G0 X116.359 Y103.007 F7200
G0 X116.338 Y103.579
G0 X116.419 Y104.150
G0 X116.557 Y105.293
G0 X116.667 Y105.865
G1 X116.849 Y106.436 E129.6531 F3600
G1 X117.009 Y107.007 E129.9717
G1 X117.199 Y107.579 E130.2540
G0 X117.324 Y107.827 F7200
G0 X117.080 Y107.263
G0 X116.903 Y106.632
G0 X116.681 Y106.046
G0 X116.553 Y105.366
G1 X116.667 Y105.865 E130.6310 F3600
G1 X116.557 Y105.293 E131.0982
G1 X116.488 Y104.722 E131.6169
G1 X116.419 Y104.150 E132.1922
G1 X116.338 Y103.579 E132.8156
G1 X116.359 Y103.007 E133.4962
G1 X115.696 Y101.883 E134.5818
G1 X115.572 Y100.000 E136.1510
G1 X115.675 Y98.436 E137.4542
G0 X115.775 Y97.865 F7200
G0 X115.683 Y96.150
G1 X115.714 Y96.722 E137.8088 F3600
G1 X115.745 Y97.293 E138.2309
G1 X115.775 Y97.865 E138.7206
G1 X117.278 Y99.166 E140.3738
G1 X117.850 Y99.193 E140.8494
G0 X118.421 Y99.212 F7200
G0 X118.993 Y99.074
G0 X119.564 Y98.829
G1 X120.991 Y97.881 E141.6528 F3600
G0 X121.432 Y97.514 F7200
G0 X121.916 Y97.190
G0 X122.264 Y96.730
G0 X122.834 Y96.491
G1 X122.996 Y95.846 E142.2065 F3600
G1 X123.765 Y95.046 E143.1289
G1 X125.141 Y94.052 E144.5405
G1 X126.673 Y93.318 E145.9524
G1 X128.309 Y92.869 E147.3635
G1 X130.000 Y92.717 E148.7752
G1 X131.691 Y92.869 E150.1867
G1 X133.327 Y93.318 E151.5979
G1 X134.859 Y94.052 E153.0098
G1 X136.235 Y95.046 E154.4214
G1 X137.192 Y96.041 E155.5690
G0 X137.435 Y96.605 F7200
G0 X137.829 Y97.019
G0 X138.314 Y97.343
G0 X138.798 Y97.667
G1 X139.203 Y98.070 E155.8096 F3600
G1 X141.704 Y99.199 E158.0909
G1 X143.084 Y97.347 E160.0117
G0 X143.769 Y97.224 F7200
G0 X143.860 Y96.507
G0 X144.009 Y95.847
G1 X144.022 Y95.579 E160.1675 F3600
G1 X143.941 Y96.150 E160.6343
G1 X143.812 Y96.722 E161.2240
G1 X143.683 Y97.293 E161.9296
G1 X144.304 Y98.117 E162.7876
G1 X144.427 Y100.000 E164.3568
G1 X144.304 Y101.883 E165.9259
G1 X143.641 Y103.007 E167.4798
G1 X143.662 Y103.579 E168.0976
G1 X143.581 Y104.150 E168.6744
G1 X143.512 Y104.722 E169.1931
G1 X143.443 Y105.293 E169.6551
G1 X143.333 Y105.865 E170.0840
G0 X143.380 Y105.724 F7200
G0 X143.180 Y106.332
G0 X143.004 Y106.964
G0 X142.818 Y107.587
G1 X142.991 Y107.007 E170.4085 F3600
G1 X143.151 Y106.436 E170.7810
G0 X143.333 Y105.865 F7200
G0 X143.443 Y105.293
G0 X143.581 Y104.150
G0 X143.662 Y103.579
G0 X143.641 Y103.007
G1 X142.799 Y101.584 E172.1556 F3600
G1 X141.917 Y99.857 E173.7687
G0 X139.203 Y98.070 F7200
G1 X138.421 Y97.415 E174.4428 F3600
G1 X137.850 Y96.940 E175.1532
G1 X137.278 Y96.628 E175.8814
G1 X136.707 Y96.920 E176.4149
G1 X134.781 Y97.301 E178.0472
G1 X133.057 Y98.373 E179.7355
G1 X131.768 Y99.856 E181.3694
G1 X130.883 Y101.584 E182.9837
G1 X130.000 Y103.007 E185.0352
G1 X130.000 Y103.579 E185.6628
G1 X130.000 Y104.150 E186.2826
G1 X130.000 Y104.722 E186.8785
G1 X130.000 Y105.293 E187.4507
G1 X130.000 Y105.865 E188.0375
G1 X130.000 Y106.436 E188.6482
G1 X130.000 Y107.007 E189.2826
G1 X130.000 Y107.579 E189.9548
G1 X130.588 Y108.150 E190.6365
G1 X130.883 Y109.222 E191.5606
G1 X131.768 Y110.948 E193.1735
G1 X133.056 Y112.432 E194.8076
G1 X133.970 Y113.000 E195.7027
G0 X135.564 Y113.490 F7200
G1 X136.135 Y113.416 E196.0145 F3600
G0 X136.480 Y113.370 F7200
G0 X135.961 Y113.660
G1 X135.564 Y113.490 E196.3140 F3600
G1 X134.993 Y113.569 E196.7663
G1 X134.421 Y113.503 E197.3350
G1 X133.850 Y113.454 E198.0261
G1 X133.278 Y114.026 E198.6984
G1 X131.883 Y114.304 E199.8814
G1 X130.000 Y114.428 E201.4505
G1 X128.117 Y114.304 E203.0196
G1 X126.993 Y114.080 E203.9729
G1 X126.421 Y113.593 E204.8262
G1 X125.850 Y113.472 E205.4603
G1 X125.278 Y113.537 E205.9672
G1 X124.707 Y113.508 E206.3973
G1 X124.135 Y113.470 E206.7575
G1 X123.858 Y113.415 E206.9099
G1 X123.564 Y113.376 E207.0465
G0 X124.135 Y113.470 F7200
G0 X124.707 Y113.508
G1 X125.767 Y113.163 E207.9737 F3600
G1 X126.944 Y112.432 E209.1256
G1 X128.232 Y110.948 E210.7597
G1 X129.117 Y109.222 E212.3726
G1 X129.412 Y108.150 E213.2967
G0 X130.000 Y107.007 F7200
G0 X130.000 Y103.007
G1 X129.117 Y101.584 E214.6895 F3600
G1 X128.970 Y101.298 E214.9568
G0 X125.578 Y99.879 F7200
G0 X124.473 Y99.192
G0 X123.453 Y98.990
G0 X123.453 Y98.990
G0 X123.410 Y98.972
;segType:Perimeter
G0 X123.453 Y98.990
G1 X124.473 Y99.192 E215.8213 F2159
G1 X125.632 Y99.912 E216.9558
G1 X126.563 Y100.984 E218.1364
G1 X127.243 Y102.313 E219.3779
G1 X127.657 Y103.814 E220.6720
G1 X127.797 Y105.403 E221.9985
G1 X127.657 Y106.992 E223.3249
G1 X127.243 Y108.492 E224.6192
G1 X126.563 Y109.820 E225.8598
G1 X125.632 Y110.893 E227.0409
G1 X124.472 Y111.613 E228.1760
G1 X123.159 Y111.872 E229.2894
G1 X121.845 Y111.613 E230.4025
G1 X120.685 Y110.893 E231.5383
G1 X119.753 Y109.820 E232.7198
G1 X119.074 Y108.492 E233.9598
G1 X118.659 Y106.992 E235.2543
G1 X118.520 Y105.403 E236.5807
G1 X118.659 Y103.814 E237.9071
G1 X119.074 Y102.313 E239.2014
G1 X119.753 Y100.984 E240.4423
G1 X120.685 Y99.912 E241.6234
G1 X121.845 Y99.192 E242.7585
G1 X122.864 Y98.990 E243.6228
;segType:InnerHair
G0 X129.737 Y96.223 F7200
G1 X129.987 Y96.371 E243.7751 F3600
G1 X130.421 Y96.204 E243.9347
G1 X129.850 Y96.307 E244.1997
G1 X129.737 Y96.223 E244.2605
;segType:Loop
G0 X129.915 Y112.207 F7200
G1 X130.461 Y112.469 E244.7560 F3600
G1 X131.057 Y112.682 E245.1102
G1 X130.993 Y112.655 E245.1507
G1 X130.421 Y112.515 E245.5818
G1 X129.850 Y112.354 E246.1046
G1 X129.278 Y112.693 E246.4822
G1 X128.707 Y112.780 E246.7511
G1 X128.643 Y112.807 E246.7814
G1 X129.255 Y112.610 E247.2418
G1 X129.795 Y112.342 E247.7904
G1 X129.915 Y112.207 E247.9724
G0 X132.484 Y107.504 F7200
G0 X132.343 Y106.992
G0 X132.203 Y105.403
G0 X132.343 Y103.814
G0 X132.757 Y102.313
G0 X133.437 Y100.984
G0 X134.368 Y99.912
G0 X135.527 Y99.192
G0 X136.841 Y98.932
G0 X137.136 Y98.990
G0 X137.136 Y98.990
G0 X137.158 Y98.949
;segType:Perimeter
G0 X137.136 Y98.990
G1 X138.155 Y99.192 E248.8367 F2159
G1 X139.315 Y99.912 E249.9719
G1 X140.247 Y100.984 E251.1529
G1 X140.926 Y102.313 E252.3939
G1 X141.341 Y103.814 E253.6882
G1 X141.480 Y105.403 E255.0145
G1 X141.341 Y106.992 E256.3410
G1 X140.926 Y108.492 E257.6354
G1 X140.247 Y109.820 E258.8754
G1 X139.315 Y110.893 E260.0569
G1 X138.155 Y111.613 E261.1927
G1 X136.841 Y111.872 E262.3059
G1 X135.528 Y111.613 E263.4193
G1 X134.368 Y110.893 E264.5544
G1 X133.437 Y109.820 E265.7355
G1 X132.757 Y108.492 E266.9761
G1 X132.343 Y106.992 E268.2704
G1 X132.203 Y105.403 E269.5968
G1 X132.343 Y103.814 E270.9233
G1 X132.757 Y102.313 E272.2174
G1 X133.437 Y100.984 E273.4589
G1 X134.368 Y99.912 E274.6395
G1 X135.527 Y99.192 E275.7741
G1 X136.547 Y98.990 E276.6385
G0 X138.931 Y97.842 F7200
G0 X138.960 Y97.828
G0 X138.960 Y97.828
G0 X140.435 Y97.118
G0 X140.393 Y97.138
G1 X138.977 Y95.011 E278.7632 F2159
G1 X137.551 Y93.530 E280.4723
G1 X135.885 Y92.326 E282.1819
G1 X134.030 Y91.437 E283.8920
G1 X132.048 Y90.893 E285.6012
G1 X130.000 Y90.709 E287.3108
G1 X127.952 Y90.893 E289.0204
G1 X125.970 Y91.437 E290.7296
G1 X124.115 Y92.326 E292.4398
G1 X122.449 Y93.530 E294.1493
G1 X121.023 Y95.011 E295.8585
G1 X119.520 Y97.269 E298.1139
G1 X117.688 Y97.183 E299.6386
G1 X117.076 Y95.235 E301.3368
G1 X118.827 Y92.476 E304.0544
G1 X120.555 Y90.557 E306.2009
G1 X122.614 Y88.985 E308.3553
G1 X124.930 Y87.822 E310.5099
G1 X127.420 Y87.107 E312.6643
G1 X130.000 Y86.866 E314.8189
G1 X132.580 Y87.107 E316.9736
G1 X135.070 Y87.822 E319.1279
G1 X137.386 Y88.985 E321.2825
G1 X139.445 Y90.557 E323.4369
G1 X141.183 Y92.487 E325.5957
G1 X142.526 Y94.747 E327.7820
G1 X140.738 Y97.147 E330.2707
G0 X139.477 Y98.840 F7200


G0 X0 Y0 F7200

M104 S0 ;turn off head heater
M140 S0 ;turn off bed heater
M106 S0 ;turn off fan
;CraftWare_Settings=AAAQ4XjajVjfb+I4EH7vX7Hi+YSckFB6PHWhlEp0QQ1tpeqkk5cY8F6wI8fplj3d/35jO07sJPSOx/nG4/nxzXjC31df4De43e1INuOCETHjZD/4/Uv0m4PcMfw9IyDd46wgLvKIP0A8QcgTUpbkhKSABB6wpSeSSJIDENZAJolgWFJ2WHGez6lo3/POaToTvChAZUME2IATBWhJUXpKS56RPvlDkWGWtpCvJN2Sk3JljHyRiTbtVX/FVLYAcGjGSyadpClZb85mAu/lkuB0dsTsQHxLc1qoI1rnK5c6Yx2NPMNnSMKOMIkPbfNzgX/azNdRzUucqSuTMs+50LcDfAFNpMCSHM6Oxh0W2fnuA9woKGdzAg7okvfCvVFrNCVCu/ZYZipVgYupk680lUdFjApYYBZWGVmzBRWF/LbCZ6LYMXJU6gudNCm5vqtKlHMdQP9t9ILNiybFVuD3dq0WNMMn0JxTrAmrTgyv4xqFu/XVbs0i1IE/y12jtST0cOyHFGsJFLUUpB/XvlsPkOvixytlKTTdnRC83XD3M56SBecmssHAFSs++eJlciRZdssOOq1R3BU/sB0gN8hDZl5X1TJoDslPHWROWEHl2YnSyHv72UCPdCe4yUDRj7MVZWRFWMdqX0EMsj3npCO09Palb/Twhg/rXNIT/QUzkDOnA5a42NAsw6LlGWQ3rEZXGMRtaX+0Fu3Or2Ya3TEo5kbNVze1PvxEYEDspDMeGoWahF2oOda164yc0AE3guRY6Jw0IblTpa1kB4nTy0qlN1OfJupinuRzntATlBwzwssiO3c1oFvWwpDfZuGB7WkP9x1xi/sGadiMhkF0o38Bim9GaBROPM3+9BjMY+kw9C+viOrfWxN1GJhLw0l0HUXheFSrwZagn+pOv9VQm+3mBa5YYKjfdtfVqF/5XqVEYiE3vHBc7x+CWvqkOPZnPTJQF9vyXG8qCHlgshM0l+4UWwE5HpgZBqEnW5fSFrjmmUJA3lF/J9ujGpFyzVrhqcyZIqzfichwboqPzA9IgIJgHFhTMJuWmAqbalCsy6vGlp7tppeteL3fF0RCWl8in7masg/uWrDB8picYLwfgdHaOro2dJiEQTAZo/HYatpa3Vf+jip3g5sQAXluOoouJ9EwNmbHUTi6DoNR0NZuU8mMRId7NkHhaBIFk3ji68Hr2hrSBqjHRd0cn5mxjzkU86C9GbXhrHNDcsRee1VS+ou4628l5RlNdckKx/gTLIIzDoRQFRiobp06RJ8umikx1eyb1kHdpj/KQk6VAZ3tP1gwDYYxQtMePk1v0BRg5Cp1ijhVOpGjE5hjvsiVIF9p4ATVuyUqwDDUoawWsuz8zNQOZHbUzjlaEL3PrL//IDtpFzpn3FVjxS45sU1+8hcVsm/b0wB0kV3sUUte8yD0bXX8TzhUwLjdNGqMDOdRNB6F8dhSLcmpwJnhhxugnndlXm2CrjfVzu7N+NgHm1snUW+jwfQ78UJe2KBctP+dcTX+V2e7B1ovkAu1+95saZ0dw4ihJLDWS6d3jNxuM76RZhvx5fVHa92dzwW5Dxa8WfDdyF9Wy/6UAGAncOPvEMVV411HMYonaNxoP5GCZ2W1/lk6vDgr8MiT1Syzbr7ggjzytE2cFyIk3eE6rjqsVyxOZb6gF3bjBq4W3/qcjmaW8YJsecJL+BRyvDDoAu/gydjyn1ikRa0TeDrfCHwzcVje3insURtOWcUYT2sjeK7+j1D/StjX1SbileZqVyWF+RZzo34zw08ZvPrn6l+1tM6P
