; GCode generated by CraftWare

G28 X0 Y0
G28 Z0


M104 S215 ;set head temp (no wait)
M190 S60 ;set bed temp (wait)
M109 S215 ;set head temp (wait)
; ------------------------------------
; Layer #0
; ------------------------------------
M106 S0 ;turn off fan
G21 ; mm
G90 ; abs
G92 E0 ;reset extr
G0 F1200 Z0.300
;segType:Skirt
G0 F3000 E-1.0000
G0 X117.376 Y108.877 F5400
G0 F3000 E0.0000
G1 X117.113 Y108.614 E0.0186 F2400
G1 X116.916 Y108.284 E0.0377
G1 X116.653 Y108.022 E0.0563
G1 X116.258 Y107.364 E0.0945
G1 X115.995 Y107.101 E0.1131
G1 X115.864 Y106.707 E0.1338
G1 X115.469 Y106.049 E0.1721
G1 X115.338 Y105.654 E0.1928
G1 X115.206 Y105.523 E0.2021
G1 X115.206 Y105.260 E0.2152
G1 X115.009 Y104.932 E0.2343
G1 X114.746 Y104.143 E0.2758
G1 X114.680 Y103.682 E0.2990
G1 X114.549 Y103.288 E0.3198
G1 X114.549 Y102.762 E0.3460
G1 X114.417 Y102.630 E0.3553
G1 X114.417 Y101.578 E0.4078
G1 X114.286 Y100.658 E0.4542
G1 X114.286 Y98.817 E0.5460
G1 X114.417 Y98.685 E0.5553
G1 X114.417 Y97.370 E0.6209
G1 X114.549 Y97.239 E0.6302
G1 X114.549 Y96.713 E0.6564
G1 X114.680 Y96.581 E0.6657
G1 X114.680 Y96.055 E0.6919
G1 X114.812 Y95.924 E0.7012
G1 X114.812 Y95.661 E0.7143
G1 X114.943 Y95.529 E0.7236
G1 X114.943 Y95.266 E0.7367
G1 X115.075 Y95.135 E0.7460
G1 X115.075 Y94.872 E0.7591
G1 X115.206 Y94.740 E0.7684
G1 X115.206 Y94.477 E0.7815
G1 X115.601 Y93.820 E0.8198
G1 X115.732 Y93.425 E0.8405
G1 X115.995 Y93.162 E0.8591
G1 X116.784 Y91.847 E0.9356
G1 X117.573 Y91.058 E0.9913
G1 X117.771 Y90.729 E1.0104
G1 X120.664 Y87.836 E1.2145
G1 X120.992 Y87.639 E1.2336
G1 X121.781 Y86.850 E1.2893
G1 X124.083 Y85.469 E1.4232
G1 X126.055 Y84.812 E1.5269
G1 X126.976 Y84.680 E1.5733
G1 X127.107 Y84.549 E1.5826
G1 X128.422 Y84.549 E1.6482
G1 X128.554 Y84.417 E1.6575
G1 X130.921 Y84.417 E1.7756
G1 X131.052 Y84.549 E1.7849
G1 X132.630 Y84.549 E1.8636
G1 X132.762 Y84.680 E1.8729
G1 X133.287 Y84.680 E1.8991
G1 X133.682 Y84.812 E1.9199
G1 X133.945 Y84.812 E1.9330
G1 X134.077 Y84.943 E1.9423
G1 X134.340 Y84.943 E1.9554
G1 X134.471 Y85.075 E1.9647
G1 X134.734 Y85.075 E1.9778
G1 X134.866 Y85.206 E1.9871
G1 X135.129 Y85.206 E2.0002
G1 X135.786 Y85.601 E2.0384
G1 X136.575 Y85.864 E2.0799
G1 X137.233 Y86.258 E2.1182
G1 X137.496 Y86.521 E2.1367
G1 X138.153 Y86.916 E2.1750
G1 X138.942 Y87.705 E2.2307
G1 X139.271 Y87.902 E2.2498
G1 X142.164 Y90.795 E2.4539
G1 X142.361 Y91.124 E2.4730
G1 X143.150 Y91.913 E2.5287
G1 X144.137 Y93.557 E2.6244
G1 X144.268 Y93.951 E2.6451
G1 X144.662 Y94.609 E2.6834
G1 X145.188 Y96.187 E2.7663
G1 X145.320 Y97.107 E2.8127
G1 X145.452 Y97.502 E2.8335
G1 X145.452 Y98.554 E2.8860
G1 X145.583 Y99.474 E2.9323
G1 X145.583 Y101.052 E3.0111
G1 X145.452 Y101.447 E3.0318
G1 X145.452 Y102.762 E3.0974
G1 X145.320 Y102.893 E3.1067
G1 X145.320 Y103.419 E3.1329
G1 X145.188 Y103.551 E3.1422
G1 X145.188 Y104.077 E3.1685
G1 X145.057 Y104.208 E3.1777
G1 X145.057 Y104.471 E3.1909
G1 X144.925 Y104.603 E3.2001
G1 X144.925 Y104.866 E3.2133
G1 X144.728 Y105.195 E3.2324
G1 X144.597 Y105.589 E3.2532
G1 X144.399 Y105.917 E3.2723
G1 X144.268 Y106.312 E3.2930
G1 X143.282 Y107.956 E3.3887
G1 X143.019 Y108.219 E3.4072
G1 X142.822 Y108.547 E3.4263
G1 X138.614 Y112.755 E3.7232
G1 X138.351 Y113.018 E3.7418
G1 X138.022 Y113.216 E3.7609
G1 X137.759 Y113.479 E3.7795
G1 X136.444 Y114.268 E3.8560
G1 X136.049 Y114.400 E3.8767
G1 X135.392 Y114.794 E3.9150
G1 X135.129 Y114.794 E3.9281
G1 X134.997 Y114.926 E3.9374
G1 X134.734 Y114.926 E3.9505
G1 X134.406 Y115.122 E3.9696
G1 X133.945 Y115.189 E3.9928
G1 X133.813 Y115.320 E4.0021
G1 X133.287 Y115.320 E4.0284
G1 X133.156 Y115.452 E4.0376
G1 X132.630 Y115.452 E4.0639
G1 X132.499 Y115.583 E4.0732
G1 X127.765 Y115.583 E4.3093
G1 X126.844 Y115.452 E4.3557
G1 X126.450 Y115.320 E4.3765
G1 X125.924 Y115.320 E4.4027
G1 X125.398 Y115.057 E4.4320
G1 X124.214 Y114.663 E4.4943
G1 X123.557 Y114.268 E4.5325
G1 X123.162 Y114.137 E4.5533
G1 X122.505 Y113.742 E4.5915
G1 X122.242 Y113.479 E4.6101
G1 X121.584 Y113.085 E4.6484
G1 X117.376 Y108.877 E4.9452
G0 X117.376 Y109.271 F5400
G1 X116.587 Y108.482 E5.0009 F2400
G1 X116.390 Y108.153 E5.0201
G1 X116.127 Y107.890 E5.0386
G1 X115.338 Y106.575 E5.1151
G1 X115.206 Y106.181 E5.1359
G1 X114.812 Y105.523 E5.1741
G1 X114.812 Y105.260 E5.1872
G1 X114.615 Y104.932 E5.2064
G1 X114.352 Y104.143 E5.2479
G1 X114.286 Y103.682 E5.2711
G1 X114.154 Y103.288 E5.2918
G1 X114.154 Y102.762 E5.3180
G1 X114.023 Y102.630 E5.3273
G1 X114.023 Y101.578 E5.3798
G1 X113.891 Y100.658 E5.4262
G1 X113.891 Y98.817 E5.5180
G1 X114.023 Y98.685 E5.5273
G1 X114.023 Y97.370 E5.5929
G1 X114.154 Y97.239 E5.6022
G1 X114.154 Y96.713 E5.6285
G1 X114.286 Y96.581 E5.6377
G1 X114.286 Y96.055 E5.6640
G1 X114.417 Y95.924 E5.6732
G1 X114.417 Y95.661 E5.6864
G1 X114.549 Y95.529 E5.6956
G1 X114.549 Y95.266 E5.7088
G1 X114.680 Y95.135 E5.7180
G1 X114.680 Y94.872 E5.7312
G1 X114.812 Y94.740 E5.7404
G1 X114.812 Y94.477 E5.7536
G1 X115.206 Y93.820 E5.7918
G1 X115.338 Y93.425 E5.8126
G1 X115.601 Y93.162 E5.8311
G1 X116.390 Y91.847 E5.9076
G1 X117.179 Y91.058 E5.9633
G1 X117.376 Y90.729 E5.9824
G1 X120.795 Y87.310 E6.2237
G1 X121.124 Y87.113 E6.2428
G1 X121.650 Y86.587 E6.2799
G1 X122.636 Y85.995 E6.3373
G1 X122.899 Y85.732 E6.3558
G1 X123.557 Y85.338 E6.3941
G1 X123.951 Y85.206 E6.4149
G1 X124.279 Y85.009 E6.4340
G1 X125.857 Y84.483 E6.5169
G1 X126.318 Y84.417 E6.5402
G1 X126.713 Y84.286 E6.5609
G1 X126.976 Y84.286 E6.5740
G1 X127.107 Y84.154 E6.5833
G1 X128.422 Y84.154 E6.6489
G1 X128.554 Y84.023 E6.6582
G1 X130.921 Y84.023 E6.7763
G1 X131.052 Y84.154 E6.7856
G1 X132.630 Y84.154 E6.8643
G1 X132.762 Y84.286 E6.8736
G1 X133.287 Y84.286 E6.8998
G1 X133.682 Y84.417 E6.9205
G1 X133.945 Y84.417 E6.9337
G1 X134.077 Y84.549 E6.9429
G1 X134.340 Y84.549 E6.9561
G1 X134.471 Y84.680 E6.9653
G1 X134.734 Y84.680 E6.9785
G1 X134.866 Y84.812 E6.9877
G1 X135.129 Y84.812 E7.0009
G1 X135.786 Y85.206 E7.0391
G1 X136.575 Y85.469 E7.0806
G1 X137.233 Y85.864 E7.1189
G1 X137.496 Y86.127 E7.1374
G1 X138.153 Y86.521 E7.1757
G1 X138.942 Y87.310 E7.2313
G1 X139.271 Y87.508 E7.2505
G1 X142.690 Y90.927 E7.4917
G1 X142.887 Y91.255 E7.5108
G1 X143.413 Y91.781 E7.5479
G1 X143.611 Y92.110 E7.5671
G1 X143.874 Y92.373 E7.5856
G1 X144.268 Y93.031 E7.6239
G1 X144.399 Y93.425 E7.6446
G1 X144.794 Y94.083 E7.6829
G1 X144.925 Y94.477 E7.7036
G1 X145.123 Y94.806 E7.7227
G1 X145.517 Y95.989 E7.7850
G1 X145.583 Y96.450 E7.8082
G1 X145.715 Y96.844 E7.8289
G1 X145.846 Y97.765 E7.8753
G1 X145.846 Y98.817 E7.9278
G1 X145.978 Y99.211 E7.9486
G1 X145.978 Y100.789 E8.0273
G1 X145.846 Y101.710 E8.0737
G1 X145.846 Y102.762 E8.1262
G1 X145.715 Y102.893 E8.1354
G1 X145.715 Y103.419 E8.1617
G1 X145.583 Y103.551 E8.1710
G1 X145.583 Y104.077 E8.1972
G1 X145.452 Y104.208 E8.2065
G1 X145.452 Y104.471 E8.2196
G1 X145.320 Y104.603 E8.2289
G1 X145.320 Y104.866 E8.2420
G1 X145.123 Y105.195 E8.2611
G1 X144.991 Y105.589 E8.2819
G1 X144.794 Y105.917 E8.3010
G1 X144.662 Y106.312 E8.3218
G1 X143.676 Y107.956 E8.4174
G1 X143.413 Y108.219 E8.4360
G1 X143.216 Y108.547 E8.4551
G1 X139.008 Y112.755 E8.7520
G1 X138.482 Y113.281 E8.7891
G1 X138.153 Y113.479 E8.8082
G1 X137.890 Y113.742 E8.8268
G1 X137.233 Y114.137 E8.8650
G1 X136.970 Y114.400 E8.8836
G1 X136.575 Y114.531 E8.9043
G1 X135.918 Y114.926 E8.9426
G1 X135.523 Y115.057 E8.9633
G1 X135.392 Y115.189 E8.9726
G1 X135.129 Y115.189 E8.9857
G1 X134.997 Y115.320 E8.9950
G1 X134.734 Y115.320 E9.0081
G1 X134.406 Y115.517 E9.0272
G1 X133.945 Y115.583 E9.0505
G1 X133.813 Y115.715 E9.0597
G1 X133.287 Y115.715 E9.0860
G1 X133.156 Y115.846 E9.0953
G1 X132.630 Y115.846 E9.1215
G1 X132.499 Y115.978 E9.1308
G1 X127.765 Y115.978 E9.3670
G1 X126.844 Y115.846 E9.4133
G1 X126.450 Y115.715 E9.4341
G1 X125.924 Y115.715 E9.4603
G1 X125.398 Y115.452 E9.4897
G1 X124.214 Y115.057 E9.5519
G1 X123.557 Y114.663 E9.5902
G1 X123.162 Y114.531 E9.6109
G1 X122.505 Y114.137 E9.6492
G1 X122.242 Y113.874 E9.6677
G1 X121.584 Y113.479 E9.7060
G1 X117.376 Y109.271 E10.0029
G0 X117.310 Y109.599 F5400
G1 X116.258 Y108.547 E10.0771 F2400
G1 X116.061 Y108.219 E10.0962
G1 X115.798 Y107.956 E10.1148
G1 X114.812 Y106.312 E10.2104
G1 X114.680 Y105.917 E10.2312
G1 X114.483 Y105.589 E10.2503
G1 X114.352 Y105.195 E10.2710
G1 X114.154 Y104.866 E10.2902
G1 X114.154 Y104.603 E10.3033
G1 X114.023 Y104.471 E10.3126
G1 X114.023 Y104.208 E10.3257
G1 X113.891 Y104.077 E10.3350
G1 X113.891 Y103.551 E10.3612
G1 X113.760 Y103.419 E10.3705
G1 X113.760 Y102.893 E10.3967
G1 X113.628 Y102.499 E10.4175
G1 X113.628 Y101.184 E10.4831
G1 X113.497 Y101.052 E10.4924
G1 X113.497 Y98.948 E10.5973
G1 X113.628 Y98.554 E10.6181
G1 X113.628 Y97.502 E10.6706
G1 X113.760 Y97.107 E10.6913
G1 X113.891 Y96.187 E10.7377
G1 X114.549 Y94.214 E10.8414
G1 X115.732 Y92.242 E10.9562
G1 X115.995 Y91.979 E10.9747
G1 X116.193 Y91.650 E10.9939
G1 X116.719 Y91.124 E11.0310
G1 X116.916 Y90.795 E11.0501
G1 X120.597 Y87.113 E11.3099
G1 X120.927 Y86.916 E11.3290
G1 X121.716 Y86.127 E11.3847
G1 X123.031 Y85.338 E11.4612
G1 X123.294 Y85.075 E11.4798
G1 X123.688 Y84.943 E11.5005
G1 X124.346 Y84.549 E11.5388
G1 X124.609 Y84.549 E11.5519
G1 X124.740 Y84.417 E11.5612
G1 X125.003 Y84.417 E11.5743
G1 X125.135 Y84.286 E11.5836
G1 X125.398 Y84.286 E11.5967
G1 X125.529 Y84.154 E11.6060
G1 X125.792 Y84.154 E11.6191
G1 X125.924 Y84.023 E11.6284
G1 X126.450 Y84.023 E11.6546
G1 X126.581 Y83.891 E11.6639
G1 X127.502 Y83.760 E11.7103
G1 X128.028 Y83.760 E11.7365
G1 X128.948 Y83.628 E11.7829
G1 X130.526 Y83.628 E11.8616
G1 X131.447 Y83.760 E11.9080
G1 X132.499 Y83.760 E11.9605
G1 X132.893 Y83.891 E11.9813
G1 X133.419 Y83.891 E12.0075
G1 X133.550 Y84.023 E12.0168
G1 X134.011 Y84.089 E12.0400
G1 X135.195 Y84.483 E12.1022
G1 X135.523 Y84.680 E12.1213
G1 X135.918 Y84.812 E12.1421
G1 X136.049 Y84.943 E12.1514
G1 X136.312 Y84.943 E12.1645
G1 X137.627 Y85.732 E12.2410
G1 X137.890 Y85.995 E12.2596
G1 X138.219 Y86.193 E12.2787
G1 X138.745 Y86.719 E12.3158
G1 X138.943 Y86.837 E12.3273
G0 F3000 E11.3273
G0 X134.318 Y88.959 F5400
G0 X129.693 Y91.082
G0 X127.380 Y92.143
G0 X125.068 Y93.204
G0 X122.755 Y94.265
G0 X120.443 Y95.326
G0 F3000 E12.3273
;segType:HShell
G1 X121.397 Y96.280 E12.3946 F2400
G0 X121.625 Y95.942 F5400
G1 X120.630 Y94.947 E12.4648 F2400
G0 X120.827 Y94.579 F5400
G1 X121.839 Y95.591 E12.5362 F2400
G0 X122.053 Y95.239 F5400
G1 X121.054 Y94.240 E12.6067 F2400
G0 X121.280 Y93.901 F5400
G1 X122.267 Y94.887 E12.6763 F2400
G0 X122.523 Y94.578 F5400
G1 X121.507 Y93.562 E12.7480 F2400
G0 X121.765 Y93.255 F5400
G1 X122.791 Y94.280 E12.8204 F2400
G0 X123.059 Y93.983 F5400
G1 X122.030 Y92.953 E12.8930 F2400
;segType:Perimeter
G0 X121.614 Y92.600 F5400
G1 X121.968 Y91.883 E12.9329 F1440
G1 X123.046 Y90.937 E13.0045
G1 X124.288 Y90.107 E13.0790
G1 X125.628 Y89.446 E13.1535
G1 X127.043 Y88.966 E13.2281
G1 X128.509 Y88.675 E13.3026
G1 X130.000 Y88.577 E13.3772
G1 X131.491 Y88.675 E13.4517
G1 X132.957 Y88.966 E13.5263
G1 X134.372 Y89.447 E13.6008
G1 X135.712 Y90.107 E13.6754
G1 X136.954 Y90.937 E13.7499
G1 X138.078 Y91.923 E13.8245
G1 X139.063 Y93.046 E13.8990
G1 X139.893 Y94.288 E13.9736
G1 X140.554 Y95.628 E14.0481
G1 X141.034 Y97.043 E14.1226
G1 X141.325 Y98.509 E14.1972
G1 X141.423 Y100.000 E14.2718
G1 X141.325 Y101.491 E14.3463
G1 X141.034 Y102.957 E14.4208
G1 X140.554 Y104.372 E14.4954
G1 X139.893 Y105.712 E14.5699
G1 X139.063 Y106.954 E14.6445
G1 X138.077 Y108.078 E14.7190
G1 X136.954 Y109.063 E14.7936
G1 X135.711 Y109.893 E14.8681
G1 X134.372 Y110.554 E14.9427
G1 X132.957 Y111.034 E15.0172
G1 X131.491 Y111.325 E15.0918
G1 X130.000 Y111.423 E15.1663
G1 X128.509 Y111.325 E15.2409
G1 X127.043 Y111.034 E15.3154
G1 X125.628 Y110.554 E15.3900
G1 X124.288 Y109.893 E15.4645
G1 X123.046 Y109.063 E15.5391
G1 X121.922 Y108.078 E15.6136
G1 X120.937 Y106.954 E15.6881
G1 X120.107 Y105.712 E15.7627
G1 X119.446 Y104.372 E15.8372
G1 X118.966 Y102.957 E15.9118
G1 X118.675 Y101.491 E15.9863
G1 X118.577 Y100.000 E16.0609
G1 X118.675 Y98.509 E16.1354
G1 X118.966 Y97.043 E16.2100
G1 X119.446 Y95.628 E16.2845
G1 X120.107 Y94.289 E16.3591
G1 X120.937 Y93.046 E16.4336
G1 X121.883 Y91.968 E16.5052
G0 X122.600 Y91.614 F5400
;segType:Loop
G0 X123.013 Y91.498
G1 X123.290 Y91.255 E16.5235 F2400
G1 X124.489 Y90.454 E16.5955
G1 X125.782 Y89.817 E16.6674
G1 X127.147 Y89.353 E16.7393
G1 X128.561 Y89.072 E16.8113
G1 X130.000 Y88.978 E16.8832
G1 X131.439 Y89.072 E16.9551
G1 X132.853 Y89.353 E17.0270
G1 X134.218 Y89.817 E17.0990
G1 X135.511 Y90.454 E17.1709
G1 X136.710 Y91.255 E17.2428
G1 X137.794 Y92.206 E17.3148
G1 X138.745 Y93.290 E17.3867
G1 X139.546 Y94.489 E17.4586
G1 X140.183 Y95.782 E17.5306
G1 X140.647 Y97.147 E17.6025
G1 X140.928 Y98.561 E17.6744
G1 X141.022 Y100.000 E17.7464
G1 X140.928 Y101.439 E17.8183
G1 X140.647 Y102.853 E17.8902
G1 X140.183 Y104.218 E17.9621
G1 X139.546 Y105.511 E18.0341
G1 X138.745 Y106.710 E18.1060
G1 X137.794 Y107.794 E18.1779
G1 X136.710 Y108.745 E18.2499
G1 X135.511 Y109.546 E18.3218
G1 X134.218 Y110.183 E18.3937
G1 X132.853 Y110.647 E18.4657
G1 X131.439 Y110.928 E18.5376
G1 X130.000 Y111.022 E18.6095
G1 X128.561 Y110.928 E18.6814
G1 X127.147 Y110.647 E18.7534
G1 X125.782 Y110.183 E18.8253
G1 X124.489 Y109.546 E18.8972
G1 X123.290 Y108.745 E18.9692
G1 X122.206 Y107.794 E19.0411
G1 X121.255 Y106.710 E19.1130
G1 X120.454 Y105.511 E19.1850
G1 X119.817 Y104.218 E19.2569
G1 X119.353 Y102.853 E19.3288
G1 X119.072 Y101.439 E19.4008
G1 X118.978 Y100.000 E19.4727
G1 X119.072 Y98.561 E19.5446
G1 X119.353 Y97.147 E19.6166
G1 X119.817 Y95.782 E19.6885
G1 X120.454 Y94.489 E19.7604
G1 X121.255 Y93.290 E19.8323
G1 X122.206 Y92.206 E19.9043
G1 X122.863 Y91.630 E19.9479
G0 X122.863 Y91.630 F5400
G0 X123.497 Y94.035
G0 X123.497 Y94.035
G0 X122.602 Y95.029
G0 X121.766 Y96.404
G0 X121.557 Y96.645
G0 X121.452 Y97.159
G0 X121.609 Y97.660
G0 X121.990 Y98.020
G0 X122.481 Y98.145
G0 X123.029 Y98.033
G0 X123.963 Y96.632
G0 X124.134 Y96.454
G0 X124.134 Y96.454
G0 X124.245 Y96.875
;segType:HShell
G0 X124.242 Y96.862
G1 X126.795 Y99.415 E20.1280 F2400
G0 X125.894 Y99.080 F5400
G1 X124.016 Y97.202 E20.2605 F2400
G0 X123.789 Y97.541 F5400
G1 X125.271 Y99.023 E20.3650 F2400
G0 X124.799 Y99.117 F5400
G1 X123.563 Y97.881 E20.4522 F2400
;segType:Perimeter
G0 X123.513 Y97.525 F5400
G1 X122.729 Y97.686 E20.4921 F1440
G1 X122.490 Y97.735 E20.5043
G1 X122.189 Y97.658 E20.5198
G1 X121.959 Y97.441 E20.5356
G1 X121.864 Y97.138 E20.5514
G1 X121.928 Y96.828 E20.5672
G1 X122.090 Y96.640 E20.5796
G1 X122.924 Y95.269 E20.6596
G1 X124.021 Y94.050 E20.7415
G1 X125.325 Y93.055 E20.8233
G1 X126.791 Y92.319 E20.9051
G1 X128.367 Y91.866 E20.9869
G1 X130.000 Y91.714 E21.0688
G1 X131.633 Y91.866 E21.1506
G1 X133.210 Y92.319 E21.2324
G1 X134.675 Y93.055 E21.3142
G1 X135.979 Y94.050 E21.3961
G1 X137.076 Y95.269 E21.4779
G1 X137.908 Y96.637 E21.5577
G1 X138.103 Y96.845 E21.5720
G1 X138.167 Y97.159 E21.5880
G1 X138.073 Y97.460 E21.6037
G1 X137.843 Y97.677 E21.6195
G1 X137.537 Y97.756 E21.6353
G1 X137.209 Y97.669 E21.6522
G1 X136.350 Y96.380 E21.7295
G1 X135.342 Y95.332 E21.8020
G1 X134.163 Y94.480 E21.8746
G1 X132.851 Y93.852 E21.9471
G1 X131.449 Y93.467 E22.0197
G1 X130.000 Y93.337 E22.0923
G1 X128.551 Y93.467 E22.1648
G1 X127.149 Y93.852 E22.2374
G1 X125.837 Y94.480 E22.3100
G1 X124.658 Y95.332 E22.3825
G1 X123.650 Y96.380 E22.4551
G1 X122.821 Y97.624 E22.5297
G0 X122.377 Y98.290 F5400
;segType:Loop
G0 X121.527 Y97.399
G1 X121.452 Y97.159 E22.5422 F2400
G1 X121.557 Y96.645 E22.5684
G1 X121.766 Y96.404 E22.5843
G1 X122.602 Y95.029 E22.6646
G1 X123.749 Y93.755 E22.7501
G1 X125.112 Y92.714 E22.8357
G1 X126.644 Y91.944 E22.9212
G1 X128.293 Y91.471 E23.0068
G1 X130.000 Y91.312 E23.0923
G1 X131.707 Y91.471 E23.1779
G1 X133.356 Y91.944 E23.2634
G1 X134.888 Y92.714 E23.3490
G1 X136.251 Y93.755 E23.4345
G1 X137.398 Y95.029 E23.5201
G1 X138.228 Y96.394 E23.5997
G1 X138.472 Y96.655 E23.6176
G1 X138.580 Y97.180 E23.6443
G1 X138.423 Y97.679 E23.6704
G1 X138.043 Y98.039 E23.6966
G1 X137.535 Y98.169 E23.7227
G1 X136.960 Y98.016 E23.7524
G1 X136.037 Y96.632 E23.8354
G1 X135.078 Y95.635 E23.9044
G1 X133.958 Y94.826 E23.9734
G1 X132.711 Y94.228 E24.0424
G1 X131.377 Y93.862 E24.1114
G1 X130.000 Y93.738 E24.1804
G1 X128.623 Y93.862 E24.2493
G1 X127.289 Y94.228 E24.3183
G1 X126.042 Y94.826 E24.3873
G1 X124.922 Y95.635 E24.4563
G1 X123.963 Y96.632 E24.5253
G1 X123.029 Y98.033 E24.6093
G1 X122.481 Y98.145 E24.6372
G1 X121.990 Y98.020 E24.6625
G1 X121.609 Y97.660 E24.6887
G1 X121.587 Y97.590 E24.6923
;segType:HShell
G0 X123.383 Y99.964 F5400
G1 X119.945 Y96.525 E24.9349 F2400
G0 X119.801 Y96.947 F5400
G1 X123.120 Y100.266 E25.1691 F2400
G0 X122.495 Y98.510 F5400
G1 X123.662 Y99.677 E25.2514 F2400
G0 X124.011 Y99.460 F5400
G1 X122.965 Y98.414 E25.3252 F2400
G0 X123.337 Y98.220 F5400
G1 X124.360 Y99.243 E25.3974 F2400
;segType:Perimeter
G0 X124.713 Y99.622 F5400
G1 X125.498 Y99.777 E25.4373 F1440
G1 X126.140 Y99.903 E25.4700
G1 X126.781 Y100.302 E25.5076
G1 X127.318 Y100.920 E25.5485
G1 X127.724 Y101.712 E25.5929
G1 X127.976 Y102.626 E25.6402
G1 X128.062 Y103.602 E25.6890
G1 X127.976 Y104.578 E25.7379
G1 X127.724 Y105.491 E25.7852
G1 X127.318 Y106.283 E25.8296
G1 X126.781 Y106.902 E25.8705
G1 X126.140 Y107.300 E25.9081
G1 X125.439 Y107.438 E25.9438
G1 X124.738 Y107.300 E25.9794
G1 X124.097 Y106.902 E26.0171
G1 X123.559 Y106.283 E26.0580
G1 X123.154 Y105.491 E26.1024
G1 X122.902 Y104.578 E26.1496
G1 X122.816 Y103.602 E26.1985
G1 X122.902 Y102.626 E26.2474
G1 X123.154 Y101.712 E26.2947
G1 X123.559 Y100.920 E26.3391
G1 X124.097 Y100.302 E26.3799
G1 X124.737 Y99.903 E26.4176
G1 X125.380 Y99.777 E26.4503
G0 X126.165 Y99.622 F5400
;segType:Loop
G0 X126.678 Y99.767
G1 X127.043 Y99.994 E26.4717 F2400
G1 X127.652 Y100.694 E26.5180
G1 X128.099 Y101.567 E26.5669
G1 X128.371 Y102.555 E26.6180
G1 X128.463 Y103.602 E26.6705
G1 X128.371 Y104.649 E26.7229
G1 X128.099 Y105.637 E26.7740
G1 X127.652 Y106.509 E26.8229
G1 X127.043 Y107.210 E26.8692
G1 X126.289 Y107.678 E26.9135
G1 X125.439 Y107.846 E26.9568
G1 X124.588 Y107.678 E27.0000
G1 X123.834 Y107.210 E27.0443
G1 X123.225 Y106.509 E27.0906
G1 X122.779 Y105.637 E27.1395
G1 X122.506 Y104.649 E27.1906
G1 X122.414 Y103.602 E27.2431
G1 X122.506 Y102.555 E27.2955
G1 X122.779 Y101.567 E27.3467
G1 X123.225 Y100.694 E27.3955
G1 X123.834 Y99.994 E27.4419
G1 X124.588 Y99.525 E27.4861
G1 X125.439 Y99.357 E27.5294
G1 X126.289 Y99.525 E27.5727
G1 X126.509 Y99.661 E27.5855
;segType:HShell
G0 X133.438 Y99.271 F5400
G1 X128.450 Y94.283 E27.9374 F2400
G0 X128.929 Y94.196 F5400
G1 X133.862 Y99.128 E28.2855 F2400
;segType:Perimeter
G0 X133.835 Y99.622 F5400
G1 X134.620 Y99.777 E28.3254 F1440
G1 X135.263 Y99.903 E28.3580
G1 X135.903 Y100.302 E28.3957
G1 X136.441 Y100.920 E28.4366
G1 X136.846 Y101.712 E28.4810
G1 X137.098 Y102.626 E28.5282
G1 X137.184 Y103.602 E28.5771
G1 X137.098 Y104.578 E28.6260
G1 X136.846 Y105.491 E28.6733
G1 X136.441 Y106.283 E28.7177
G1 X135.903 Y106.902 E28.7585
G1 X135.263 Y107.300 E28.7962
G1 X134.561 Y107.438 E28.8318
G1 X133.860 Y107.300 E28.8675
G1 X133.219 Y106.902 E28.9051
G1 X132.682 Y106.283 E28.9460
G1 X132.276 Y105.491 E28.9904
G1 X132.024 Y104.578 E29.0377
G1 X131.938 Y103.602 E29.0866
G1 X132.024 Y102.626 E29.1355
G1 X132.276 Y101.712 E29.1827
G1 X132.682 Y100.920 E29.2271
G1 X133.219 Y100.302 E29.2680
G1 X133.860 Y99.903 E29.3057
G1 X134.502 Y99.777 E29.3383
G0 X135.287 Y99.622 F5400
;segType:Loop
G0 X135.801 Y99.767
G1 X136.166 Y99.994 E29.3598 F2400
G1 X136.775 Y100.694 E29.4061
G1 X137.221 Y101.567 E29.4550
G1 X137.494 Y102.555 E29.5061
G1 X137.586 Y103.602 E29.5585
G1 X137.494 Y104.649 E29.6110
G1 X137.221 Y105.637 E29.6621
G1 X136.775 Y106.509 E29.7110
G1 X136.166 Y107.210 E29.7573
G1 X135.412 Y107.678 E29.8016
G1 X134.561 Y107.846 E29.8448
G1 X133.711 Y107.678 E29.8881
G1 X132.957 Y107.210 E29.9324
G1 X132.348 Y106.509 E29.9787
G1 X131.901 Y105.637 E30.0276
G1 X131.629 Y104.649 E30.0787
G1 X131.537 Y103.602 E30.1312
G1 X131.629 Y102.555 E30.1836
G1 X131.901 Y101.567 E30.2347
G1 X132.348 Y100.694 E30.2836
G1 X132.957 Y99.994 E30.3299
G1 X133.711 Y99.525 E30.3742
G1 X134.561 Y99.357 E30.4175
G1 X135.412 Y99.525 E30.4607
G1 X135.631 Y99.661 E30.4736
;segType:HShell
G0 X137.236 Y100.806 F5400
G1 X140.017 Y103.587 E30.6698 F2400
G0 X139.874 Y104.009 F5400
G1 X137.657 Y101.792 E30.8262 F2400
G0 X137.855 Y102.556 F5400
G1 X139.694 Y104.395 E30.9560 F2400
G0 X139.507 Y104.774 F5400
G1 X137.910 Y103.176 E31.0687 F2400
G0 X137.933 Y103.765 F5400
G1 X139.321 Y105.153 E31.1666 F2400
G0 X139.113 Y105.511 F5400
G1 X137.887 Y104.285 E31.2531 F2400
G0 X137.828 Y104.792 F5400
G1 X138.886 Y105.850 E31.3278 F2400
G0 X138.660 Y106.189 F5400
G1 X137.706 Y105.235 E31.3951 F2400
G0 X137.583 Y105.678 F5400
G1 X138.429 Y106.524 E31.4548 F2400
G0 X138.165 Y106.825 F5400
G1 X137.406 Y106.066 E31.5083 F2400
G0 X137.214 Y106.441 F5400
G1 X137.900 Y107.127 E31.5567 F2400
G0 X137.636 Y107.428 F5400
G1 X137.003 Y106.795 E31.6014 F2400
G0 X136.740 Y107.098 F5400
G1 X137.348 Y107.706 E31.6443 F2400
G0 X137.047 Y107.970 F5400
G1 X136.477 Y107.401 E31.6845 F2400
G0 X136.153 Y107.642 F5400
G1 X136.745 Y108.235 E31.7263 F2400
G0 X136.438 Y108.493 F5400
G1 X135.804 Y107.859 E31.7711 F2400
G0 X135.423 Y108.043 F5400
G1 X136.099 Y108.720 E31.8188 F2400
G0 X135.760 Y108.946 F5400
G1 X134.950 Y108.136 E31.8759 F2400
G0 X134.437 Y108.188 F5400
G1 X135.421 Y109.173 E31.9454 F2400
G0 X135.053 Y109.370 F5400
G1 X133.732 Y108.050 E32.0386 F2400
G0 X133.704 Y107.674 F5400
G0 X132.957 Y107.210
G0 X132.348 Y106.509
G0 X131.901 Y105.637
G0 X131.629 Y104.649
G0 X131.537 Y103.602
G0 X131.629 Y102.555
G0 X131.901 Y101.567
G0 X132.348 Y100.694
G0 X132.957 Y99.994
G0 X133.120 Y99.892
G0 X133.120 Y99.892
G0 X133.088 Y99.474
G0 X133.089 Y99.487
G1 X128.007 Y94.405 E32.3972 F2400
G0 X127.563 Y94.526 F5400
G1 X132.740 Y99.704 E32.7625 F2400
G0 X132.472 Y100.002 F5400
G1 X127.160 Y94.689 E33.1373 F2400
G0 X126.778 Y94.873 F5400
G1 X132.209 Y100.304 E33.5205 F2400
G0 X131.974 Y100.635 F5400
G1 X126.395 Y95.056 E33.9141 F2400
G0 X126.043 Y95.270 F5400
G1 X131.782 Y101.009 E34.3191 F2400
G0 X131.591 Y101.383 F5400
G1 X125.715 Y95.507 E34.7337 F2400
G0 X125.386 Y95.744 F5400
G1 X131.459 Y101.817 E35.1621 F2400
G0 X131.336 Y102.260 F5400
G1 X125.073 Y95.997 E35.6040 F2400
G0 X124.796 Y96.285 F5400
G1 X131.251 Y102.740 E36.0594 F2400
G0 X131.205 Y103.260 F5400
G1 X124.519 Y96.573 E36.5312 F2400
G0 X128.039 Y100.660 F5400
G1 X131.194 Y103.814 E36.7538 F2400
G0 X131.248 Y104.435 F5400
G1 X128.507 Y101.694 E36.9472 F2400
G0 X128.723 Y102.475 F5400
G1 X131.392 Y105.143 E37.1355 F2400
G0 X131.683 Y106.001 F5400
G1 X128.781 Y103.098 E37.3402 F2400
G0 X128.816 Y103.700 F5400
G1 X134.674 Y109.557 E37.7535 F2400
G0 X134.295 Y109.744 F5400
G1 X128.771 Y104.220 E38.1433 F2400
G0 X128.721 Y104.736 F5400
G1 X133.897 Y109.912 E38.5085 F2400
G0 X133.475 Y110.055 F5400
G1 X128.599 Y105.179 E38.8525 F2400
G0 X128.476 Y105.622 F5400
G1 X133.053 Y110.199 E39.1754 F2400
G0 X132.615 Y110.327 F5400
G1 X128.307 Y106.019 E39.4793 F2400
G0 X128.116 Y106.393 F5400
G1 X132.143 Y110.421 E39.7635 F2400
G0 X131.671 Y110.514 F5400
G1 X127.914 Y106.757 E40.0286 F2400
G0 X127.651 Y107.060 F5400
G1 X131.175 Y110.584 E40.2773 F2400
G0 X130.645 Y110.619 F5400
G1 X127.388 Y107.362 E40.5070 F2400
G0 X127.074 Y107.615 F5400
G1 X130.114 Y110.654 E40.7215 F2400
G0 X129.524 Y110.630 F5400
G1 X126.725 Y107.831 E40.9190 F2400
G0 X126.360 Y108.031 F5400
G1 X128.919 Y110.590 E41.0995 F2400
G0 X128.264 Y110.502 F5400
G1 X125.887 Y108.125 E41.2672 F2400
G0 X125.403 Y108.206 F5400
G1 X127.558 Y110.361 E41.4193 F2400
G0 X126.770 Y110.138 F5400
G1 X124.699 Y108.067 E41.5654 F2400
G0 X120.705 Y105.205 F5400
G1 X124.795 Y109.295 E41.8540 F2400
G0 X125.911 Y109.845 F5400
G1 X120.155 Y104.089 E42.2601 F2400
G0 X119.862 Y103.230 F5400
G1 X122.486 Y105.855 E42.4453 F2400
G0 X122.242 Y105.045 F5400
G1 X119.639 Y102.442 E42.6290 F2400
G0 X119.498 Y101.736 F5400
G1 X122.119 Y104.356 E42.8139 F2400
G0 X122.065 Y103.736 F5400
G1 X119.410 Y101.081 E43.0012 F2400
G0 X119.370 Y100.476 F5400
G1 X122.089 Y103.194 E43.1930 F2400
G0 X122.134 Y102.674 F5400
G1 X119.346 Y99.886 E43.3897 F2400
G0 X119.381 Y99.355 F5400
G1 X122.229 Y102.204 E43.5907 F2400
G0 X122.352 Y101.761 F5400
G1 X119.416 Y98.825 E43.7979 F2400
G0 X119.486 Y98.329 F5400
G1 X122.493 Y101.336 E44.0101 F2400
G0 X122.684 Y100.962 F5400
G1 X119.579 Y97.857 E44.2291 F2400
G0 X119.673 Y97.385 F5400
G1 X122.876 Y100.587 E44.4551 F2400
G0 X120.088 Y96.103 F5400
G1 X121.094 Y97.109 E44.5260 F2400
G0 X121.191 Y96.640 F5400
G1 X120.256 Y95.705 E44.5920 F2400
G0 X122.294 Y92.652 F5400
G1 X123.327 Y93.685 E44.6649 F2400
G0 X123.613 Y93.405 F5400
G1 X122.572 Y92.364 E44.7383 F2400
G0 X122.873 Y92.100 F5400
G1 X123.934 Y93.160 E44.8132 F2400
G0 X124.255 Y92.915 F5400
G1 X123.175 Y91.835 E44.8894 F2400
G0 X123.476 Y91.571 F5400
G1 X124.576 Y92.671 E44.9669 F2400
G0 X124.896 Y92.426 F5400
G1 X123.811 Y91.340 E45.0435 F2400
G0 X124.150 Y91.114 F5400
G1 X125.269 Y92.232 E45.1224 F2400
G0 X125.645 Y92.043 F5400
G1 X124.489 Y90.887 E45.2040 F2400
G0 X124.847 Y90.679 F5400
G1 X126.022 Y91.854 E45.2869 F2400
G0 X126.398 Y91.665 F5400
G1 X125.226 Y90.493 E45.3696 F2400
G0 X125.605 Y90.306 F5400
G1 X126.819 Y91.520 E45.4552 F2400
G0 X127.258 Y91.394 F5400
G1 X125.991 Y90.126 E45.5447 F2400
G0 X126.413 Y89.983 F5400
G1 X127.698 Y91.267 E45.6353 F2400
G0 X128.137 Y91.141 F5400
G1 X126.836 Y89.839 E45.7272 F2400
G0 X127.260 Y89.698 F5400
G1 X128.639 Y91.077 E45.8245 F2400
G0 X129.157 Y91.029 F5400
G1 X127.732 Y89.604 E45.9250 F2400
G0 X128.204 Y89.510 F5400
G1 X129.674 Y90.981 E46.0287 F2400
G0 X130.231 Y90.972 F5400
G1 X128.684 Y89.425 E46.1379 F2400
G0 X129.215 Y89.390 F5400
G1 X130.855 Y91.030 E46.2536 F2400
G0 X131.479 Y91.088 F5400
G1 X129.746 Y89.355 E46.3759 F2400
G0 X130.315 Y89.359 F5400
G1 X132.192 Y91.236 E46.5083 F2400
G0 X132.985 Y91.463 F5400
G1 X130.921 Y89.399 E46.6539 F2400
G0 X131.548 Y89.461 F5400
G1 X133.904 Y91.817 E46.8201 F2400
G0 X135.041 Y92.388 F5400
G1 X132.254 Y89.602 E47.0167 F2400
G0 X133.003 Y89.785 F5400
G1 X140.215 Y96.997 E47.5255 F2400
G0 X139.925 Y96.140 F5400
G1 X133.860 Y90.076 E47.9534 F2400
G0 X134.909 Y90.559 F5400
G1 X139.441 Y95.091 E48.2732 F2400
G0 X138.525 Y93.609 F5400
G1 X136.391 Y91.476 E48.4237 F2400
G0 X138.033 Y95.380 F5400
G1 X140.398 Y97.746 E48.5906 F2400
G0 X138.865 Y96.778 F5400
G1 X140.539 Y98.452 E48.7087 F2400
G0 X140.601 Y99.079 F5400
G1 X138.896 Y97.375 E48.8290 F2400
G0 X138.761 Y97.805 F5400
G1 X140.641 Y99.685 E48.9616 F2400
G0 X140.645 Y100.254 F5400
G1 X138.496 Y98.106 E49.1132 F2400
G0 X138.196 Y98.372 F5400
G1 X140.610 Y100.785 E49.2834 F2400
G0 X140.575 Y101.316 F5400
G1 X137.746 Y98.487 E49.4831 F2400
G0 X137.126 Y98.433 F5400
G1 X140.490 Y101.796 E49.7204 F2400
G0 X140.396 Y102.268 F5400
G1 X132.796 Y94.668 E50.2566 F2400
G0 X131.956 Y94.394 F5400
G1 X140.302 Y102.740 E50.8455 F2400
G0 X140.161 Y103.164 F5400
G1 X131.204 Y94.208 E51.4774 F2400
G0 X130.583 Y94.152 F5400
G1 X135.728 Y99.298 E51.8405 F2400
G0 X134.927 Y99.062 F5400
G1 X129.968 Y94.103 E52.1904 F2400
G0 X129.448 Y94.149 F5400
G1 X134.334 Y99.035 E52.5351 F2400
G0 X133.978 Y95.284 F5400
G1 X136.163 Y97.470 E52.6893 F2400
; ------------------------------------
; Layer #1
; ------------------------------------
M106 S0 ;turn off fan
G92 E0 ;reset extr
G0 F3000 E-1.0000
G0 F1200 Z0.600
G0 X122.991 Y95.829 F7200
G0 X120.357 Y95.501
G0 F3000 E0.0000
;segType:HShell
G1 X125.501 Y90.357 E0.3629 F3600
G0 X124.235 Y91.057 F7200
G1 X121.057 Y94.235 E0.5872 F3600
;segType:Perimeter
G0 X121.614 Y92.600 F7200
G1 X121.968 Y91.883 E0.6271 F2160
G1 X123.046 Y90.937 E0.6986
G1 X124.288 Y90.107 E0.7732
G1 X125.628 Y89.446 E0.8477
G1 X127.043 Y88.966 E0.9223
G1 X128.509 Y88.675 E0.9968
G1 X130.000 Y88.577 E1.0714
G1 X131.491 Y88.675 E1.1459
G1 X132.957 Y88.966 E1.2205
G1 X134.372 Y89.447 E1.2950
G1 X135.712 Y90.107 E1.3696
G1 X136.954 Y90.937 E1.4441
G1 X138.078 Y91.923 E1.5187
G1 X139.063 Y93.046 E1.5932
G1 X139.893 Y94.288 E1.6678
G1 X140.554 Y95.628 E1.7423
G1 X141.034 Y97.043 E1.8168
G1 X141.325 Y98.509 E1.8914
G1 X141.423 Y100.000 E1.9659
G1 X141.325 Y101.491 E2.0405
G1 X141.034 Y102.957 E2.1150
G1 X140.554 Y104.372 E2.1896
G1 X139.893 Y105.712 E2.2641
G1 X139.063 Y106.954 E2.3387
G1 X138.077 Y108.078 E2.4132
G1 X136.954 Y109.063 E2.4878
G1 X135.711 Y109.893 E2.5623
G1 X134.372 Y110.554 E2.6369
G1 X132.957 Y111.034 E2.7114
G1 X131.491 Y111.325 E2.7860
G1 X130.000 Y111.423 E2.8605
G1 X128.509 Y111.325 E2.9350
G1 X127.043 Y111.034 E3.0096
G1 X125.628 Y110.554 E3.0842
G1 X124.288 Y109.893 E3.1587
G1 X123.046 Y109.063 E3.2332
G1 X121.922 Y108.078 E3.3078
G1 X120.937 Y106.954 E3.3823
G1 X120.107 Y105.712 E3.4569
G1 X119.446 Y104.372 E3.5314
G1 X118.966 Y102.957 E3.6060
G1 X118.675 Y101.491 E3.6805
G1 X118.577 Y100.000 E3.7551
G1 X118.675 Y98.509 E3.8296
G1 X118.966 Y97.043 E3.9042
G1 X119.446 Y95.628 E3.9787
G1 X120.107 Y94.289 E4.0532
G1 X120.937 Y93.046 E4.1278
G1 X121.883 Y91.968 E4.1994
G0 X122.600 Y91.614 F7200
;segType:Loop
G0 X123.013 Y91.498
G1 X123.290 Y91.255 E4.2177 F3600
G1 X124.489 Y90.454 E4.2896
G1 X125.782 Y89.817 E4.3616
G1 X127.147 Y89.353 E4.4335
G1 X128.561 Y89.072 E4.5054
G1 X130.000 Y88.978 E4.5774
G1 X131.439 Y89.072 E4.6493
G1 X132.853 Y89.353 E4.7212
G1 X134.218 Y89.817 E4.7932
G1 X135.511 Y90.454 E4.8651
G1 X136.710 Y91.255 E4.9370
G1 X137.794 Y92.206 E5.0090
G1 X138.745 Y93.290 E5.0809
G1 X139.546 Y94.489 E5.1528
G1 X140.183 Y95.782 E5.2247
G1 X140.647 Y97.147 E5.2967
G1 X140.928 Y98.561 E5.3686
G1 X141.022 Y100.000 E5.4405
G1 X140.928 Y101.439 E5.5125
G1 X140.647 Y102.853 E5.5844
G1 X140.183 Y104.218 E5.6563
G1 X139.546 Y105.511 E5.7283
G1 X138.745 Y106.710 E5.8002
G1 X137.794 Y107.794 E5.8721
G1 X136.710 Y108.745 E5.9441
G1 X135.511 Y109.546 E6.0160
G1 X134.218 Y110.183 E6.0879
G1 X132.853 Y110.647 E6.1598
G1 X131.439 Y110.928 E6.2318
G1 X130.000 Y111.022 E6.3037
G1 X128.561 Y110.928 E6.3756
G1 X127.147 Y110.647 E6.4476
G1 X125.782 Y110.183 E6.5195
G1 X124.489 Y109.546 E6.5914
G1 X123.290 Y108.745 E6.6634
G1 X122.206 Y107.794 E6.7353
G1 X121.255 Y106.710 E6.8072
G1 X120.454 Y105.511 E6.8792
G1 X119.817 Y104.218 E6.9511
G1 X119.353 Y102.853 E7.0230
G1 X119.072 Y101.439 E7.0950
G1 X118.978 Y100.000 E7.1669
G1 X119.072 Y98.561 E7.2388
G1 X119.353 Y97.147 E7.3107
G1 X119.817 Y95.782 E7.3827
G1 X120.454 Y94.489 E7.4546
G1 X121.255 Y93.290 E7.5265
G1 X122.206 Y92.206 E7.5985
G1 X122.863 Y91.630 E7.6421
;segType:HShell
G0 X119.639 Y102.442 F7200
G1 X127.551 Y94.530 E8.2003 F3600
G0 X126.517 Y94.998 F7200
G1 X123.422 Y98.092 E8.4187 F3600
;segType:Perimeter
G0 X123.513 Y97.525 F7200
G1 X122.729 Y97.686 E8.4586 F2160
G1 X122.490 Y97.735 E8.4707
G1 X122.189 Y97.658 E8.4862
G1 X121.959 Y97.441 E8.5020
G1 X121.864 Y97.138 E8.5178
G1 X121.928 Y96.828 E8.5336
G1 X122.090 Y96.640 E8.5460
G1 X122.924 Y95.269 E8.6261
G1 X124.021 Y94.050 E8.7079
G1 X125.325 Y93.055 E8.7897
G1 X126.791 Y92.319 E8.8715
G1 X128.367 Y91.866 E8.9534
G1 X130.000 Y91.714 E9.0352
G1 X131.633 Y91.866 E9.1170
G1 X133.210 Y92.319 E9.1988
G1 X134.675 Y93.055 E9.2807
G1 X135.979 Y94.050 E9.3625
G1 X137.076 Y95.269 E9.4443
G1 X137.908 Y96.637 E9.5242
G1 X138.103 Y96.845 E9.5384
G1 X138.167 Y97.159 E9.5544
G1 X138.073 Y97.460 E9.5702
G1 X137.843 Y97.677 E9.5859
G1 X137.537 Y97.756 E9.6017
G1 X137.209 Y97.669 E9.6186
G1 X136.350 Y96.380 E9.6959
G1 X135.342 Y95.332 E9.7684
G1 X134.163 Y94.480 E9.8410
G1 X132.851 Y93.852 E9.9136
G1 X131.449 Y93.467 E9.9861
G1 X130.000 Y93.337 E10.0587
G1 X128.551 Y93.467 E10.1313
G1 X127.149 Y93.852 E10.2038
G1 X125.837 Y94.480 E10.2764
G1 X124.658 Y95.332 E10.3489
G1 X123.650 Y96.380 E10.4215
G1 X122.821 Y97.624 E10.4961
G0 X122.377 Y98.290 F7200
;segType:Loop
G0 X121.527 Y97.399
G1 X121.452 Y97.159 E10.5086 F3600
G1 X121.557 Y96.645 E10.5348
G1 X121.766 Y96.404 E10.5507
G1 X122.602 Y95.029 E10.6310
G1 X123.749 Y93.755 E10.7165
G1 X125.112 Y92.714 E10.8021
G1 X126.644 Y91.944 E10.8876
G1 X128.293 Y91.471 E10.9732
G1 X130.000 Y91.312 E11.0587
G1 X131.707 Y91.471 E11.1443
G1 X133.356 Y91.944 E11.2299
G1 X134.888 Y92.714 E11.3154
G1 X136.251 Y93.755 E11.4010
G1 X137.398 Y95.029 E11.4865
G1 X138.228 Y96.394 E11.5662
G1 X138.472 Y96.655 E11.5840
G1 X138.580 Y97.180 E11.6108
G1 X138.423 Y97.679 E11.6369
G1 X138.043 Y98.039 E11.6630
G1 X137.535 Y98.169 E11.6891
G1 X136.960 Y98.016 E11.7188
G1 X136.037 Y96.632 E11.8019
G1 X135.078 Y95.635 E11.8708
G1 X133.958 Y94.826 E11.9398
G1 X132.711 Y94.228 E12.0088
G1 X131.377 Y93.862 E12.0778
G1 X130.000 Y93.738 E12.1468
G1 X128.623 Y93.862 E12.2158
G1 X127.289 Y94.228 E12.2848
G1 X126.042 Y94.826 E12.3537
G1 X124.922 Y95.635 E12.4227
G1 X123.963 Y96.632 E12.4917
G1 X123.029 Y98.033 E12.5757
G1 X122.481 Y98.145 E12.6037
G1 X121.990 Y98.020 E12.6289
G1 X121.609 Y97.660 E12.6551
G1 X121.587 Y97.590 E12.6587
;segType:HShell
G0 X119.892 Y103.320 F7200
G1 X129.024 Y94.187 E13.3031 F3600
G0 X129.646 Y94.132 F7200
G1 X124.627 Y99.150 E13.6572 F3600
;segType:Perimeter
G0 X124.713 Y99.622 F7200
G1 X125.498 Y99.777 E13.6971 F2160
G1 X126.140 Y99.903 E13.7298
G1 X126.781 Y100.302 E13.7674
G1 X127.318 Y100.920 E13.8083
G1 X127.724 Y101.712 E13.8527
G1 X127.976 Y102.626 E13.9000
G1 X128.062 Y103.602 E13.9488
G1 X127.976 Y104.578 E13.9977
G1 X127.724 Y105.491 E14.0450
G1 X127.318 Y106.283 E14.0894
G1 X126.781 Y106.902 E14.1303
G1 X126.140 Y107.300 E14.1679
G1 X125.439 Y107.438 E14.2036
G1 X124.738 Y107.300 E14.2392
G1 X124.097 Y106.902 E14.2769
G1 X123.559 Y106.283 E14.3178
G1 X123.154 Y105.491 E14.3622
G1 X122.902 Y104.578 E14.4094
G1 X122.816 Y103.602 E14.4583
G1 X122.902 Y102.626 E14.5072
G1 X123.154 Y101.712 E14.5545
G1 X123.559 Y100.920 E14.5989
G1 X124.097 Y100.302 E14.6397
G1 X124.737 Y99.903 E14.6774
G1 X125.380 Y99.777 E14.7101
G0 X126.165 Y99.622 F7200
;segType:Loop
G0 X126.678 Y99.767
G1 X127.043 Y99.994 E14.7315 F3600
G1 X127.652 Y100.694 E14.7778
G1 X128.099 Y101.567 E14.8267
G1 X128.371 Y102.555 E14.8778
G1 X128.463 Y103.602 E14.9303
G1 X128.371 Y104.649 E14.9827
G1 X128.099 Y105.637 E15.0338
G1 X127.652 Y106.509 E15.0827
G1 X127.043 Y107.210 E15.1290
G1 X126.289 Y107.678 E15.1733
G1 X125.439 Y107.846 E15.2166
G1 X124.588 Y107.678 E15.2598
G1 X123.834 Y107.210 E15.3041
G1 X123.225 Y106.509 E15.3504
G1 X122.779 Y105.637 E15.3993
G1 X122.506 Y104.649 E15.4504
G1 X122.414 Y103.602 E15.5029
G1 X122.506 Y102.555 E15.5553
G1 X122.779 Y101.567 E15.6065
G1 X123.225 Y100.694 E15.6553
G1 X123.834 Y99.994 E15.7017
G1 X124.588 Y99.525 E15.7459
G1 X125.439 Y99.357 E15.7892
G1 X126.289 Y99.525 E15.8324
G1 X126.509 Y99.661 E15.8453
G0 X126.509 Y99.661 F7200
G0 X127.043 Y99.994
G0 X127.652 Y100.694
G0 X128.099 Y101.567
G0 X128.371 Y102.555
G0 X128.389 Y102.756
G0 X128.389 Y102.756
G0 X128.818 Y103.462
;segType:HShell
G0 X128.812 Y103.451
G1 X135.583 Y96.679 E16.3231 F3600
G0 X135.841 Y96.987 F7200
G1 X133.660 Y99.168 E16.4770 F3600
;segType:Perimeter
G0 X133.835 Y99.622 F7200
G1 X134.620 Y99.777 E16.5169 F2160
G1 X135.263 Y99.903 E16.5496
G1 X135.903 Y100.302 E16.5872
G1 X136.441 Y100.920 E16.6281
G1 X136.846 Y101.712 E16.6725
G1 X137.098 Y102.626 E16.7198
G1 X137.184 Y103.602 E16.7686
G1 X137.098 Y104.578 E16.8175
G1 X136.846 Y105.491 E16.8648
G1 X136.441 Y106.283 E16.9092
G1 X135.903 Y106.902 E16.9501
G1 X135.263 Y107.300 E16.9877
G1 X134.561 Y107.438 E17.0234
G1 X133.860 Y107.300 E17.0590
G1 X133.219 Y106.902 E17.0967
G1 X132.682 Y106.283 E17.1376
G1 X132.276 Y105.491 E17.1820
G1 X132.024 Y104.578 E17.2292
G1 X131.938 Y103.602 E17.2781
G1 X132.024 Y102.626 E17.3270
G1 X132.276 Y101.712 E17.3743
G1 X132.682 Y100.920 E17.4187
G1 X133.219 Y100.302 E17.4595
G1 X133.860 Y99.903 E17.4972
G1 X134.502 Y99.777 E17.5299
G0 X135.287 Y99.622 F7200
;segType:Loop
G0 X135.801 Y99.767
G1 X136.166 Y99.994 E17.5513 F3600
G1 X136.775 Y100.694 E17.5976
G1 X137.221 Y101.567 E17.6465
G1 X137.494 Y102.555 E17.6976
G1 X137.586 Y103.602 E17.7501
G1 X137.494 Y104.649 E17.8025
G1 X137.221 Y105.637 E17.8536
G1 X136.775 Y106.509 E17.9025
G1 X136.166 Y107.210 E17.9488
G1 X135.412 Y107.678 E17.9931
G1 X134.561 Y107.846 E18.0364
G1 X133.711 Y107.678 E18.0796
G1 X132.957 Y107.210 E18.1239
G1 X132.348 Y106.509 E18.1702
G1 X131.901 Y105.637 E18.2191
G1 X131.629 Y104.649 E18.2702
G1 X131.537 Y103.602 E18.3227
G1 X131.629 Y102.555 E18.3751
G1 X131.901 Y101.567 E18.4263
G1 X132.348 Y100.694 E18.4751
G1 X132.957 Y99.994 E18.5215
G1 X133.711 Y99.525 E18.5657
G1 X134.561 Y99.357 E18.6090
G1 X135.412 Y99.525 E18.6522
G1 X135.631 Y99.661 E18.6651
;segType:HShell
G0 X134.365 Y99.029 F7200
G1 X136.068 Y97.327 E18.7852 F3600
G0 X136.294 Y97.666 F7200
G1 X134.902 Y99.057 E18.8834 F3600
G0 X135.375 Y99.151 F7200
G1 X136.520 Y98.006 E18.9642 F3600
G0 X136.756 Y98.335 F7200
G1 X135.768 Y99.323 E19.0339 F3600
G0 X136.117 Y99.540 F7200
G1 X137.203 Y98.454 E19.1105 F3600
G0 X137.732 Y98.490 F7200
G1 X136.450 Y99.772 E19.2010 F3600
G0 X136.713 Y100.075 F7200
G1 X140.108 Y96.680 E19.4405 F3600
G0 X140.251 Y97.103 F7200
G1 X136.976 Y100.378 E19.6715 F3600
G0 X137.195 Y100.725 F7200
G1 X140.361 Y97.558 E19.8949 F3600
G0 X140.455 Y98.030 F7200
G1 X137.386 Y101.099 E20.1115 F3600
G0 X137.571 Y101.480 F7200
G1 X140.549 Y98.502 E20.3216 F3600
G0 X140.597 Y99.020 F7200
G1 X137.693 Y101.924 E20.5265 F3600
G0 X137.815 Y102.367 F7200
G1 X140.632 Y99.551 E20.7252 F3600
G0 X140.655 Y100.093 F7200
G1 X137.883 Y102.866 E20.9208 F3600
G0 X137.928 Y103.386 F7200
G1 X140.616 Y100.698 E21.1104 F3600
G0 X140.576 Y101.304 F7200
G1 X137.915 Y103.964 E21.2982 F3600
G0 X137.861 Y104.584 F7200
G1 X140.450 Y101.995 E21.4808 F3600
G0 X140.310 Y102.701 F7200
G1 X137.679 Y105.332 E21.6665 F3600
G0 X137.296 Y106.280 F7200
G1 X140.031 Y103.545 E21.8594 F3600
G0 X139.643 Y104.499 F7200
G1 X134.499 Y109.643 E22.2224 F3600
G0 X135.765 Y108.943 F7200
G1 X138.943 Y105.765 E22.4466 F3600
G0 X135.577 Y108.000 F7200
G1 X133.545 Y110.031 E22.5900 F3600
G0 X132.701 Y110.310 F7200
G1 X134.856 Y108.155 E22.7420 F3600
G0 X134.286 Y108.159 F7200
G1 X131.995 Y110.450 E22.9037 F3600
G0 X131.304 Y110.576 F7200
G1 X133.814 Y108.066 E23.0808 F3600
G0 X133.403 Y107.911 F7200
G1 X130.698 Y110.616 E23.2716 F3600
G0 X130.093 Y110.655 F7200
G1 X133.054 Y107.694 E23.4805 F3600
G0 X132.709 Y107.474 F7200
G1 X129.551 Y110.632 E23.7033 F3600
G0 X129.020 Y110.597 F7200
G1 X132.446 Y107.171 E23.9451 F3600
G0 X132.183 Y106.868 F7200
G1 X128.502 Y110.549 E24.2048 F3600
G0 X128.030 Y110.455 F7200
G1 X131.954 Y106.531 E24.4816 F3600
G0 X131.763 Y106.157 F7200
G1 X127.558 Y110.361 E24.7783 F3600
G0 X127.103 Y110.251 F7200
G1 X131.571 Y105.783 E25.0936 F3600
G0 X131.446 Y105.342 F7200
G1 X126.680 Y110.108 E25.4298 F3600
G0 X126.258 Y109.965 F7200
G1 X131.324 Y104.899 E25.7873 F3600
G0 X131.246 Y104.411 F7200
G1 X125.844 Y109.812 E26.1684 F3600
G0 X125.466 Y109.626 F7200
G1 X131.201 Y103.891 E26.5730 F3600
G0 X131.199 Y103.326 F7200
G1 X128.099 Y106.426 E26.7918 F3600
G0 X128.529 Y105.431 F7200
G1 X131.254 Y102.706 E26.9840 F3600
G0 X131.413 Y101.981 F7200
G1 X128.732 Y104.662 E27.1732 F3600
G0 X128.786 Y104.042 F7200
G1 X131.743 Y101.085 E27.3819 F3600
G0 X127.884 Y101.147 F7200
G0 X127.652 Y100.694
G0 X127.043 Y99.994
G0 X126.289 Y99.525
G0 X125.439 Y99.357
G0 X124.588 Y99.525
G0 X123.834 Y99.994
G0 X123.225 Y100.694
G0 X122.954 Y101.225
G0 X122.954 Y101.225
G0 X122.533 Y101.232
G0 X122.546 Y101.231
G1 X120.035 Y103.742 E27.5590 F3600
G0 X120.188 Y104.156 F7200
G1 X122.264 Y102.079 E27.7055 F3600
G0 X122.125 Y102.784 F7200
G1 X120.374 Y104.534 E27.8290 F3600
G0 X120.561 Y104.913 F7200
G1 X122.070 Y103.404 E27.9355 F3600
G0 X122.084 Y103.956 F7200
G1 X120.748 Y105.292 E28.0297 F3600
G0 X120.971 Y105.635 F7200
G1 X122.130 Y104.476 E28.1115 F3600
G0 X122.217 Y104.955 F7200
G1 X121.197 Y105.974 E28.1835 F3600
G0 X121.424 Y106.314 F7200
G1 X122.339 Y105.398 E28.2481 F3600
G0 X122.473 Y105.830 F7200
G1 X121.668 Y106.635 E28.3049 F3600
G0 X121.933 Y106.936 F7200
G1 X122.665 Y106.204 E28.3565 F3600
G0 X122.856 Y106.578 F7200
G1 X122.197 Y107.237 E28.4031 F3600
G0 X122.461 Y107.539 F7200
G1 X123.094 Y106.906 E28.4477 F3600
G0 X123.357 Y107.209 F7200
G1 X122.763 Y107.803 E28.4896 F3600
G0 X123.064 Y108.067 F7200
G1 X123.627 Y107.505 E28.5293 F3600
G0 X123.976 Y107.722 F7200
G1 X123.365 Y108.332 E28.5724 F3600
G0 X123.686 Y108.576 F7200
G1 X124.324 Y107.938 E28.6174 F3600
G0 X124.751 Y108.077 F7200
G1 X124.026 Y108.803 E28.6686 F3600
G0 X124.365 Y109.029 F7200
G1 X125.224 Y108.171 E28.7292 F3600
G0 X125.822 Y108.137 F7200
G1 X124.708 Y109.252 E28.8078 F3600
G0 X125.087 Y109.439 F7200
G1 X126.643 Y107.883 E28.9176 F3600
G0 X126.891 Y107.305 F7200
G0 X127.043 Y107.210
G0 X127.652 Y106.509
G0 X128.099 Y105.637
G0 X128.371 Y104.649
G0 X128.459 Y103.646
G0 X128.459 Y103.646
G0 X128.771 Y102.919
G0 X128.766 Y102.931
G1 X135.306 Y96.391 E29.3790 F3600
G0 X135.029 Y96.103 F7200
G1 X128.709 Y102.423 E29.8249 F3600
G0 X128.586 Y101.979 F7200
G1 X134.735 Y95.831 E30.2587 F3600
G0 X134.406 Y95.594 F7200
G1 X128.464 Y101.536 E30.6780 F3600
G0 X128.288 Y101.146 F7200
G1 X134.078 Y95.357 E31.0865 F3600
G0 X133.745 Y95.123 F7200
G1 X128.097 Y100.772 E31.4850 F3600
G0 X127.887 Y100.416 F7200
G1 X133.363 Y94.940 E31.8714 F3600
G0 X132.980 Y94.757 F7200
G1 X127.624 Y100.113 E32.2493 F3600
G0 X127.361 Y99.810 F7200
G1 X132.598 Y94.573 E32.6188 F3600
G0 X132.157 Y94.449 F7200
G1 X127.039 Y99.567 E32.9798 F3600
G0 X126.690 Y99.350 F7200
G1 X131.713 Y94.327 E33.3342 F3600
G0 X131.262 Y94.213 F7200
G1 X126.312 Y99.163 E33.6834 F3600
G0 X125.840 Y99.069 F7200
G1 X130.742 Y94.166 E34.0294 F3600
G0 X130.223 Y94.120 F7200
G1 X125.332 Y99.011 E34.3745 F3600
G0 X123.090 Y97.942 F7200
G0 X123.029 Y98.033
G0 X122.481 Y98.145
G0 X121.990 Y98.020
G0 X121.609 Y97.660
G0 X121.452 Y97.162
G0 X121.452 Y97.162
G0 X119.957 Y96.449
G0 X119.969 Y96.455
G1 X126.455 Y89.969 E34.8321 F3600
G0 X127.299 Y89.690 F7200
G1 X119.690 Y97.299 E35.3689 F3600
G0 X119.550 Y98.005 F7200
G1 X121.644 Y95.911 E35.5167 F3600
G0 X121.116 Y97.005 F7200
G1 X119.424 Y98.696 E35.6360 F3600
G0 X119.384 Y99.302 F7200
G1 X121.182 Y97.504 E35.7629 F3600
G0 X121.345 Y97.906 F7200
G1 X119.345 Y99.907 E35.9040 F3600
G0 X119.368 Y100.449 F7200
G1 X121.636 Y98.181 E36.0641 F3600
G0 X121.991 Y98.392 F7200
G1 X119.403 Y100.980 E36.2467 F3600
G0 X119.451 Y101.498 F7200
G1 X122.442 Y98.507 E36.4577 F3600
G0 X123.136 Y98.378 F7200
G1 X119.545 Y101.970 E36.7111 F3600
G0 X119.749 Y102.897 F7200
G1 X128.331 Y94.315 E37.3166 F3600
G0 X128.306 Y93.949 F7200
G0 X127.289 Y94.228
G0 X126.042 Y94.826
G0 X124.922 Y95.635
G0 X123.963 Y96.632
G0 X123.029 Y98.033
G0 X122.481 Y98.145
G0 X121.990 Y98.020
G0 X121.609 Y97.660
G0 X121.452 Y97.159
G0 X121.557 Y96.645
G0 X121.766 Y96.404
G0 X122.602 Y95.029
G0 X123.749 Y93.755
G0 X125.112 Y92.714
G0 X126.644 Y91.944
G0 X128.139 Y91.515
G0 X128.139 Y91.515
G0 X128.004 Y89.537
G0 X128.005 Y89.550
G1 X125.377 Y92.178 E37.5020 F3600
G0 X126.513 Y91.607 F7200
G1 X128.696 Y89.424 E37.6560 F3600
G0 X129.302 Y89.384 F7200
G1 X127.307 Y91.380 E37.7968 F3600
G0 X128.100 Y91.152 F7200
G1 X129.907 Y89.345 E37.9243 F3600
G0 X130.449 Y89.368 F7200
G1 X128.751 Y91.067 E38.0442 F3600
G0 X129.375 Y91.009 F7200
G1 X130.980 Y89.403 E38.1575 F3600
G0 X131.498 Y89.451 F7200
G1 X129.999 Y90.951 E38.2633 F3600
G0 X130.516 Y90.999 F7200
G1 X131.970 Y89.545 E38.3658 F3600
G0 X132.442 Y89.639 F7200
G1 X131.034 Y91.047 E38.4652 F3600
G0 X131.551 Y91.095 F7200
G1 X132.897 Y89.749 E38.5602 F3600
G0 X133.320 Y89.892 F7200
G1 X132.024 Y91.188 E38.6516 F3600
G0 X132.464 Y91.314 F7200
G1 X133.742 Y90.036 E38.7418 F3600
G0 X134.156 Y90.188 F7200
G1 X132.903 Y91.440 E38.8301 F3600
G0 X133.343 Y91.566 F7200
G1 X134.534 Y90.374 E38.9142 F3600
G0 X134.913 Y90.561 F7200
G1 X133.740 Y91.734 E38.9970 F3600
G0 X134.117 Y91.924 F7200
G1 X135.292 Y90.748 E39.0800 F3600
G0 X135.635 Y90.971 F7200
G1 X134.493 Y92.113 E39.1605 F3600
G0 X134.870 Y92.302 F7200
G1 X135.974 Y91.197 E39.2385 F3600
G0 X136.314 Y91.424 F7200
G1 X135.222 Y92.516 E39.3155 F3600
G0 X135.542 Y92.761 F7200
G1 X136.635 Y91.668 E39.3926 F3600
G0 X136.936 Y91.933 F7200
G1 X135.863 Y93.005 E39.4683 F3600
G0 X136.184 Y93.250 F7200
G1 X137.237 Y92.197 E39.5426 F3600
G0 X137.539 Y92.461 F7200
G1 X136.504 Y93.496 E39.6157 F3600
G0 X136.771 Y93.794 F7200
G1 X137.803 Y92.763 E39.6885 F3600
G0 X138.067 Y93.064 F7200
G1 X137.039 Y94.092 E39.7610 F3600
G0 X137.307 Y94.390 F7200
G1 X138.332 Y93.365 E39.8333 F3600
G0 X138.576 Y93.686 F7200
G1 X137.575 Y94.688 E39.9039 F3600
G0 X137.812 Y95.016 F7200
G1 X138.803 Y94.026 E39.9738 F3600
G0 X139.029 Y94.365 F7200
G1 X138.026 Y95.368 E40.0446 F3600
G0 X138.240 Y95.720 F7200
G1 X139.252 Y94.708 E40.1161 F3600
G0 X139.439 Y95.087 F7200
G1 X138.454 Y96.072 E40.1856 F3600
G0 X138.710 Y96.381 F7200
G1 X139.626 Y95.466 E40.2502 F3600
G0 X139.812 Y95.844 F7200
G1 X138.867 Y96.789 E40.3169 F3600
G0 X138.919 Y97.304 F7200
G1 X139.965 Y96.258 E40.3906 F3600
; ------------------------------------
; Layer #2
; ------------------------------------
M106 S0 ;turn off fan
G92 E0 ;reset extr
G0 F3000 E-1.0000
G0 F1200 Z0.900
G0 X137.176 Y96.125 F7200
G0 X134.387 Y95.992
G0 X126.021 Y95.593
G0 X123.232 Y95.459
G0 X120.443 Y95.326
G0 F3000 E0.0000
;segType:HShell
G1 X121.397 Y96.280 E0.0673 F3600
G0 X121.625 Y95.942 F7200
G1 X120.630 Y94.947 E0.1375 F3600
G0 X120.827 Y94.579 F7200
G1 X121.839 Y95.591 E0.2089 F3600
G0 X122.053 Y95.239 F7200
G1 X121.054 Y94.240 E0.2794 F3600
G0 X121.280 Y93.901 F7200
G1 X122.267 Y94.887 E0.3490 F3600
G0 X122.523 Y94.578 F7200
G1 X121.507 Y93.562 E0.4207 F3600
G0 X121.765 Y93.255 F7200
G1 X122.791 Y94.280 E0.4930 F3600
G0 X123.059 Y93.983 F7200
G1 X122.030 Y92.953 E0.5657 F3600
;segType:Perimeter
G0 X121.614 Y92.600 F7200
G1 X121.968 Y91.883 E0.6056 F2160
G1 X123.046 Y90.937 E0.6771
G1 X124.288 Y90.107 E0.7517
G1 X125.628 Y89.446 E0.8262
G1 X127.043 Y88.966 E0.9008
G1 X128.509 Y88.675 E0.9753
G1 X130.000 Y88.577 E1.0499
G1 X131.491 Y88.675 E1.1244
G1 X132.957 Y88.966 E1.1990
G1 X134.372 Y89.447 E1.2735
G1 X135.712 Y90.107 E1.3481
G1 X136.954 Y90.937 E1.4226
G1 X138.078 Y91.923 E1.4972
G1 X139.063 Y93.046 E1.5717
G1 X139.893 Y94.288 E1.6463
G1 X140.554 Y95.628 E1.7208
G1 X141.034 Y97.043 E1.7953
G1 X141.325 Y98.509 E1.8699
G1 X141.423 Y100.000 E1.9444
G1 X141.325 Y101.491 E2.0190
G1 X141.034 Y102.957 E2.0935
G1 X140.554 Y104.372 E2.1681
G1 X139.893 Y105.712 E2.2426
G1 X139.063 Y106.954 E2.3172
G1 X138.077 Y108.078 E2.3917
G1 X136.954 Y109.063 E2.4663
G1 X135.711 Y109.893 E2.5408
G1 X134.372 Y110.554 E2.6154
G1 X132.957 Y111.034 E2.6899
G1 X131.491 Y111.325 E2.7645
G1 X130.000 Y111.423 E2.8390
G1 X128.509 Y111.325 E2.9135
G1 X127.043 Y111.034 E2.9881
G1 X125.628 Y110.554 E3.0626
G1 X124.288 Y109.893 E3.1372
G1 X123.046 Y109.063 E3.2117
G1 X121.922 Y108.078 E3.2863
G1 X120.937 Y106.954 E3.3608
G1 X120.107 Y105.712 E3.4354
G1 X119.446 Y104.372 E3.5099
G1 X118.966 Y102.957 E3.5845
G1 X118.675 Y101.491 E3.6590
G1 X118.577 Y100.000 E3.7336
G1 X118.675 Y98.509 E3.8081
G1 X118.966 Y97.043 E3.8827
G1 X119.446 Y95.628 E3.9572
G1 X120.107 Y94.289 E4.0317
G1 X120.937 Y93.046 E4.1063
G1 X121.883 Y91.968 E4.1778
G0 X122.600 Y91.614 F7200
;segType:Loop
G0 X123.013 Y91.498
G1 X123.290 Y91.255 E4.1962 F3600
G1 X124.489 Y90.454 E4.2681
G1 X125.782 Y89.817 E4.3401
G1 X127.147 Y89.353 E4.4120
G1 X128.561 Y89.072 E4.4839
G1 X130.000 Y88.978 E4.5559
G1 X131.439 Y89.072 E4.6278
G1 X132.853 Y89.353 E4.6997
G1 X134.218 Y89.817 E4.7717
G1 X135.511 Y90.454 E4.8436
G1 X136.710 Y91.255 E4.9155
G1 X137.794 Y92.206 E4.9875
G1 X138.745 Y93.290 E5.0594
G1 X139.546 Y94.489 E5.1313
G1 X140.183 Y95.782 E5.2032
G1 X140.647 Y97.147 E5.2752
G1 X140.928 Y98.561 E5.3471
G1 X141.022 Y100.000 E5.4190
G1 X140.928 Y101.439 E5.4910
G1 X140.647 Y102.853 E5.5629
G1 X140.183 Y104.218 E5.6348
G1 X139.546 Y105.511 E5.7068
G1 X138.745 Y106.710 E5.7787
G1 X137.794 Y107.794 E5.8506
G1 X136.710 Y108.745 E5.9225
G1 X135.511 Y109.546 E5.9945
G1 X134.218 Y110.183 E6.0664
G1 X132.853 Y110.647 E6.1383
G1 X131.439 Y110.928 E6.2103
G1 X130.000 Y111.022 E6.2822
G1 X128.561 Y110.928 E6.3541
G1 X127.147 Y110.647 E6.4261
G1 X125.782 Y110.183 E6.4980
G1 X124.489 Y109.546 E6.5699
G1 X123.290 Y108.745 E6.6419
G1 X122.206 Y107.794 E6.7138
G1 X121.255 Y106.710 E6.7857
G1 X120.454 Y105.511 E6.8577
G1 X119.817 Y104.218 E6.9296
G1 X119.353 Y102.853 E7.0015
G1 X119.072 Y101.439 E7.0734
G1 X118.978 Y100.000 E7.1454
G1 X119.072 Y98.561 E7.2173
G1 X119.353 Y97.147 E7.2892
G1 X119.817 Y95.782 E7.3612
G1 X120.454 Y94.489 E7.4331
G1 X121.255 Y93.290 E7.5050
G1 X122.206 Y92.206 E7.5770
G1 X122.863 Y91.630 E7.6205
G0 X122.863 Y91.630 F7200
G0 X124.161 Y93.440
G0 X124.161 Y93.440
G0 X123.749 Y93.755
G0 X122.602 Y95.029
G0 X121.766 Y96.404
G0 X121.557 Y96.645
G0 X121.452 Y97.159
G0 X121.609 Y97.660
G0 X121.990 Y98.020
G0 X122.481 Y98.145
G0 X123.029 Y98.033
G0 X123.963 Y96.632
G0 X124.922 Y95.635
G0 X125.458 Y95.248
G0 X125.458 Y95.248
G0 X131.213 Y103.271
;segType:HShell
G0 X131.205 Y103.260
G1 X124.519 Y96.573 E8.0923 F3600
G0 X124.242 Y96.862 F7200
G1 X126.795 Y99.415 E8.2724 F3600
G0 X125.894 Y99.080 F7200
G1 X124.016 Y97.202 E8.4049 F3600
;segType:Perimeter
G0 X123.513 Y97.525 F7200
G1 X122.729 Y97.686 E8.4449 F2160
G1 X122.490 Y97.735 E8.4570
G1 X122.189 Y97.658 E8.4725
G1 X121.959 Y97.441 E8.4883
G1 X121.864 Y97.138 E8.5041
G1 X121.928 Y96.828 E8.5199
G1 X122.090 Y96.640 E8.5323
G1 X122.924 Y95.269 E8.6124
G1 X124.021 Y94.050 E8.6942
G1 X125.325 Y93.055 E8.7760
G1 X126.791 Y92.319 E8.8578
G1 X128.367 Y91.866 E8.9397
G1 X130.000 Y91.714 E9.0215
G1 X131.633 Y91.866 E9.1033
G1 X133.210 Y92.319 E9.1851
G1 X134.675 Y93.055 E9.2670
G1 X135.979 Y94.050 E9.3488
G1 X137.076 Y95.269 E9.4306
G1 X137.908 Y96.637 E9.5105
G1 X138.103 Y96.845 E9.5247
G1 X138.167 Y97.159 E9.5407
G1 X138.073 Y97.460 E9.5565
G1 X137.843 Y97.677 E9.5722
G1 X137.537 Y97.756 E9.5880
G1 X137.209 Y97.669 E9.6049
G1 X136.350 Y96.380 E9.6822
G1 X135.342 Y95.332 E9.7547
G1 X134.163 Y94.480 E9.8273
G1 X132.851 Y93.852 E9.8999
G1 X131.449 Y93.467 E9.9724
G1 X130.000 Y93.337 E10.0450
G1 X128.551 Y93.467 E10.1176
G1 X127.149 Y93.852 E10.1901
G1 X125.837 Y94.480 E10.2627
G1 X124.658 Y95.332 E10.3352
G1 X123.650 Y96.380 E10.4078
G1 X122.821 Y97.624 E10.4824
G0 X122.377 Y98.290 F7200
;segType:Loop
G0 X121.527 Y97.399
G1 X121.452 Y97.159 E10.4949 F3600
G1 X121.557 Y96.645 E10.5211
G1 X121.766 Y96.404 E10.5370
G1 X122.602 Y95.029 E10.6173
G1 X123.749 Y93.755 E10.7028
G1 X125.112 Y92.714 E10.7884
G1 X126.644 Y91.944 E10.8739
G1 X128.293 Y91.471 E10.9595
G1 X130.000 Y91.312 E11.0450
G1 X131.707 Y91.471 E11.1306
G1 X133.356 Y91.944 E11.2162
G1 X134.888 Y92.714 E11.3017
G1 X136.251 Y93.755 E11.3873
G1 X137.398 Y95.029 E11.4728
G1 X138.228 Y96.394 E11.5525
G1 X138.472 Y96.655 E11.5703
G1 X138.580 Y97.180 E11.5971
G1 X138.423 Y97.679 E11.6232
G1 X138.043 Y98.039 E11.6493
G1 X137.535 Y98.169 E11.6754
G1 X136.960 Y98.016 E11.7051
G1 X136.037 Y96.632 E11.7881
G1 X135.078 Y95.635 E11.8571
G1 X133.958 Y94.826 E11.9261
G1 X132.711 Y94.228 E11.9951
G1 X131.377 Y93.862 E12.0641
G1 X130.000 Y93.738 E12.1331
G1 X128.623 Y93.862 E12.2021
G1 X127.289 Y94.228 E12.2710
G1 X126.042 Y94.826 E12.3400
G1 X124.922 Y95.635 E12.4090
G1 X123.963 Y96.632 E12.4780
G1 X123.029 Y98.033 E12.5620
G1 X122.481 Y98.145 E12.5899
G1 X121.990 Y98.020 E12.6152
G1 X121.609 Y97.660 E12.6414
G1 X121.587 Y97.590 E12.6450
;segType:HShell
G0 X119.945 Y96.525 F7200
G1 X123.383 Y99.964 E12.8876 F3600
G0 X123.662 Y99.677 F7200
G1 X122.495 Y98.510 E12.9700 F3600
G0 X122.965 Y98.414 F7200
G1 X124.011 Y99.460 E13.0438 F3600
G0 X124.360 Y99.243 F7200
G1 X123.337 Y98.220 E13.1159 F3600
G0 X123.563 Y97.881 F7200
G1 X124.799 Y99.117 E13.2031 F3600
;segType:Perimeter
G0 X124.713 Y99.622 F7200
G1 X125.498 Y99.777 E13.2430 F2160
G1 X126.140 Y99.903 E13.2757
G1 X126.781 Y100.302 E13.3134
G1 X127.318 Y100.920 E13.3542
G1 X127.724 Y101.712 E13.3986
G1 X127.976 Y102.626 E13.4459
G1 X128.062 Y103.602 E13.4948
G1 X127.976 Y104.578 E13.5437
G1 X127.724 Y105.491 E13.5909
G1 X127.318 Y106.283 E13.6353
G1 X126.781 Y106.902 E13.6762
G1 X126.140 Y107.300 E13.7139
G1 X125.439 Y107.438 E13.7495
G1 X124.738 Y107.300 E13.7852
G1 X124.097 Y106.902 E13.8228
G1 X123.559 Y106.283 E13.8637
G1 X123.154 Y105.491 E13.9081
G1 X122.902 Y104.578 E13.9554
G1 X122.816 Y103.602 E14.0043
G1 X122.902 Y102.626 E14.0531
G1 X123.154 Y101.712 E14.1004
G1 X123.559 Y100.920 E14.1448
G1 X124.097 Y100.302 E14.1857
G1 X124.737 Y99.903 E14.2233
G1 X125.380 Y99.777 E14.2560
G0 X126.165 Y99.622 F7200
;segType:Loop
G0 X126.678 Y99.767
G1 X127.043 Y99.994 E14.2774 F3600
G1 X127.652 Y100.694 E14.3238
G1 X128.099 Y101.567 E14.3726
G1 X128.371 Y102.555 E14.4238
G1 X128.463 Y103.602 E14.4762
G1 X128.371 Y104.649 E14.5287
G1 X128.099 Y105.637 E14.5798
G1 X127.652 Y106.509 E14.6287
G1 X127.043 Y107.210 E14.6750
G1 X126.289 Y107.678 E14.7193
G1 X125.439 Y107.846 E14.7625
G1 X124.588 Y107.678 E14.8058
G1 X123.834 Y107.210 E14.8501
G1 X123.225 Y106.509 E14.8964
G1 X122.779 Y105.637 E14.9453
G1 X122.506 Y104.649 E14.9964
G1 X122.414 Y103.602 E15.0488
G1 X122.506 Y102.555 E15.1013
G1 X122.779 Y101.567 E15.1524
G1 X123.225 Y100.694 E15.2013
G1 X123.834 Y99.994 E15.2476
G1 X124.588 Y99.525 E15.2919
G1 X125.439 Y99.357 E15.3351
G1 X126.289 Y99.525 E15.3784
G1 X126.509 Y99.661 E15.3913
;segType:HShell
G0 X133.862 Y99.128 F7200
G1 X128.929 Y94.196 E15.7393 F3600
G0 X128.450 Y94.283 F7200
G1 X133.438 Y99.271 E16.0912 F3600
;segType:Perimeter
G0 X133.835 Y99.622 F7200
G1 X134.620 Y99.777 E16.1311 F2160
G1 X135.263 Y99.903 E16.1638
G1 X135.903 Y100.302 E16.2014
G1 X136.441 Y100.920 E16.2423
G1 X136.846 Y101.712 E16.2867
G1 X137.098 Y102.626 E16.3340
G1 X137.184 Y103.602 E16.3829
G1 X137.098 Y104.578 E16.4317
G1 X136.846 Y105.491 E16.4790
G1 X136.441 Y106.283 E16.5234
G1 X135.903 Y106.902 E16.5643
G1 X135.263 Y107.300 E16.6019
G1 X134.561 Y107.438 E16.6376
G1 X133.860 Y107.300 E16.6733
G1 X133.219 Y106.902 E16.7109
G1 X132.682 Y106.283 E16.7518
G1 X132.276 Y105.491 E16.7962
G1 X132.024 Y104.578 E16.8435
G1 X131.938 Y103.602 E16.8923
G1 X132.024 Y102.626 E16.9412
G1 X132.276 Y101.712 E16.9885
G1 X132.682 Y100.920 E17.0329
G1 X133.219 Y100.302 E17.0738
G1 X133.860 Y99.903 E17.1114
G1 X134.502 Y99.777 E17.1441
G0 X135.287 Y99.622 F7200
;segType:Loop
G0 X135.801 Y99.767
G1 X136.166 Y99.994 E17.1655 F3600
G1 X136.775 Y100.694 E17.2118
G1 X137.221 Y101.567 E17.2607
G1 X137.494 Y102.555 E17.3118
G1 X137.586 Y103.602 E17.3643
G1 X137.494 Y104.649 E17.4167
G1 X137.221 Y105.637 E17.4679
G1 X136.775 Y106.509 E17.5167
G1 X136.166 Y107.210 E17.5631
G1 X135.412 Y107.678 E17.6074
G1 X134.561 Y107.846 E17.6506
G1 X133.711 Y107.678 E17.6938
G1 X132.957 Y107.210 E17.7381
G1 X132.348 Y106.509 E17.7845
G1 X131.901 Y105.637 E17.8333
G1 X131.629 Y104.649 E17.8845
G1 X131.537 Y103.602 E17.9369
G1 X131.629 Y102.555 E17.9893
G1 X131.901 Y101.567 E18.0405
G1 X132.348 Y100.694 E18.0894
G1 X132.957 Y99.994 E18.1357
G1 X133.711 Y99.525 E18.1800
G1 X134.561 Y99.357 E18.2232
G1 X135.412 Y99.525 E18.2665
G1 X135.631 Y99.661 E18.2793
;segType:HShell
G0 X134.334 Y99.035 F7200
G1 X129.448 Y94.149 E18.6240 F3600
G0 X129.968 Y94.103 F7200
G1 X134.927 Y99.062 E18.9740 F3600
G0 X135.728 Y99.298 F7200
G1 X130.583 Y94.152 E19.3370 F3600
G0 X131.204 Y94.208 F7200
G1 X140.161 Y103.164 E19.9690 F3600
G0 X140.302 Y102.740 F7200
G1 X131.956 Y94.394 E20.5578 F3600
G0 X132.796 Y94.668 F7200
G1 X140.396 Y102.268 E21.0941 F3600
G0 X140.017 Y103.587 F7200
G1 X137.236 Y100.806 E21.2903 F3600
G0 X137.657 Y101.792 F7200
G1 X139.874 Y104.009 E21.4467 F3600
G0 X139.694 Y104.395 F7200
G1 X137.855 Y102.556 E21.5764 F3600
G0 X137.910 Y103.176 F7200
G1 X139.507 Y104.774 E21.6892 F3600
G0 X139.321 Y105.153 F7200
G1 X137.933 Y103.765 E21.7871 F3600
G0 X137.887 Y104.285 F7200
G1 X139.113 Y105.511 E21.8736 F3600
G0 X138.886 Y105.850 F7200
G1 X137.828 Y104.792 E21.9482 F3600
G0 X137.706 Y105.235 F7200
G1 X138.660 Y106.189 E22.0155 F3600
G0 X138.429 Y106.524 F7200
G1 X137.583 Y105.678 E22.0752 F3600
G0 X137.406 Y106.066 F7200
G1 X138.165 Y106.825 E22.1288 F3600
G0 X137.900 Y107.127 F7200
G1 X137.214 Y106.441 E22.1772 F3600
G0 X137.003 Y106.795 F7200
G1 X137.636 Y107.428 E22.2218 F3600
G0 X137.348 Y107.706 F7200
G1 X136.740 Y107.098 E22.2647 F3600
G0 X136.477 Y107.401 F7200
G1 X137.047 Y107.970 E22.3049 F3600
G0 X136.745 Y108.235 F7200
G1 X136.153 Y107.642 E22.3468 F3600
G0 X135.804 Y107.859 F7200
G1 X136.438 Y108.493 E22.3915 F3600
G0 X136.099 Y108.720 F7200
G1 X135.423 Y108.043 E22.4393 F3600
G0 X134.950 Y108.136 F7200
G1 X135.760 Y108.946 E22.4964 F3600
G0 X135.421 Y109.173 F7200
G1 X134.437 Y108.188 E22.5658 F3600
G0 X133.732 Y108.050 F7200
G1 X135.053 Y109.370 E22.6590 F3600
G0 X134.674 Y109.557 F7200
G1 X128.816 Y103.700 E23.0723 F3600
G0 X128.771 Y104.220 F7200
G1 X134.295 Y109.744 E23.4621 F3600
G0 X133.897 Y109.912 F7200
G1 X128.721 Y104.736 E23.8273 F3600
G0 X128.599 Y105.179 F7200
G1 X133.475 Y110.055 E24.1713 F3600
G0 X133.053 Y110.199 F7200
G1 X128.476 Y105.622 E24.4942 F3600
G0 X128.307 Y106.019 F7200
G1 X132.615 Y110.327 E24.7981 F3600
G0 X132.143 Y110.421 F7200
G1 X128.116 Y106.393 E25.0822 F3600
G0 X127.914 Y106.757 F7200
G1 X131.671 Y110.514 E25.3474 F3600
G0 X131.175 Y110.584 F7200
G1 X127.651 Y107.060 E25.5960 F3600
G0 X127.388 Y107.362 F7200
G1 X130.645 Y110.619 E25.8258 F3600
G0 X130.114 Y110.654 F7200
G1 X127.074 Y107.615 E26.0403 F3600
G0 X126.725 Y107.831 F7200
G1 X129.524 Y110.630 E26.2377 F3600
G0 X128.919 Y110.590 F7200
G1 X126.360 Y108.031 E26.4183 F3600
G0 X125.887 Y108.125 F7200
G1 X128.264 Y110.502 E26.5860 F3600
G0 X127.558 Y110.361 F7200
G1 X125.403 Y108.206 E26.7381 F3600
G0 X124.699 Y108.067 F7200
G1 X126.770 Y110.138 E26.8842 F3600
G0 X125.911 Y109.845 F7200
G1 X120.155 Y104.089 E27.2903 F3600
G0 X120.705 Y105.205 F7200
G1 X124.795 Y109.295 E27.5789 F3600
G0 X122.486 Y105.855 F7200
G1 X119.862 Y103.230 E27.7641 F3600
G0 X119.639 Y102.442 F7200
G1 X122.242 Y105.045 E27.9477 F3600
G0 X122.119 Y104.356 F7200
G1 X119.498 Y101.736 E28.1327 F3600
G0 X119.410 Y101.081 F7200
G1 X122.065 Y103.736 E28.3200 F3600
G0 X122.089 Y103.194 F7200
G1 X119.370 Y100.476 E28.5118 F3600
G0 X119.346 Y99.886 F7200
G1 X122.134 Y102.674 E28.7085 F3600
G0 X122.229 Y102.204 F7200
G1 X119.381 Y99.355 E28.9095 F3600
G0 X119.416 Y98.825 F7200
G1 X122.352 Y101.761 E29.1167 F3600
G0 X122.493 Y101.336 F7200
G1 X119.486 Y98.329 E29.3288 F3600
G0 X119.579 Y97.857 F7200
G1 X122.684 Y100.962 E29.5479 F3600
G0 X122.876 Y100.587 F7200
G1 X119.673 Y97.385 E29.7738 F3600
G0 X119.801 Y96.947 F7200
G1 X123.120 Y100.266 E30.0080 F3600
G0 X125.271 Y99.023 F7200
G1 X123.789 Y97.541 E30.1126 F3600
G0 X123.446 Y97.408 F7200
G0 X123.029 Y98.033
G0 X122.481 Y98.145
G0 X121.990 Y98.020
G0 X121.609 Y97.660
G0 X121.452 Y97.159
G0 X121.552 Y96.672
G0 X121.552 Y96.672
G0 X120.076 Y96.098
G0 X120.088 Y96.103
G1 X121.094 Y97.109 E30.1835 F3600
G0 X121.191 Y96.640 F7200
G1 X120.256 Y95.705 E30.2495 F3600
G0 X122.294 Y92.652 F7200
G1 X123.327 Y93.685 E30.3224 F3600
G0 X123.613 Y93.405 F7200
G1 X122.572 Y92.364 E30.3958 F3600
G0 X122.873 Y92.100 F7200
G1 X123.934 Y93.160 E30.4707 F3600
G0 X124.255 Y92.915 F7200
G1 X123.175 Y91.835 E30.5469 F3600
G0 X123.476 Y91.571 F7200
G1 X124.576 Y92.671 E30.6244 F3600
G0 X124.896 Y92.426 F7200
G1 X123.811 Y91.340 E30.7010 F3600
G0 X124.150 Y91.114 F7200
G1 X125.269 Y92.232 E30.7799 F3600
G0 X125.645 Y92.043 F7200
G1 X124.489 Y90.887 E30.8615 F3600
G0 X124.847 Y90.679 F7200
G1 X126.022 Y91.854 E30.9444 F3600
G0 X126.398 Y91.665 F7200
G1 X125.226 Y90.493 E31.0271 F3600
G0 X125.605 Y90.306 F7200
G1 X126.819 Y91.520 E31.1127 F3600
G0 X127.258 Y91.394 F7200
G1 X125.991 Y90.126 E31.2022 F3600
G0 X126.413 Y89.983 F7200
G1 X127.698 Y91.267 E31.2928 F3600
G0 X128.137 Y91.141 F7200
G1 X126.836 Y89.839 E31.3847 F3600
G0 X127.260 Y89.698 F7200
G1 X128.639 Y91.077 E31.4820 F3600
G0 X129.157 Y91.029 F7200
G1 X127.732 Y89.604 E31.5825 F3600
G0 X128.204 Y89.510 F7200
G1 X129.674 Y90.981 E31.6862 F3600
G0 X130.231 Y90.972 F7200
G1 X128.684 Y89.425 E31.7954 F3600
G0 X129.215 Y89.390 F7200
G1 X130.855 Y91.030 E31.9111 F3600
G0 X131.479 Y91.088 F7200
G1 X129.746 Y89.355 E32.0334 F3600
G0 X130.315 Y89.359 F7200
G1 X132.192 Y91.236 E32.1658 F3600
G0 X132.985 Y91.463 F7200
G1 X130.921 Y89.399 E32.3114 F3600
G0 X131.548 Y89.461 F7200
G1 X133.904 Y91.817 E32.4776 F3600
G0 X135.041 Y92.388 F7200
G1 X132.254 Y89.602 E32.6742 F3600
G0 X133.003 Y89.785 F7200
G1 X140.215 Y96.997 E33.1830 F3600
G0 X139.925 Y96.140 F7200
G1 X133.860 Y90.076 E33.6109 F3600
G0 X134.909 Y90.559 F7200
G1 X139.441 Y95.091 E33.9307 F3600
G0 X138.525 Y93.609 F7200
G1 X136.391 Y91.476 E34.0812 F3600
G0 X138.033 Y95.380 F7200
G1 X140.398 Y97.746 E34.2481 F3600
G0 X140.539 Y98.452 F7200
G1 X138.865 Y96.778 E34.3662 F3600
G0 X138.896 Y97.375 F7200
G1 X140.601 Y99.079 E34.4865 F3600
G0 X140.641 Y99.685 F7200
G1 X138.761 Y97.805 E34.6191 F3600
G0 X138.496 Y98.106 F7200
G1 X140.645 Y100.254 E34.7707 F3600
G0 X140.610 Y100.785 F7200
G1 X138.196 Y98.372 E34.9409 F3600
G0 X137.746 Y98.487 F7200
G1 X140.575 Y101.316 E35.1406 F3600
G0 X140.490 Y101.796 F7200
G1 X137.126 Y98.433 E35.3779 F3600
G0 X136.163 Y97.470 F7200
G1 X133.978 Y95.284 E35.5321 F3600
G0 X133.089 Y99.487 F7200
G1 X128.007 Y94.405 E35.8907 F3600
G0 X127.563 Y94.526 F7200
G1 X132.740 Y99.704 E36.2560 F3600
G0 X132.472 Y100.002 F7200
G1 X127.160 Y94.689 E36.6308 F3600
G0 X126.778 Y94.873 F7200
G1 X132.209 Y100.304 E37.0141 F3600
G0 X131.974 Y100.635 F7200
G1 X126.395 Y95.056 E37.4077 F3600
G0 X126.043 Y95.270 F7200
G1 X131.782 Y101.009 E37.8126 F3600
G0 X131.591 Y101.383 F7200
G1 X125.715 Y95.507 E38.2272 F3600
G0 X125.386 Y95.744 F7200
G1 X131.459 Y101.817 E38.6556 F3600
G0 X131.336 Y102.260 F7200
G1 X125.073 Y95.997 E39.0975 F3600
G0 X124.796 Y96.285 F7200
G1 X131.251 Y102.740 E39.5529 F3600
G0 X131.194 Y103.814 F7200
G1 X128.039 Y100.660 E39.7755 F3600
G0 X128.507 Y101.694 F7200
G1 X131.248 Y104.435 E39.9689 F3600
G0 X131.392 Y105.143 F7200
G1 X128.723 Y102.475 E40.1572 F3600
G0 X128.781 Y103.098 F7200
G1 X131.683 Y106.001 E40.3620 F3600
; ------------------------------------
; Layer #3
; ------------------------------------
M106 S255 ;set fan speed
G92 E0 ;reset extr
G0 F3000 E-1.0000
G0 F1200 Z1.200
G0 X125.903 Y96.332 F7200
G0 X124.458 Y93.915
G0 X123.013 Y91.498
G0 F3000 E0.0000
;segType:Loop
G1 X123.290 Y91.255 E0.0184 F3600
G1 X124.489 Y90.454 E0.0903
G1 X125.782 Y89.817 E0.1622
G1 X127.147 Y89.353 E0.2342
G1 X128.561 Y89.072 E0.3061
G1 X130.000 Y88.978 E0.3780
G1 X131.439 Y89.072 E0.4499
G1 X132.853 Y89.353 E0.5219
G1 X134.218 Y89.817 E0.5938
G1 X135.511 Y90.454 E0.6657
G1 X136.710 Y91.255 E0.7377
G1 X137.794 Y92.206 E0.8096
G1 X138.745 Y93.290 E0.8815
G1 X139.546 Y94.489 E0.9535
G1 X140.183 Y95.782 E1.0254
G1 X140.647 Y97.147 E1.0973
G1 X140.928 Y98.561 E1.1693
G1 X141.022 Y100.000 E1.2412
G1 X140.928 Y101.439 E1.3131
G1 X140.647 Y102.853 E1.3850
G1 X140.183 Y104.218 E1.4570
G1 X139.546 Y105.511 E1.5289
G1 X138.745 Y106.710 E1.6008
G1 X137.794 Y107.794 E1.6728
G1 X136.710 Y108.745 E1.7447
G1 X135.511 Y109.546 E1.8166
G1 X134.218 Y110.183 E1.8886
G1 X132.853 Y110.647 E1.9605
G1 X131.439 Y110.928 E2.0324
G1 X130.000 Y111.022 E2.1044
G1 X128.561 Y110.928 E2.1763
G1 X127.147 Y110.647 E2.2482
G1 X125.782 Y110.183 E2.3202
G1 X124.489 Y109.546 E2.3921
G1 X123.290 Y108.745 E2.4640
G1 X122.206 Y107.794 E2.5359
G1 X121.255 Y106.710 E2.6079
G1 X120.454 Y105.511 E2.6798
G1 X119.817 Y104.218 E2.7517
G1 X119.353 Y102.853 E2.8237
G1 X119.072 Y101.439 E2.8956
G1 X118.978 Y100.000 E2.9675
G1 X119.072 Y98.561 E3.0395
G1 X119.353 Y97.147 E3.1114
G1 X119.817 Y95.782 E3.1833
G1 X120.454 Y94.489 E3.2552
G1 X121.255 Y93.290 E3.3272
G1 X122.206 Y92.206 E3.3991
G1 X122.863 Y91.630 E3.4427
;segType:Perimeter
G0 X121.614 Y92.600 F7200
G1 X121.968 Y91.883 E3.4826 F2160
G1 X123.046 Y90.937 E3.5542
G1 X124.288 Y90.107 E3.6287
G1 X125.628 Y89.446 E3.7033
G1 X127.043 Y88.966 E3.7778
G1 X128.509 Y88.675 E3.8524
G1 X130.000 Y88.577 E3.9269
G1 X131.491 Y88.675 E4.0015
G1 X132.957 Y88.966 E4.0760
G1 X134.372 Y89.447 E4.1506
G1 X135.712 Y90.107 E4.2251
G1 X136.954 Y90.937 E4.2996
G1 X138.078 Y91.923 E4.3742
G1 X139.063 Y93.046 E4.4487
G1 X139.893 Y94.288 E4.5233
G1 X140.554 Y95.628 E4.5978
G1 X141.034 Y97.043 E4.6724
G1 X141.325 Y98.509 E4.7469
G1 X141.423 Y100.000 E4.8215
G1 X141.325 Y101.491 E4.8960
G1 X141.034 Y102.957 E4.9706
G1 X140.554 Y104.372 E5.0451
G1 X139.893 Y105.712 E5.1197
G1 X139.063 Y106.954 E5.1942
G1 X138.077 Y108.078 E5.2688
G1 X136.954 Y109.063 E5.3433
G1 X135.711 Y109.893 E5.4178
G1 X134.372 Y110.554 E5.4924
G1 X132.957 Y111.034 E5.5669
G1 X131.491 Y111.325 E5.6415
G1 X130.000 Y111.423 E5.7160
G1 X128.509 Y111.325 E5.7906
G1 X127.043 Y111.034 E5.8651
G1 X125.628 Y110.554 E5.9397
G1 X124.288 Y109.893 E6.0142
G1 X123.046 Y109.063 E6.0888
G1 X121.922 Y108.078 E6.1633
G1 X120.937 Y106.954 E6.2379
G1 X120.107 Y105.712 E6.3124
G1 X119.446 Y104.372 E6.3869
G1 X118.966 Y102.957 E6.4615
G1 X118.675 Y101.491 E6.5361
G1 X118.577 Y100.000 E6.6106
G1 X118.675 Y98.509 E6.6851
G1 X118.966 Y97.043 E6.7597
G1 X119.446 Y95.628 E6.8342
G1 X120.107 Y94.289 E6.9088
G1 X120.937 Y93.046 E6.9833
G1 X121.883 Y91.968 E7.0549
G0 X122.600 Y91.614 F7200
G0 X122.710 Y91.764
G0 X124.020 Y93.548
G0 X124.020 Y93.548
G0 X123.749 Y93.755
G0 X122.602 Y95.029
G0 X121.766 Y96.404
G0 X121.557 Y96.645
G0 X121.452 Y97.159
G0 X121.609 Y97.660
G0 X121.990 Y98.020
G0 X122.481 Y98.145
G0 X123.029 Y98.033
G0 X123.963 Y96.632
G0 X124.922 Y95.635
G0 X125.334 Y95.337
G0 X125.334 Y95.337
G0 X131.207 Y103.337
;segType:Infill
G0 X131.199 Y103.326
G1 X128.099 Y106.426 E7.3174 F4500
G0 X126.643 Y107.883 F7200
G1 X125.087 Y109.439 E7.4491 F4500
G0 X122.461 Y107.539 F7200
G1 X123.094 Y106.906 E7.5027 F4500
G0 X120.561 Y104.913 F7200
G1 X122.070 Y103.404 E7.6304 F4500
G0 X119.451 Y101.498 F7200
G1 X122.442 Y98.507 E7.8837 F4500
;segType:Perimeter
G0 X123.513 Y97.525 F7200
G1 X122.729 Y97.686 E7.9236 F2160
G1 X122.490 Y97.735 E7.9357
G1 X122.189 Y97.658 E7.9512
G1 X121.959 Y97.441 E7.9670
G1 X121.864 Y97.138 E7.9828
G1 X121.928 Y96.828 E7.9986
G1 X122.090 Y96.640 E8.0110
G1 X122.924 Y95.269 E8.0911
G1 X124.021 Y94.050 E8.1729
G1 X125.325 Y93.055 E8.2547
G1 X126.791 Y92.319 E8.3366
G1 X128.367 Y91.866 E8.4184
G1 X130.000 Y91.714 E8.5002
G1 X131.633 Y91.866 E8.5820
G1 X133.210 Y92.319 E8.6639
G1 X134.675 Y93.055 E8.7457
G1 X135.979 Y94.050 E8.8275
G1 X137.076 Y95.269 E8.9093
G1 X137.908 Y96.637 E8.9892
G1 X138.103 Y96.845 E9.0034
G1 X138.167 Y97.159 E9.0194
G1 X138.073 Y97.460 E9.0352
G1 X137.843 Y97.677 E9.0509
G1 X137.537 Y97.756 E9.0667
G1 X137.209 Y97.669 E9.0836
G1 X136.350 Y96.380 E9.1609
G1 X135.342 Y95.332 E9.2335
G1 X134.163 Y94.480 E9.3060
G1 X132.851 Y93.852 E9.3786
G1 X131.449 Y93.467 E9.4511
G1 X130.000 Y93.337 E9.5237
G1 X128.551 Y93.467 E9.5963
G1 X127.149 Y93.852 E9.6688
G1 X125.837 Y94.480 E9.7414
G1 X124.658 Y95.332 E9.8140
G1 X123.650 Y96.380 E9.8865
G1 X122.821 Y97.624 E9.9611
G0 X122.377 Y98.290 F7200
;segType:Loop
G0 X121.527 Y97.399
G1 X121.452 Y97.159 E9.9736 F3600
G1 X121.557 Y96.645 E9.9998
G1 X121.766 Y96.404 E10.0157
G1 X122.602 Y95.029 E10.0960
G1 X123.749 Y93.755 E10.1816
G1 X125.112 Y92.714 E10.2671
G1 X126.644 Y91.944 E10.3527
G1 X128.293 Y91.471 E10.4382
G1 X130.000 Y91.312 E10.5238
G1 X131.707 Y91.471 E10.6093
G1 X133.356 Y91.944 E10.6949
G1 X134.888 Y92.714 E10.7804
G1 X136.251 Y93.755 E10.8660
G1 X137.398 Y95.029 E10.9515
G1 X138.228 Y96.394 E11.0312
G1 X138.472 Y96.655 E11.0490
G1 X138.580 Y97.180 E11.0758
G1 X138.423 Y97.679 E11.1019
G1 X138.043 Y98.039 E11.1280
G1 X137.535 Y98.169 E11.1541
G1 X136.960 Y98.016 E11.1838
G1 X136.037 Y96.632 E11.2669
G1 X135.078 Y95.635 E11.3358
G1 X133.958 Y94.826 E11.4048
G1 X132.711 Y94.228 E11.4738
G1 X131.377 Y93.862 E11.5428
G1 X130.000 Y93.738 E11.6118
G1 X128.623 Y93.862 E11.6808
G1 X127.289 Y94.228 E11.7498
G1 X126.042 Y94.826 E11.8188
G1 X124.922 Y95.635 E11.8877
G1 X123.963 Y96.632 E11.9567
G1 X123.029 Y98.033 E12.0407
G1 X122.481 Y98.145 E12.0687
G1 X121.990 Y98.020 E12.0939
G1 X121.609 Y97.660 E12.1201
G1 X121.587 Y97.590 E12.1238
G0 X121.587 Y97.590 F7200
G0 X122.535 Y98.134
G0 X122.535 Y98.134
G0 X124.864 Y99.471
G0 X124.864 Y99.471
G0 X125.439 Y99.357
G0 X126.289 Y99.525
G0 X127.043 Y99.994
G0 X127.652 Y100.694
G0 X127.925 Y101.227
G0 X127.925 Y101.227
G0 X128.475 Y101.543
;segType:Infill
G0 X128.464 Y101.536
G1 X134.406 Y95.594 E12.6269 F4500
G0 X131.262 Y94.213 F7200
G1 X126.312 Y99.163 E13.0459 F4500
;segType:Perimeter
G0 X124.713 Y99.622 F7200
G1 X125.498 Y99.777 E13.0858 F2160
G1 X126.140 Y99.903 E13.1185
G1 X126.781 Y100.302 E13.1561
G1 X127.318 Y100.920 E13.1970
G1 X127.724 Y101.712 E13.2414
G1 X127.976 Y102.626 E13.2887
G1 X128.062 Y103.602 E13.3376
G1 X127.976 Y104.578 E13.3865
G1 X127.724 Y105.491 E13.4337
G1 X127.318 Y106.283 E13.4781
G1 X126.781 Y106.902 E13.5190
G1 X126.140 Y107.300 E13.5567
G1 X125.439 Y107.438 E13.5923
G1 X124.738 Y107.300 E13.6280
G1 X124.097 Y106.902 E13.6656
G1 X123.559 Y106.283 E13.7065
G1 X123.154 Y105.491 E13.7509
G1 X122.902 Y104.578 E13.7982
G1 X122.816 Y103.602 E13.8471
G1 X122.902 Y102.626 E13.8959
G1 X123.154 Y101.712 E13.9432
G1 X123.559 Y100.920 E13.9876
G1 X124.097 Y100.302 E14.0285
G1 X124.737 Y99.903 E14.0661
G1 X125.380 Y99.777 E14.0988
G0 X126.165 Y99.622 F7200
;segType:Loop
G0 X126.678 Y99.767
G1 X127.043 Y99.994 E14.1202 F3600
G1 X127.652 Y100.694 E14.1666
G1 X128.099 Y101.567 E14.2154
G1 X128.371 Y102.555 E14.2666
G1 X128.463 Y103.602 E14.3190
G1 X128.371 Y104.649 E14.3715
G1 X128.099 Y105.637 E14.4226
G1 X127.652 Y106.509 E14.4715
G1 X127.043 Y107.210 E14.5178
G1 X126.289 Y107.678 E14.5621
G1 X125.439 Y107.846 E14.6053
G1 X124.588 Y107.678 E14.6486
G1 X123.834 Y107.210 E14.6929
G1 X123.225 Y106.509 E14.7392
G1 X122.779 Y105.637 E14.7880
G1 X122.506 Y104.649 E14.8392
G1 X122.414 Y103.602 E14.8916
G1 X122.506 Y102.555 E14.9441
G1 X122.779 Y101.567 E14.9952
G1 X123.225 Y100.694 E15.0441
G1 X123.834 Y99.994 E15.0904
G1 X124.588 Y99.525 E15.1347
G1 X125.439 Y99.357 E15.1779
G1 X126.289 Y99.525 E15.2212
G1 X126.509 Y99.661 E15.2341
G0 X126.509 Y99.661 F7200
G0 X126.191 Y99.506
G0 X126.191 Y99.506
G0 X123.068 Y97.975
G0 X123.068 Y97.975
G0 X123.029 Y98.033
G0 X122.481 Y98.145
G0 X121.990 Y98.020
G0 X121.609 Y97.660
G0 X121.460 Y97.186
G0 X121.460 Y97.186
G0 X119.957 Y96.449
;segType:Infill
G0 X119.969 Y96.455
G1 X126.455 Y89.969 E15.7832 F4500
G0 X129.999 Y90.951 F7200
G1 X131.498 Y89.451 E15.9102 F4500
G0 X134.913 Y90.561 F7200
G1 X133.740 Y91.734 E16.0095 F4500
G0 X136.504 Y93.496 F7200
G1 X137.539 Y92.461 E16.0972 F4500
G0 X139.439 Y95.087 F7200
G1 X138.454 Y96.072 E16.1806 F4500
G0 X138.192 Y96.334 F7200
G0 X138.228 Y96.394
G0 X138.472 Y96.655
G0 X138.580 Y97.180
G0 X138.423 Y97.679
G0 X138.043 Y98.039
G0 X137.535 Y98.169
G0 X136.960 Y98.016
G0 X136.780 Y97.746
G0 X136.780 Y97.746
G0 X136.511 Y98.015
G0 X136.520 Y98.006
G1 X135.375 Y99.151 E16.2775 F4500
;segType:Perimeter
G0 X133.835 Y99.622 F7200
G1 X134.620 Y99.777 E16.3175 F2160
G1 X135.263 Y99.903 E16.3501
G1 X135.903 Y100.302 E16.3878
G1 X136.441 Y100.920 E16.4286
G1 X136.846 Y101.712 E16.4731
G1 X137.098 Y102.626 E16.5203
G1 X137.184 Y103.602 E16.5692
G1 X137.098 Y104.578 E16.6181
G1 X136.846 Y105.491 E16.6654
G1 X136.441 Y106.283 E16.7098
G1 X135.903 Y106.902 E16.7506
G1 X135.263 Y107.300 E16.7883
G1 X134.561 Y107.438 E16.8239
G1 X133.860 Y107.300 E16.8596
G1 X133.219 Y106.902 E16.8972
G1 X132.682 Y106.283 E16.9381
G1 X132.276 Y105.491 E16.9825
G1 X132.024 Y104.578 E17.0298
G1 X131.938 Y103.602 E17.0787
G1 X132.024 Y102.626 E17.1275
G1 X132.276 Y101.712 E17.1748
G1 X132.682 Y100.920 E17.2192
G1 X133.219 Y100.302 E17.2601
G1 X133.860 Y99.903 E17.2977
G1 X134.502 Y99.777 E17.3304
G0 X135.287 Y99.622 F7200
;segType:Loop
G0 X135.801 Y99.767
G1 X136.166 Y99.994 E17.3519 F3600
G1 X136.775 Y100.694 E17.3982
G1 X137.221 Y101.567 E17.4470
G1 X137.494 Y102.555 E17.4982
G1 X137.586 Y103.602 E17.5506
G1 X137.494 Y104.649 E17.6031
G1 X137.221 Y105.637 E17.6542
G1 X136.775 Y106.509 E17.7031
G1 X136.166 Y107.210 E17.7494
G1 X135.412 Y107.678 E17.7937
G1 X134.561 Y107.846 E17.8369
G1 X133.711 Y107.678 E17.8802
G1 X132.957 Y107.210 E17.9245
G1 X132.348 Y106.509 E17.9708
G1 X131.901 Y105.637 E18.0197
G1 X131.629 Y104.649 E18.0708
G1 X131.537 Y103.602 E18.1232
G1 X131.629 Y102.555 E18.1757
G1 X131.901 Y101.567 E18.2268
G1 X132.348 Y100.694 E18.2757
G1 X132.957 Y99.994 E18.3220
G1 X133.711 Y99.525 E18.3663
G1 X134.561 Y99.357 E18.4096
G1 X135.412 Y99.525 E18.4528
G1 X135.631 Y99.661 E18.4657
;segType:Infill
G0 X137.571 Y101.480 F7200
G1 X140.549 Y98.502 E18.7178 F4500
G0 X140.031 Y103.545 F7200
G1 X137.296 Y106.280 E18.9494 F4500
G0 X135.577 Y108.000 F7200
G1 X133.545 Y110.031 E19.1214 F4500
G0 X128.502 Y110.549 F7200
G1 X132.183 Y106.868 E19.4331 F4500
; ------------------------------------
; Layer #4
; ------------------------------------
G92 E0 ;reset extr
;segType:Infill
G0 F3000 E-1.0000
G0 F1200 Z1.500
G0 X133.053 Y110.199 F7200
G0 F3000 E0.0000
G1 X128.476 Y105.622 E0.3875 F4500
G0 X131.194 Y103.814 F7200
G1 X128.039 Y100.660 E0.6546 F4500
G0 X126.795 Y99.415 F7200
G1 X124.242 Y96.862 E0.8707 F4500
G0 X123.986 Y96.607 F7200
G0 X123.963 Y96.632
G0 X123.029 Y98.033
G0 X122.481 Y98.145
G0 X121.990 Y98.020
G0 X121.609 Y97.660
G0 X121.452 Y97.159
G0 X121.557 Y96.645
G0 X121.766 Y96.404
G0 X122.529 Y95.149
G0 X122.529 Y95.149
G0 X122.257 Y94.878
G0 X122.267 Y94.887
G1 X121.280 Y93.901 E0.9542 F4500
;segType:Perimeter
G0 X121.614 Y92.600 F7200
G1 X121.968 Y91.883 E0.9941 F2160
G1 X123.046 Y90.937 E1.0657
G1 X124.288 Y90.107 E1.1402
G1 X125.628 Y89.446 E1.2148
G1 X127.043 Y88.966 E1.2893
G1 X128.509 Y88.675 E1.3639
G1 X130.000 Y88.577 E1.4384
G1 X131.491 Y88.675 E1.5129
G1 X132.957 Y88.966 E1.5875
G1 X134.372 Y89.447 E1.6621
G1 X135.712 Y90.107 E1.7366
G1 X136.954 Y90.937 E1.8111
G1 X138.078 Y91.923 E1.8857
G1 X139.063 Y93.046 E1.9602
G1 X139.893 Y94.288 E2.0348
G1 X140.554 Y95.628 E2.1093
G1 X141.034 Y97.043 E2.1839
G1 X141.325 Y98.509 E2.2584
G1 X141.423 Y100.000 E2.3330
G1 X141.325 Y101.491 E2.4075
G1 X141.034 Y102.957 E2.4821
G1 X140.554 Y104.372 E2.5566
G1 X139.893 Y105.712 E2.6312
G1 X139.063 Y106.954 E2.7057
G1 X138.077 Y108.078 E2.7802
G1 X136.954 Y109.063 E2.8548
G1 X135.711 Y109.893 E2.9293
G1 X134.372 Y110.554 E3.0039
G1 X132.957 Y111.034 E3.0784
G1 X131.491 Y111.325 E3.1530
G1 X130.000 Y111.423 E3.2275
G1 X128.509 Y111.325 E3.3021
G1 X127.043 Y111.034 E3.3766
G1 X125.628 Y110.554 E3.4512
G1 X124.288 Y109.893 E3.5257
G1 X123.046 Y109.063 E3.6003
G1 X121.922 Y108.078 E3.6748
G1 X120.937 Y106.954 E3.7494
G1 X120.107 Y105.712 E3.8239
G1 X119.446 Y104.372 E3.8984
G1 X118.966 Y102.957 E3.9730
G1 X118.675 Y101.491 E4.0475
G1 X118.577 Y100.000 E4.1221
G1 X118.675 Y98.509 E4.1966
G1 X118.966 Y97.043 E4.2712
G1 X119.446 Y95.628 E4.3457
G1 X120.107 Y94.289 E4.4203
G1 X120.937 Y93.046 E4.4948
G1 X121.883 Y91.968 E4.5664
G0 X122.600 Y91.614 F7200
;segType:Loop
G0 X123.013 Y91.498
G1 X123.290 Y91.255 E4.5847 F3600
G1 X124.489 Y90.454 E4.6567
G1 X125.782 Y89.817 E4.7286
G1 X127.147 Y89.353 E4.8005
G1 X128.561 Y89.072 E4.8725
G1 X130.000 Y88.978 E4.9444
G1 X131.439 Y89.072 E5.0163
G1 X132.853 Y89.353 E5.0883
G1 X134.218 Y89.817 E5.1602
G1 X135.511 Y90.454 E5.2321
G1 X136.710 Y91.255 E5.3041
G1 X137.794 Y92.206 E5.3760
G1 X138.745 Y93.290 E5.4479
G1 X139.546 Y94.489 E5.5198
G1 X140.183 Y95.782 E5.5918
G1 X140.647 Y97.147 E5.6637
G1 X140.928 Y98.561 E5.7356
G1 X141.022 Y100.000 E5.8076
G1 X140.928 Y101.439 E5.8795
G1 X140.647 Y102.853 E5.9514
G1 X140.183 Y104.218 E6.0234
G1 X139.546 Y105.511 E6.0953
G1 X138.745 Y106.710 E6.1672
G1 X137.794 Y107.794 E6.2392
G1 X136.710 Y108.745 E6.3111
G1 X135.511 Y109.546 E6.3830
G1 X134.218 Y110.183 E6.4549
G1 X132.853 Y110.647 E6.5269
G1 X131.439 Y110.928 E6.5988
G1 X130.000 Y111.022 E6.6707
G1 X128.561 Y110.928 E6.7427
G1 X127.147 Y110.647 E6.8146
G1 X125.782 Y110.183 E6.8865
G1 X124.489 Y109.546 E6.9585
G1 X123.290 Y108.745 E7.0304
G1 X122.206 Y107.794 E7.1023
G1 X121.255 Y106.710 E7.1742
G1 X120.454 Y105.511 E7.2462
G1 X119.817 Y104.218 E7.3181
G1 X119.353 Y102.853 E7.3900
G1 X119.072 Y101.439 E7.4620
G1 X118.978 Y100.000 E7.5339
G1 X119.072 Y98.561 E7.6058
G1 X119.353 Y97.147 E7.6778
G1 X119.817 Y95.782 E7.7497
G1 X120.454 Y94.489 E7.8216
G1 X121.255 Y93.290 E7.8936
G1 X122.206 Y92.206 E7.9655
G1 X122.863 Y91.630 E8.0091
;segType:Infill
G0 X119.801 Y96.947 F7200
G1 X123.120 Y100.266 E8.2901 F4500
;segType:Loop
G0 X121.527 Y97.399 F7200
G1 X121.452 Y97.159 E8.3026 F3600
G1 X121.557 Y96.645 E8.3288
G1 X121.766 Y96.404 E8.3447
G1 X122.602 Y95.029 E8.4250
G1 X123.749 Y93.755 E8.5105
G1 X125.112 Y92.714 E8.5961
G1 X126.644 Y91.944 E8.6816
G1 X128.293 Y91.471 E8.7672
G1 X130.000 Y91.312 E8.8527
G1 X131.707 Y91.471 E8.9383
G1 X133.356 Y91.944 E9.0238
G1 X134.888 Y92.714 E9.1094
G1 X136.251 Y93.755 E9.1949
G1 X137.398 Y95.029 E9.2805
G1 X138.228 Y96.394 E9.3602
G1 X138.472 Y96.655 E9.3780
G1 X138.580 Y97.180 E9.4048
G1 X138.423 Y97.679 E9.4309
G1 X138.043 Y98.039 E9.4570
G1 X137.535 Y98.169 E9.4831
G1 X136.960 Y98.016 E9.5128
G1 X136.037 Y96.632 E9.5958
G1 X135.078 Y95.635 E9.6648
G1 X133.958 Y94.826 E9.7338
G1 X132.711 Y94.228 E9.8028
G1 X131.377 Y93.862 E9.8718
G1 X130.000 Y93.738 E9.9408
G1 X128.623 Y93.862 E10.0098
G1 X127.289 Y94.228 E10.0787
G1 X126.042 Y94.826 E10.1477
G1 X124.922 Y95.635 E10.2167
G1 X123.963 Y96.632 E10.2857
G1 X123.029 Y98.033 E10.3697
G1 X122.481 Y98.145 E10.3976
G1 X121.990 Y98.020 E10.4229
G1 X121.609 Y97.660 E10.4491
G1 X121.587 Y97.590 E10.4527
G0 X121.587 Y97.590 F7200
G0 X121.609 Y97.660
G0 X121.990 Y98.020
G0 X122.481 Y98.145
G0 X123.029 Y98.033
G0 X123.364 Y97.530
G0 X123.364 Y97.530
G0 X123.526 Y97.525
;segType:Perimeter
G0 X123.513 Y97.525
G1 X122.729 Y97.686 E10.4926 F2160
G1 X122.490 Y97.735 E10.5048
G1 X122.189 Y97.658 E10.5203
G1 X121.959 Y97.441 E10.5361
G1 X121.864 Y97.138 E10.5519
G1 X121.928 Y96.828 E10.5677
G1 X122.090 Y96.640 E10.5801
G1 X122.924 Y95.269 E10.6602
G1 X124.021 Y94.050 E10.7420
G1 X125.325 Y93.055 E10.8238
G1 X126.791 Y92.319 E10.9056
G1 X128.367 Y91.866 E10.9874
G1 X130.000 Y91.714 E11.0693
G1 X131.633 Y91.866 E11.1511
G1 X133.210 Y92.319 E11.2329
G1 X134.675 Y93.055 E11.3147
G1 X135.979 Y94.050 E11.3966
G1 X137.076 Y95.269 E11.4784
G1 X137.908 Y96.637 E11.5582
G1 X138.103 Y96.845 E11.5725
G1 X138.167 Y97.159 E11.5885
G1 X138.073 Y97.460 E11.6042
G1 X137.843 Y97.677 E11.6200
G1 X137.537 Y97.756 E11.6358
G1 X137.209 Y97.669 E11.6527
G1 X136.350 Y96.380 E11.7300
G1 X135.342 Y95.332 E11.8025
G1 X134.163 Y94.480 E11.8751
G1 X132.851 Y93.852 E11.9476
G1 X131.449 Y93.467 E12.0202
G1 X130.000 Y93.337 E12.0928
G1 X128.551 Y93.467 E12.1653
G1 X127.149 Y93.852 E12.2379
G1 X125.837 Y94.480 E12.3105
G1 X124.658 Y95.332 E12.3830
G1 X123.650 Y96.380 E12.4556
G1 X122.821 Y97.624 E12.5302
G0 X122.377 Y98.290 F7200
;segType:Loop
G0 X126.678 Y99.767
G1 X127.043 Y99.994 E12.5516 F3600
G1 X127.652 Y100.694 E12.5979
G1 X128.099 Y101.567 E12.6468
G1 X128.371 Y102.555 E12.6979
G1 X128.463 Y103.602 E12.7504
G1 X128.371 Y104.649 E12.8028
G1 X128.099 Y105.637 E12.8539
G1 X127.652 Y106.509 E12.9028
G1 X127.043 Y107.210 E12.9491
G1 X126.289 Y107.678 E12.9934
G1 X125.439 Y107.846 E13.0367
G1 X124.588 Y107.678 E13.0799
G1 X123.834 Y107.210 E13.1242
G1 X123.225 Y106.509 E13.1705
G1 X122.779 Y105.637 E13.2194
G1 X122.506 Y104.649 E13.2705
G1 X122.414 Y103.602 E13.3230
G1 X122.506 Y102.555 E13.3754
G1 X122.779 Y101.567 E13.4266
G1 X123.225 Y100.694 E13.4754
G1 X123.834 Y99.994 E13.5218
G1 X124.588 Y99.525 E13.5660
G1 X125.439 Y99.357 E13.6093
G1 X126.289 Y99.525 E13.6526
G1 X126.509 Y99.661 E13.6654
;segType:Perimeter
G0 X124.713 Y99.622 F7200
G1 X125.498 Y99.777 E13.7053 F2160
G1 X126.140 Y99.903 E13.7380
G1 X126.781 Y100.302 E13.7757
G1 X127.318 Y100.920 E13.8165
G1 X127.724 Y101.712 E13.8609
G1 X127.976 Y102.626 E13.9082
G1 X128.062 Y103.602 E13.9571
G1 X127.976 Y104.578 E14.0060
G1 X127.724 Y105.491 E14.0532
G1 X127.318 Y106.283 E14.0976
G1 X126.781 Y106.902 E14.1385
G1 X126.140 Y107.300 E14.1762
G1 X125.439 Y107.438 E14.2118
G1 X124.738 Y107.300 E14.2475
G1 X124.097 Y106.902 E14.2851
G1 X123.559 Y106.283 E14.3260
G1 X123.154 Y105.491 E14.3704
G1 X122.902 Y104.578 E14.4177
G1 X122.816 Y103.602 E14.4666
G1 X122.902 Y102.626 E14.5154
G1 X123.154 Y101.712 E14.5627
G1 X123.559 Y100.920 E14.6071
G1 X124.097 Y100.302 E14.6480
G1 X124.737 Y99.903 E14.6856
G1 X125.380 Y99.777 E14.7183
G0 X126.165 Y99.622 F7200
G0 X126.186 Y99.505
G0 X127.142 Y94.299
G0 X127.142 Y94.299
G0 X126.042 Y94.826
G0 X124.922 Y95.635
G0 X123.963 Y96.632
G0 X123.029 Y98.033
G0 X122.481 Y98.145
G0 X121.990 Y98.020
G0 X121.609 Y97.660
G0 X121.452 Y97.159
G0 X121.557 Y96.645
G0 X121.766 Y96.404
G0 X122.602 Y95.029
G0 X123.749 Y93.755
G0 X125.112 Y92.714
G0 X126.644 Y91.944
G0 X127.625 Y91.663
G0 X127.625 Y91.663
G0 X127.700 Y91.255
;segType:Infill
G0 X127.698 Y91.267
G1 X126.413 Y89.983 E14.8271 F4500
G0 X123.476 Y91.571 F7200
G1 X124.576 Y92.671 E14.9202 F4500
G0 X124.832 Y92.928 F7200
G0 X123.749 Y93.755
G0 X122.602 Y95.029
G0 X121.766 Y96.404
G0 X121.557 Y96.645
G0 X121.452 Y97.159
G0 X121.609 Y97.660
G0 X121.990 Y98.020
G0 X122.481 Y98.145
G0 X123.029 Y98.033
G0 X123.963 Y96.632
G0 X124.922 Y95.635
G0 X126.042 Y94.826
G0 X126.508 Y94.603
G0 X126.508 Y94.603
G0 X126.787 Y94.882
G0 X126.778 Y94.873
G1 X132.209 Y100.304 E15.3800 F4500
;segType:Perimeter
G0 X133.835 Y99.622 F7200
G1 X134.620 Y99.777 E15.4200 F2160
G1 X135.263 Y99.903 E15.4526
G1 X135.903 Y100.302 E15.4903
G1 X136.441 Y100.920 E15.5311
G1 X136.846 Y101.712 E15.5756
G1 X137.098 Y102.626 E15.6228
G1 X137.184 Y103.602 E15.6717
G1 X137.098 Y104.578 E15.7206
G1 X136.846 Y105.491 E15.7678
G1 X136.441 Y106.283 E15.8122
G1 X135.903 Y106.902 E15.8531
G1 X135.263 Y107.300 E15.8908
G1 X134.561 Y107.438 E15.9264
G1 X133.860 Y107.300 E15.9621
G1 X133.219 Y106.902 E15.9997
G1 X132.682 Y106.283 E16.0406
G1 X132.276 Y105.491 E16.0850
G1 X132.024 Y104.578 E16.1323
G1 X131.938 Y103.602 E16.1812
G1 X132.024 Y102.626 E16.2300
G1 X132.276 Y101.712 E16.2773
G1 X132.682 Y100.920 E16.3217
G1 X133.219 Y100.302 E16.3626
G1 X133.860 Y99.903 E16.4002
G1 X134.502 Y99.777 E16.4329
G0 X135.287 Y99.622 F7200
;segType:Loop
G0 X135.801 Y99.767
G1 X136.166 Y99.994 E16.4544 F3600
G1 X136.775 Y100.694 E16.5007
G1 X137.221 Y101.567 E16.5495
G1 X137.494 Y102.555 E16.6007
G1 X137.586 Y103.602 E16.6531
G1 X137.494 Y104.649 E16.7056
G1 X137.221 Y105.637 E16.7567
G1 X136.775 Y106.509 E16.8056
G1 X136.166 Y107.210 E16.8519
G1 X135.412 Y107.678 E16.8962
G1 X134.561 Y107.846 E16.9394
G1 X133.711 Y107.678 E16.9827
G1 X132.957 Y107.210 E17.0270
G1 X132.348 Y106.509 E17.0733
G1 X131.901 Y105.637 E17.1222
G1 X131.629 Y104.649 E17.1733
G1 X131.537 Y103.602 E17.2258
G1 X131.629 Y102.555 E17.2782
G1 X131.901 Y101.567 E17.3293
G1 X132.348 Y100.694 E17.3782
G1 X132.957 Y99.994 E17.4245
G1 X133.711 Y99.525 E17.4688
G1 X134.561 Y99.357 E17.5121
G1 X135.412 Y99.525 E17.5553
G1 X135.631 Y99.661 E17.5682
;segType:Infill
G0 X135.728 Y99.298 F7200
G1 X130.583 Y94.152 E18.0039 F4500
G0 X130.773 Y93.808 F7200
G0 X131.377 Y93.862
G0 X132.711 Y94.228
G0 X133.958 Y94.826
G0 X135.078 Y95.635
G0 X136.037 Y96.632
G0 X136.960 Y98.016
G0 X137.535 Y98.169
G0 X138.043 Y98.039
G0 X138.423 Y97.679
G0 X138.580 Y97.180
G0 X138.472 Y96.655
G0 X138.228 Y96.394
G0 X137.398 Y95.029
G0 X136.251 Y93.755
G0 X134.888 Y92.714
G0 X133.356 Y91.944
G0 X132.013 Y91.559
G0 X132.013 Y91.559
G0 X132.198 Y91.224
G0 X132.192 Y91.236
G1 X130.315 Y89.359 E18.1627 F4500
G0 X127.843 Y92.017 F7200
G0 X126.791 Y92.319
G0 X125.325 Y93.055
G0 X124.021 Y94.050
G0 X122.924 Y95.269
G0 X122.090 Y96.640
G0 X121.928 Y96.828
G0 X121.864 Y97.138
G0 X121.959 Y97.441
G0 X122.189 Y97.658
G0 X122.490 Y97.735
G0 X122.788 Y97.674
G0 X123.650 Y96.380
G0 X124.658 Y95.332
G0 X124.963 Y95.112
G0 X124.963 Y95.112
G0 X124.658 Y95.332
G0 X123.650 Y96.380
G0 X123.313 Y96.886
G0 X123.313 Y96.886
G0 X122.788 Y97.674
G0 X122.530 Y97.727
G0 X122.530 Y97.727
G0 X119.401 Y101.091
G0 X119.410 Y101.081
G1 X122.065 Y103.736 E18.3875 F4500
G0 X122.461 Y104.133 F7200
G0 X122.506 Y104.649
G0 X122.779 Y105.637
G0 X123.225 Y106.509
G0 X123.834 Y107.210
G0 X124.588 Y107.678
G0 X125.439 Y107.846
G0 X126.053 Y107.725
G0 X126.053 Y107.725
G0 X126.369 Y108.041
G0 X126.360 Y108.031
G1 X128.919 Y110.590 E18.6042 F4500
G0 X135.423 Y108.043 F7200
G1 X136.099 Y108.720 E18.6615 F4500
G0 X138.429 Y106.524 F7200
G1 X137.583 Y105.678 E18.7331 F4500
G0 X140.017 Y103.587 F7200
G1 X137.236 Y100.806 E18.9685 F4500
G0 X140.641 Y99.685 F7200
G1 X138.761 Y97.805 E19.1277 F4500
; ------------------------------------
; Layer #5
; ------------------------------------
G92 E0 ;reset extr
G0 F3000 E-1.0000
G0 F1200 Z1.800
G0 X136.132 Y97.476 F7200
G0 X122.986 Y95.830
G0 X120.357 Y95.501
G0 F3000 E0.0000
;segType:HShell
G1 X125.501 Y90.357 E0.3629 F3600
G0 X124.235 Y91.057 F7200
G1 X121.057 Y94.235 E0.5872 F3600
;segType:Perimeter
G0 X121.614 Y92.600 F7200
G1 X121.968 Y91.883 E0.6271 F2160
G1 X123.046 Y90.937 E0.6986
G1 X124.288 Y90.107 E0.7732
G1 X125.628 Y89.446 E0.8477
G1 X127.043 Y88.966 E0.9223
G1 X128.509 Y88.675 E0.9968
G1 X130.000 Y88.577 E1.0714
G1 X131.491 Y88.675 E1.1459
G1 X132.957 Y88.966 E1.2205
G1 X134.372 Y89.447 E1.2950
G1 X135.712 Y90.107 E1.3696
G1 X136.954 Y90.937 E1.4441
G1 X138.078 Y91.923 E1.5187
G1 X139.063 Y93.046 E1.5932
G1 X139.893 Y94.288 E1.6678
G1 X140.554 Y95.628 E1.7423
G1 X141.034 Y97.043 E1.8168
G1 X141.325 Y98.509 E1.8914
G1 X141.423 Y100.000 E1.9659
G1 X141.325 Y101.491 E2.0405
G1 X141.034 Y102.957 E2.1150
G1 X140.554 Y104.372 E2.1896
G1 X139.893 Y105.712 E2.2641
G1 X139.063 Y106.954 E2.3387
G1 X138.077 Y108.078 E2.4132
G1 X136.954 Y109.063 E2.4878
G1 X135.711 Y109.893 E2.5623
G1 X134.372 Y110.554 E2.6369
G1 X132.957 Y111.034 E2.7114
G1 X131.491 Y111.325 E2.7860
G1 X130.000 Y111.423 E2.8605
G1 X128.509 Y111.325 E2.9350
G1 X127.043 Y111.034 E3.0096
G1 X125.628 Y110.554 E3.0841
G1 X124.288 Y109.893 E3.1587
G1 X123.046 Y109.063 E3.2332
G1 X121.922 Y108.078 E3.3078
G1 X120.937 Y106.954 E3.3823
G1 X120.107 Y105.712 E3.4569
G1 X119.446 Y104.372 E3.5314
G1 X118.966 Y102.957 E3.6060
G1 X118.675 Y101.491 E3.6805
G1 X118.577 Y100.000 E3.7551
G1 X118.675 Y98.509 E3.8296
G1 X118.966 Y97.043 E3.9042
G1 X119.446 Y95.628 E3.9787
G1 X120.107 Y94.289 E4.0532
G1 X120.937 Y93.046 E4.1278
G1 X121.883 Y91.968 E4.1993
G0 X122.600 Y91.614 F7200
;segType:Loop
G0 X123.013 Y91.498
G1 X123.290 Y91.255 E4.2177 F3600
G1 X124.489 Y90.454 E4.2896
G1 X125.782 Y89.817 E4.3616
G1 X127.147 Y89.353 E4.4335
G1 X128.561 Y89.072 E4.5054
G1 X130.000 Y88.978 E4.5774
G1 X131.439 Y89.072 E4.6493
G1 X132.853 Y89.353 E4.7212
G1 X134.218 Y89.817 E4.7932
G1 X135.511 Y90.454 E4.8651
G1 X136.710 Y91.255 E4.9370
G1 X137.794 Y92.206 E5.0090
G1 X138.745 Y93.290 E5.0809
G1 X139.546 Y94.489 E5.1528
G1 X140.183 Y95.782 E5.2247
G1 X140.647 Y97.147 E5.2967
G1 X140.928 Y98.561 E5.3686
G1 X141.022 Y100.000 E5.4405
G1 X140.928 Y101.439 E5.5125
G1 X140.647 Y102.853 E5.5844
G1 X140.183 Y104.218 E5.6563
G1 X139.546 Y105.511 E5.7283
G1 X138.745 Y106.710 E5.8002
G1 X137.794 Y107.794 E5.8721
G1 X136.710 Y108.745 E5.9440
G1 X135.511 Y109.546 E6.0160
G1 X134.218 Y110.183 E6.0879
G1 X132.853 Y110.647 E6.1598
G1 X131.439 Y110.928 E6.2318
G1 X130.000 Y111.022 E6.3037
G1 X128.561 Y110.928 E6.3756
G1 X127.147 Y110.647 E6.4476
G1 X125.782 Y110.183 E6.5195
G1 X124.489 Y109.546 E6.5914
G1 X123.290 Y108.745 E6.6634
G1 X122.206 Y107.794 E6.7353
G1 X121.255 Y106.710 E6.8072
G1 X120.454 Y105.511 E6.8792
G1 X119.817 Y104.218 E6.9511
G1 X119.353 Y102.853 E7.0230
G1 X119.072 Y101.439 E7.0950
G1 X118.978 Y100.000 E7.1669
G1 X119.072 Y98.561 E7.2388
G1 X119.353 Y97.147 E7.3107
G1 X119.817 Y95.782 E7.3827
G1 X120.454 Y94.489 E7.4546
G1 X121.255 Y93.290 E7.5265
G1 X122.206 Y92.206 E7.5985
G1 X122.863 Y91.630 E7.6421
;segType:HShell
G0 X119.639 Y102.442 F7200
G1 X127.551 Y94.530 E8.2003 F3600
G0 X126.517 Y94.998 F7200
G1 X123.422 Y98.092 E8.4186 F3600
;segType:Perimeter
G0 X123.513 Y97.525 F7200
G1 X122.729 Y97.686 E8.4586 F2160
G1 X122.490 Y97.735 E8.4707
G1 X122.189 Y97.658 E8.4862
G1 X121.959 Y97.441 E8.5020
G1 X121.864 Y97.138 E8.5178
G1 X121.928 Y96.828 E8.5336
G1 X122.090 Y96.640 E8.5460
G1 X122.924 Y95.269 E8.6261
G1 X124.021 Y94.050 E8.7079
G1 X125.325 Y93.055 E8.7897
G1 X126.791 Y92.319 E8.8715
G1 X128.367 Y91.866 E8.9534
G1 X130.000 Y91.714 E9.0352
G1 X131.633 Y91.866 E9.1170
G1 X133.210 Y92.319 E9.1988
G1 X134.675 Y93.055 E9.2807
G1 X135.979 Y94.050 E9.3625
G1 X137.076 Y95.269 E9.4443
G1 X137.908 Y96.637 E9.5242
G1 X138.103 Y96.845 E9.5384
G1 X138.167 Y97.159 E9.5544
G1 X138.073 Y97.460 E9.5702
G1 X137.843 Y97.677 E9.5859
G1 X137.537 Y97.756 E9.6017
G1 X137.209 Y97.669 E9.6186
G1 X136.350 Y96.380 E9.6959
G1 X135.342 Y95.332 E9.7684
G1 X134.163 Y94.480 E9.8410
G1 X132.851 Y93.852 E9.9136
G1 X131.449 Y93.467 E9.9861
G1 X130.000 Y93.337 E10.0587
G1 X128.551 Y93.467 E10.1313
G1 X127.149 Y93.852 E10.2038
G1 X125.837 Y94.480 E10.2764
G1 X124.658 Y95.332 E10.3489
G1 X123.650 Y96.380 E10.4215
G1 X122.821 Y97.624 E10.4961
G0 X122.377 Y98.290 F7200
;segType:Loop
G0 X121.527 Y97.399
G1 X121.452 Y97.159 E10.5086 F3600
G1 X121.557 Y96.645 E10.5348
G1 X121.766 Y96.404 E10.5507
G1 X122.602 Y95.029 E10.6310
G1 X123.749 Y93.755 E10.7165
G1 X125.112 Y92.714 E10.8021
G1 X126.644 Y91.944 E10.8876
G1 X128.293 Y91.471 E10.9732
G1 X130.000 Y91.312 E11.0587
G1 X131.707 Y91.471 E11.1443
G1 X133.356 Y91.944 E11.2298
G1 X134.888 Y92.714 E11.3154
G1 X136.251 Y93.755 E11.4010
G1 X137.398 Y95.029 E11.4865
G1 X138.228 Y96.394 E11.5662
G1 X138.472 Y96.655 E11.5840
G1 X138.580 Y97.180 E11.6108
G1 X138.423 Y97.679 E11.6369
G1 X138.043 Y98.039 E11.6630
G1 X137.535 Y98.169 E11.6891
G1 X136.960 Y98.016 E11.7188
G1 X136.037 Y96.632 E11.8018
G1 X135.078 Y95.635 E11.8708
G1 X133.958 Y94.826 E11.9398
G1 X132.711 Y94.228 E12.0088
G1 X131.377 Y93.862 E12.0778
G1 X130.000 Y93.738 E12.1468
G1 X128.623 Y93.862 E12.2158
G1 X127.289 Y94.228 E12.2847
G1 X126.042 Y94.826 E12.3537
G1 X124.922 Y95.635 E12.4227
G1 X123.963 Y96.632 E12.4917
G1 X123.029 Y98.033 E12.5757
G1 X122.481 Y98.145 E12.6036
G1 X121.990 Y98.020 E12.6289
G1 X121.609 Y97.660 E12.6551
G1 X121.587 Y97.590 E12.6587
;segType:HShell
G0 X119.892 Y103.320 F7200
G1 X129.024 Y94.187 E13.3031 F3600
G0 X129.646 Y94.132 F7200
G1 X124.627 Y99.150 E13.6572 F3600
;segType:Perimeter
G0 X124.713 Y99.622 F7200
G1 X125.498 Y99.777 E13.6971 F2160
G1 X126.140 Y99.903 E13.7298
G1 X126.781 Y100.302 E13.7674
G1 X127.318 Y100.920 E13.8083
G1 X127.724 Y101.712 E13.8527
G1 X127.976 Y102.626 E13.9000
G1 X128.062 Y103.602 E13.9488
G1 X127.976 Y104.578 E13.9977
G1 X127.724 Y105.491 E14.0450
G1 X127.318 Y106.283 E14.0894
G1 X126.781 Y106.902 E14.1303
G1 X126.140 Y107.300 E14.1679
G1 X125.439 Y107.438 E14.2036
G1 X124.738 Y107.300 E14.2392
G1 X124.097 Y106.902 E14.2769
G1 X123.559 Y106.283 E14.3177
G1 X123.154 Y105.491 E14.3621
G1 X122.902 Y104.578 E14.4094
G1 X122.816 Y103.602 E14.4583
G1 X122.902 Y102.626 E14.5072
G1 X123.154 Y101.712 E14.5544
G1 X123.559 Y100.920 E14.5989
G1 X124.097 Y100.302 E14.6397
G1 X124.737 Y99.903 E14.6774
G1 X125.380 Y99.777 E14.7100
G0 X126.165 Y99.622 F7200
;segType:Loop
G0 X126.678 Y99.767
G1 X127.043 Y99.994 E14.7315 F3600
G1 X127.652 Y100.694 E14.7778
G1 X128.099 Y101.567 E14.8267
G1 X128.371 Y102.555 E14.8778
G1 X128.463 Y103.602 E14.9302
G1 X128.371 Y104.649 E14.9827
G1 X128.099 Y105.637 E15.0338
G1 X127.652 Y106.509 E15.0827
G1 X127.043 Y107.210 E15.1290
G1 X126.289 Y107.678 E15.1733
G1 X125.439 Y107.846 E15.2166
G1 X124.588 Y107.678 E15.2598
G1 X123.834 Y107.210 E15.3041
G1 X123.225 Y106.509 E15.3504
G1 X122.779 Y105.637 E15.3993
G1 X122.506 Y104.649 E15.4504
G1 X122.414 Y103.602 E15.5029
G1 X122.506 Y102.555 E15.5553
G1 X122.779 Y101.567 E15.6064
G1 X123.225 Y100.694 E15.6553
G1 X123.834 Y99.994 E15.7016
G1 X124.588 Y99.525 E15.7459
G1 X125.439 Y99.357 E15.7892
G1 X126.289 Y99.525 E15.8324
G1 X126.509 Y99.661 E15.8453
G0 X126.509 Y99.661 F7200
G0 X127.043 Y99.994
G0 X127.652 Y100.694
G0 X128.099 Y101.567
G0 X128.371 Y102.555
G0 X128.389 Y102.756
G0 X128.389 Y102.756
G0 X128.818 Y103.462
;segType:HShell
G0 X128.812 Y103.451
G1 X135.583 Y96.679 E16.3231 F3600
G0 X135.841 Y96.987 F7200
G1 X133.660 Y99.168 E16.4770 F3600
;segType:Perimeter
G0 X133.835 Y99.622 F7200
G1 X134.620 Y99.777 E16.5169 F2160
G1 X135.263 Y99.903 E16.5496
G1 X135.903 Y100.302 E16.5872
G1 X136.441 Y100.920 E16.6281
G1 X136.846 Y101.712 E16.6725
G1 X137.098 Y102.626 E16.7198
G1 X137.184 Y103.602 E16.7686
G1 X137.098 Y104.578 E16.8175
G1 X136.846 Y105.491 E16.8648
G1 X136.441 Y106.283 E16.9092
G1 X135.903 Y106.902 E16.9501
G1 X135.263 Y107.300 E16.9877
G1 X134.561 Y107.438 E17.0234
G1 X133.860 Y107.300 E17.0590
G1 X133.219 Y106.902 E17.0967
G1 X132.682 Y106.283 E17.1376
G1 X132.276 Y105.491 E17.1820
G1 X132.024 Y104.578 E17.2292
G1 X131.938 Y103.602 E17.2781
G1 X132.024 Y102.626 E17.3270
G1 X132.276 Y101.712 E17.3742
G1 X132.682 Y100.920 E17.4187
G1 X133.219 Y100.302 E17.4595
G1 X133.860 Y99.903 E17.4972
G1 X134.502 Y99.777 E17.5298
G0 X135.287 Y99.622 F7200
;segType:Loop
G0 X135.801 Y99.767
G1 X136.166 Y99.994 E17.5513 F3600
G1 X136.775 Y100.694 E17.5976
G1 X137.221 Y101.567 E17.6465
G1 X137.494 Y102.555 E17.6976
G1 X137.586 Y103.602 E17.7500
G1 X137.494 Y104.649 E17.8025
G1 X137.221 Y105.637 E17.8536
G1 X136.775 Y106.509 E17.9025
G1 X136.166 Y107.210 E17.9488
G1 X135.412 Y107.678 E17.9931
G1 X134.561 Y107.846 E18.0364
G1 X133.711 Y107.678 E18.0796
G1 X132.957 Y107.210 E18.1239
G1 X132.348 Y106.509 E18.1702
G1 X131.901 Y105.637 E18.2191
G1 X131.629 Y104.649 E18.2702
G1 X131.537 Y103.602 E18.3227
G1 X131.629 Y102.555 E18.3751
G1 X131.901 Y101.567 E18.4263
G1 X132.348 Y100.694 E18.4751
G1 X132.957 Y99.994 E18.5214
G1 X133.711 Y99.525 E18.5657
G1 X134.561 Y99.357 E18.6090
G1 X135.412 Y99.525 E18.6522
G1 X135.631 Y99.661 E18.6651
;segType:HShell
G0 X134.365 Y99.029 F7200
G1 X136.068 Y97.327 E18.7852 F3600
G0 X136.294 Y97.666 F7200
G1 X134.902 Y99.057 E18.8834 F3600
G0 X135.375 Y99.151 F7200
G1 X136.520 Y98.006 E18.9642 F3600
G0 X136.756 Y98.335 F7200
G1 X135.768 Y99.323 E19.0339 F3600
G0 X136.117 Y99.540 F7200
G1 X137.203 Y98.454 E19.1105 F3600
G0 X137.732 Y98.490 F7200
G1 X136.450 Y99.772 E19.2010 F3600
G0 X136.713 Y100.075 F7200
G1 X140.108 Y96.680 E19.4405 F3600
G0 X140.251 Y97.103 F7200
G1 X136.976 Y100.378 E19.6715 F3600
G0 X137.195 Y100.725 F7200
G1 X140.361 Y97.558 E19.8949 F3600
G0 X140.455 Y98.030 F7200
G1 X137.386 Y101.099 E20.1115 F3600
G0 X137.571 Y101.480 F7200
G1 X140.549 Y98.502 E20.3216 F3600
G0 X140.597 Y99.020 F7200
G1 X137.693 Y101.924 E20.5265 F3600
G0 X137.815 Y102.367 F7200
G1 X140.632 Y99.550 E20.7252 F3600
G0 X140.655 Y100.093 F7200
G1 X137.883 Y102.866 E20.9208 F3600
G0 X137.928 Y103.386 F7200
G1 X140.616 Y100.698 E21.1104 F3600
G0 X140.576 Y101.304 F7200
G1 X137.915 Y103.964 E21.2981 F3600
G0 X137.861 Y104.584 F7200
G1 X140.450 Y101.995 E21.4808 F3600
G0 X140.310 Y102.701 F7200
G1 X137.679 Y105.332 E21.6665 F3600
G0 X137.296 Y106.280 F7200
G1 X140.031 Y103.545 E21.8594 F3600
G0 X139.643 Y104.499 F7200
G1 X134.499 Y109.643 E22.2224 F3600
G0 X135.765 Y108.943 F7200
G1 X138.943 Y105.765 E22.4466 F3600
G0 X135.577 Y108.000 F7200
G1 X133.545 Y110.031 E22.5900 F3600
G0 X132.701 Y110.310 F7200
G1 X134.856 Y108.155 E22.7420 F3600
G0 X134.286 Y108.159 F7200
G1 X131.995 Y110.450 E22.9036 F3600
G0 X131.304 Y110.576 F7200
G1 X133.814 Y108.066 E23.0808 F3600
G0 X133.403 Y107.911 F7200
G1 X130.698 Y110.616 E23.2716 F3600
G0 X130.093 Y110.655 F7200
G1 X133.054 Y107.694 E23.4805 F3600
G0 X132.709 Y107.474 F7200
G1 X129.551 Y110.632 E23.7033 F3600
G0 X129.020 Y110.597 F7200
G1 X132.446 Y107.171 E23.9451 F3600
G0 X132.183 Y106.868 F7200
G1 X128.502 Y110.549 E24.2048 F3600
G0 X128.030 Y110.455 F7200
G1 X131.954 Y106.531 E24.4816 F3600
G0 X131.763 Y106.157 F7200
G1 X127.558 Y110.361 E24.7783 F3600
G0 X127.103 Y110.251 F7200
G1 X131.571 Y105.783 E25.0936 F3600
G0 X131.446 Y105.342 F7200
G1 X126.680 Y110.108 E25.4298 F3600
G0 X126.258 Y109.965 F7200
G1 X131.324 Y104.899 E25.7873 F3600
G0 X131.246 Y104.411 F7200
G1 X125.844 Y109.812 E26.1684 F3600
G0 X125.466 Y109.626 F7200
G1 X131.201 Y103.891 E26.5730 F3600
G0 X131.199 Y103.326 F7200
G1 X128.099 Y106.426 E26.7918 F3600
G0 X128.529 Y105.431 F7200
G1 X131.254 Y102.706 E26.9840 F3600
G0 X131.413 Y101.981 F7200
G1 X128.732 Y104.662 E27.1732 F3600
G0 X128.786 Y104.042 F7200
G1 X131.743 Y101.085 E27.3818 F3600
G0 X127.884 Y101.147 F7200
G0 X127.652 Y100.694
G0 X127.043 Y99.994
G0 X126.289 Y99.525
G0 X125.439 Y99.357
G0 X124.588 Y99.525
G0 X123.834 Y99.994
G0 X123.225 Y100.694
G0 X122.954 Y101.225
G0 X122.954 Y101.225
G0 X122.533 Y101.232
G0 X122.546 Y101.231
G1 X120.035 Y103.742 E27.5590 F3600
G0 X120.188 Y104.156 F7200
G1 X122.264 Y102.079 E27.7055 F3600
G0 X122.125 Y102.784 F7200
G1 X120.374 Y104.534 E27.8290 F3600
G0 X120.561 Y104.913 F7200
G1 X122.070 Y103.404 E27.9355 F3600
G0 X122.084 Y103.956 F7200
G1 X120.748 Y105.292 E28.0297 F3600
G0 X120.971 Y105.635 F7200
G1 X122.130 Y104.476 E28.1115 F3600
G0 X122.217 Y104.955 F7200
G1 X121.197 Y105.974 E28.1835 F3600
G0 X121.424 Y106.314 F7200
G1 X122.339 Y105.398 E28.2481 F3600
G0 X122.473 Y105.830 F7200
G1 X121.668 Y106.635 E28.3049 F3600
G0 X121.933 Y106.936 F7200
G1 X122.665 Y106.204 E28.3565 F3600
G0 X122.856 Y106.578 F7200
G1 X122.197 Y107.237 E28.4031 F3600
G0 X122.461 Y107.539 F7200
G1 X123.094 Y106.906 E28.4477 F3600
G0 X123.357 Y107.209 F7200
G1 X122.763 Y107.803 E28.4896 F3600
G0 X123.064 Y108.067 F7200
G1 X123.627 Y107.505 E28.5293 F3600
G0 X123.976 Y107.722 F7200
G1 X123.365 Y108.332 E28.5724 F3600
G0 X123.686 Y108.576 F7200
G1 X124.324 Y107.938 E28.6174 F3600
G0 X124.751 Y108.077 F7200
G1 X124.026 Y108.803 E28.6686 F3600
G0 X124.365 Y109.029 F7200
G1 X125.224 Y108.171 E28.7292 F3600
G0 X125.822 Y108.137 F7200
G1 X124.708 Y109.252 E28.8078 F3600
G0 X125.087 Y109.439 F7200
G1 X126.643 Y107.883 E28.9176 F3600
G0 X126.891 Y107.305 F7200
G0 X127.043 Y107.210
G0 X127.652 Y106.509
G0 X128.099 Y105.637
G0 X128.371 Y104.649
G0 X128.459 Y103.646
G0 X128.459 Y103.646
G0 X128.771 Y102.919
G0 X128.766 Y102.931
G1 X135.306 Y96.391 E29.3790 F3600
G0 X135.029 Y96.103 F7200
G1 X128.709 Y102.423 E29.8249 F3600
G0 X128.586 Y101.979 F7200
G1 X134.735 Y95.831 E30.2587 F3600
G0 X134.406 Y95.594 F7200
G1 X128.464 Y101.536 E30.6780 F3600
G0 X128.288 Y101.146 F7200
G1 X134.078 Y95.357 E31.0865 F3600
G0 X133.745 Y95.123 F7200
G1 X128.097 Y100.772 E31.4850 F3600
G0 X127.887 Y100.416 F7200
G1 X133.363 Y94.940 E31.8713 F3600
G0 X132.980 Y94.757 F7200
G1 X127.624 Y100.113 E32.2493 F3600
G0 X127.361 Y99.810 F7200
G1 X132.598 Y94.573 E32.6188 F3600
G0 X132.157 Y94.449 F7200
G1 X127.039 Y99.567 E32.9798 F3600
G0 X126.690 Y99.350 F7200
G1 X131.713 Y94.327 E33.3342 F3600
G0 X131.262 Y94.213 F7200
G1 X126.312 Y99.163 E33.6834 F3600
G0 X125.840 Y99.069 F7200
G1 X130.742 Y94.166 E34.0293 F3600
G0 X130.223 Y94.120 F7200
G1 X125.332 Y99.011 E34.3745 F3600
G0 X123.090 Y97.942 F7200
G0 X123.029 Y98.033
G0 X122.481 Y98.145
G0 X121.990 Y98.020
G0 X121.609 Y97.660
G0 X121.452 Y97.162
G0 X121.452 Y97.162
G0 X119.957 Y96.449
G0 X119.969 Y96.455
G1 X126.455 Y89.969 E34.8321 F3600
G0 X127.299 Y89.690 F7200
G1 X119.690 Y97.299 E35.3689 F3600
G0 X119.550 Y98.005 F7200
G1 X121.644 Y95.911 E35.5167 F3600
G0 X121.116 Y97.005 F7200
G1 X119.424 Y98.696 E35.6360 F3600
G0 X119.384 Y99.302 F7200
G1 X121.182 Y97.504 E35.7629 F3600
G0 X121.345 Y97.906 F7200
G1 X119.345 Y99.907 E35.9040 F3600
G0 X119.368 Y100.449 F7200
G1 X121.636 Y98.181 E36.0640 F3600
G0 X121.991 Y98.392 F7200
G1 X119.403 Y100.980 E36.2467 F3600
G0 X119.451 Y101.498 F7200
G1 X122.442 Y98.507 E36.4577 F3600
G0 X123.136 Y98.378 F7200
G1 X119.545 Y101.970 E36.7111 F3600
G0 X119.749 Y102.897 F7200
G1 X128.331 Y94.315 E37.3166 F3600
G0 X128.306 Y93.949 F7200
G0 X127.289 Y94.228
G0 X126.042 Y94.826
G0 X124.922 Y95.635
G0 X123.963 Y96.632
G0 X123.029 Y98.033
G0 X122.481 Y98.145
G0 X121.990 Y98.020
G0 X121.609 Y97.660
G0 X121.452 Y97.159
G0 X121.557 Y96.645
G0 X121.766 Y96.404
G0 X122.602 Y95.029
G0 X123.749 Y93.755
G0 X125.112 Y92.714
G0 X126.644 Y91.944
G0 X128.139 Y91.515
G0 X128.139 Y91.515
G0 X128.004 Y89.537
