; GCode generated by CraftWare

G28 X0 Y0
G28 Z0


M104 S215 ;set head temp (no wait)
M190 S60 ;set bed temp (wait)
M109 S215 ;set head temp (wait)
; ------------------------------------
; Layer #0
; ------------------------------------
M106 S0 ;turn off fan
G21 ; mm
G90 ; abs
G92 E0 ;reset extr
G0 F1200 Z0.300
;segType:Skirt
G0 F3000 E-1.0000
G0 X113.112 Y115.388 F5400
G0 F3000 E0.0000
G1 X110.373 Y112.650 E0.1932 F2400
G1 X110.373 Y94.914 E1.0780
G1 X113.242 Y92.045 E1.2805
G1 X113.699 Y91.980 E1.3035
G1 X125.957 Y91.980 E1.9151
G1 X126.022 Y91.524 E1.9380
G1 X126.022 Y83.438 E2.3414
G1 X128.891 Y80.569 E2.5438
G1 X129.348 Y80.504 E2.5669
G1 X142.389 Y80.504 E3.2175
G1 X142.715 Y80.700 E3.2364
G1 X145.454 Y83.438 E3.4297
G1 X145.454 Y93.349 E3.9241
G1 X145.519 Y93.805 E3.9471
G1 X145.910 Y93.936 E3.9677
G1 X148.779 Y96.805 E4.1701
G1 X148.844 Y97.261 E4.1931
G1 X148.844 Y98.305 E4.2452
G1 X149.039 Y98.630 E4.2641
G1 X149.300 Y98.891 E4.2825
G1 X149.496 Y99.218 E4.3015
G1 X149.496 Y112.519 E4.9651
G1 X148.844 Y113.171 E5.0111
G1 X148.844 Y114.736 E5.0892
G1 X145.975 Y117.605 E5.2916
G1 X143.041 Y119.366 E5.4624
G1 X142.650 Y119.496 E5.4829
G1 X142.519 Y119.627 E5.4921
G1 X133.651 Y119.627 E5.9345
G1 X133.325 Y119.431 E5.9535
G1 X130.587 Y116.692 E6.1468
G1 X130.587 Y113.041 E6.3289
G1 X130.522 Y112.585 E6.3519
G1 X128.957 Y111.020 E6.4623
G1 X126.870 Y111.020 E6.5664
G1 X122.306 Y115.584 E6.8885
G1 X113.438 Y115.584 E7.3309
G1 X113.112 Y115.388 E7.3498
G0 X113.112 Y115.779 F5400
G1 X109.982 Y112.650 E7.5707 F2400
G1 X109.982 Y94.914 E8.4555
G1 X113.112 Y91.784 E8.6763
G1 X113.438 Y91.588 E8.6953
G1 X125.436 Y91.588 E9.2939
G1 X125.631 Y91.524 E9.3041
G1 X125.631 Y83.438 E9.7075
G1 X128.761 Y80.308 E9.9283
G1 X129.087 Y80.113 E9.9473
G1 X142.128 Y80.113 E10.5979
G1 X142.585 Y80.178 E10.6209
G1 X145.845 Y83.438 E10.8510
G1 X145.845 Y93.349 E11.3454
G1 X146.040 Y93.675 E11.3644
G1 X149.170 Y96.805 E11.5852
G1 X149.235 Y97.261 E11.6082
G1 X149.235 Y98.305 E11.6603
G1 X149.431 Y98.630 E11.6792
G1 X149.692 Y98.891 E11.6976
G1 X149.887 Y99.218 E11.7166
G1 X149.887 Y112.519 E12.3802
G1 X149.414 Y112.993 E12.4137
G0 F3000 E11.4137
G0 X146.337 Y106.038 F5400
G0 X145.311 Y103.719
G0 X144.286 Y101.401
G0 F3000 E12.4137
;segType:Perimeter
G0 X144.165 Y101.372 F5400
G0 X143.708 Y101.372
G1 X143.548 Y101.415 E12.4219 F1440
G0 X143.497 Y101.606 F5400
G0 X143.497 Y101.835
G0 X143.647 Y101.949
G0 X143.647 Y102.064
G0 X143.796 Y102.178
G0 X143.796 Y102.406
G0 X143.594 Y102.638
G0 X143.136 Y102.638
G0 X142.899 Y102.406
G0 X142.899 Y100.921
G0 X143.136 Y100.740
G0 X144.736 Y100.740
G0 X144.993 Y100.921
G0 X144.993 Y103.664
G0 X144.736 Y103.903
G0 X142.451 Y103.903
G1 X142.351 Y104.006 E12.4291 F1440
G0 X142.300 Y104.121 F5400
G0 X142.300 Y106.864
G1 X142.351 Y106.978 E12.4353 F1440
G0 X142.451 Y107.066 F5400
G0 X144.165 Y107.066
G1 X144.344 Y107.024 E12.4445 F1440
G0 X144.395 Y106.864 F5400
G0 X144.395 Y105.378
G1 X144.344 Y105.211 E12.4532 F1440
G0 X144.165 Y105.168 F5400
G0 X143.708 Y105.168
G1 X143.548 Y105.211 E12.4614 F1440
G0 X143.497 Y105.378 F5400
G0 X143.497 Y105.606
G0 X143.647 Y105.721
G0 X143.647 Y105.949
G0 X143.796 Y106.064
G0 X143.796 Y106.178
G0 X143.594 Y106.434
G0 X143.136 Y106.434
G0 X142.899 Y106.178
G0 X142.899 Y104.806
G0 X143.136 Y104.536
G0 X144.736 Y104.536
G0 X144.993 Y104.806
G0 X144.993 Y107.435
G0 X144.736 Y107.699
G0 X142.451 Y107.699
G1 X142.351 Y107.778 E12.4678 F1440
G0 X142.300 Y107.892 F5400
G0 X142.300 Y110.635
G1 X142.351 Y110.749 E12.4740 F1440
G0 X142.451 Y110.862 F5400
G0 X144.165 Y110.862
G1 X144.344 Y110.820 E12.4832 F1440
G0 X144.395 Y110.635 F5400
G0 X144.395 Y109.149
G1 X144.344 Y109.006 E12.4908 F1440
G0 X144.165 Y108.964 F5400
G0 X143.708 Y108.964
G1 X143.548 Y109.006 E12.4990 F1440
G0 X143.497 Y109.149 F5400
G0 X143.497 Y109.378
G0 X143.647 Y109.492
G0 X143.647 Y109.721
G0 X143.796 Y109.835
G0 X143.796 Y110.064
G0 X143.594 Y110.230
G0 X143.136 Y110.230
G0 X142.899 Y110.064
G0 X142.899 Y108.578
G0 X143.136 Y108.332
G0 X144.736 Y108.332
G0 X144.993 Y108.578
G0 X144.993 Y111.321
G0 X144.736 Y111.446
G0 X141.879 Y111.446
G0 X141.742 Y111.321
G0 X141.742 Y100.349
G0 X141.879 Y100.156
G0 X142.108 Y100.156
G0 X142.300 Y100.349
G0 X142.300 Y103.092
G1 X142.351 Y103.206 E12.5053 F1440
G0 X142.451 Y103.270 F5400
G0 X144.165 Y103.270
G1 X144.344 Y103.228 E12.5144 F1440
G0 X144.395 Y103.092 F5400
G0 X144.395 Y101.606
G1 X144.359 Y101.473 E12.5193 F1440
G0 X144.359 Y101.473 F5400
G0 X144.344 Y101.415
G0 X144.165 Y101.372
G0 X144.380 Y101.591
G0 X144.380 Y101.591
G0 X144.165 Y101.372
G0 X143.708 Y101.372
G0 X143.497 Y101.606
G0 X143.497 Y101.835
G0 X143.647 Y101.949
G0 X143.647 Y102.064
G0 X143.796 Y102.178
G0 X143.796 Y102.406
G0 X143.746 Y102.595
G0 X143.594 Y102.638
G0 X143.136 Y102.638
G0 X142.950 Y102.595
G0 X142.899 Y102.406
G0 X142.899 Y100.921
G0 X142.950 Y100.782
G0 X143.136 Y100.740
G0 X144.736 Y100.740
G0 X144.943 Y100.782
G0 X144.993 Y100.921
G0 X144.993 Y103.664
G0 X144.943 Y103.861
G0 X144.736 Y103.903
G0 X142.451 Y103.903
G0 X142.300 Y104.121
G0 X142.300 Y106.864
G0 X142.451 Y107.066
G0 X144.165 Y107.066
G0 X144.395 Y106.864
G0 X144.395 Y105.378
G0 X144.165 Y105.168
G0 X143.708 Y105.168
G0 X143.497 Y105.378
G0 X143.497 Y105.606
G0 X143.647 Y105.721
G0 X143.647 Y105.949
G0 X143.796 Y106.064
G0 X143.796 Y106.178
G0 X143.746 Y106.391
G0 X143.594 Y106.434
G0 X143.136 Y106.434
G0 X142.950 Y106.391
G0 X142.899 Y106.178
G0 X142.899 Y104.806
G0 X142.950 Y104.578
G0 X143.136 Y104.536
G0 X144.736 Y104.536
G0 X143.136 Y104.536
G0 X142.899 Y104.806
G0 X142.899 Y106.178
G0 X143.136 Y106.434
G0 X143.594 Y106.434
G0 X143.796 Y106.178
G0 X143.796 Y106.064
G0 X143.647 Y105.949
G0 X143.647 Y105.721
G0 X143.497 Y105.606
G0 X143.497 Y105.378
G0 X143.548 Y105.211
G0 X143.708 Y105.168
G0 X144.165 Y105.168
G0 X144.344 Y105.211
G0 X144.395 Y105.378
G0 X144.395 Y106.864
G0 X144.344 Y107.024
G0 X144.165 Y107.066
G0 X142.451 Y107.066
G0 X142.351 Y106.978
G0 X142.300 Y106.864
G0 X142.300 Y104.121
G0 X142.351 Y104.006
G0 X142.451 Y103.903
G0 X144.736 Y103.903
G0 X144.993 Y103.664
G0 X144.993 Y100.921
G0 X144.736 Y100.740
G0 X143.136 Y100.740
G0 X142.899 Y100.921
G0 X142.899 Y102.406
G0 X143.136 Y102.638
G0 X143.594 Y102.638
G0 X143.796 Y102.406
G0 X143.796 Y102.178
G0 X143.647 Y102.064
G0 X143.647 Y101.949
G0 X143.497 Y101.835
G0 X143.497 Y101.606
G0 X143.548 Y101.415
G0 X143.708 Y101.372
G0 X144.165 Y101.372
G0 X144.344 Y101.415
G0 X144.395 Y101.606
G0 X144.395 Y101.681
G0 X144.395 Y101.681
G0 X144.395 Y101.681
G0 X144.395 Y101.681
G0 X144.395 Y101.606
G0 X144.165 Y101.372
G0 X143.708 Y101.372
G0 X143.497 Y101.606
G0 X143.497 Y101.835
G0 X143.647 Y101.949
G0 X143.647 Y102.064
G0 X143.796 Y102.178
G0 X143.796 Y102.406
G0 X143.746 Y102.595
G0 X143.594 Y102.638
G0 X143.136 Y102.638
G0 X142.950 Y102.595
G0 X142.899 Y102.406
G0 X142.899 Y100.921
G0 X142.950 Y100.782
G0 X143.136 Y100.740
G0 X144.736 Y100.740
G0 X144.943 Y100.782
G0 X144.993 Y100.921
G0 X144.993 Y103.664
G0 X144.943 Y103.861
G0 X144.736 Y103.903
G0 X142.451 Y103.903
G0 X142.300 Y104.121
G0 X142.300 Y106.864
G0 X142.451 Y107.066
G0 X144.165 Y107.066
G0 X144.395 Y106.864
G0 X144.395 Y105.378
G0 X144.165 Y105.168
G0 X143.708 Y105.168
G0 X143.497 Y105.378
G0 X143.497 Y105.606
G0 X143.647 Y105.721
G0 X143.647 Y105.949
G0 X143.796 Y106.064
G0 X143.796 Y106.178
G0 X143.746 Y106.391
G0 X143.594 Y106.434
G0 X143.136 Y106.434
G0 X142.950 Y106.391
G0 X142.899 Y106.178
G0 X142.899 Y104.806
G0 X142.950 Y104.578
G0 X143.136 Y104.536
G0 X144.736 Y104.536
G0 X143.136 Y104.536
G0 X142.899 Y104.806
G0 X142.899 Y106.178
G0 X143.136 Y106.434
G0 X143.594 Y106.434
G0 X143.796 Y106.178
G0 X143.796 Y106.064
G0 X143.647 Y105.949
G0 X143.647 Y105.721
G0 X143.497 Y105.606
G0 X143.497 Y105.378
G0 X143.548 Y105.211
G0 X143.708 Y105.168
G0 X144.165 Y105.168
G0 X144.344 Y105.211
G0 X144.395 Y105.378
G0 X144.395 Y106.864
G0 X144.344 Y107.024
G0 X144.165 Y107.066
G0 X142.451 Y107.066
G0 X142.351 Y106.978
G0 X142.300 Y106.864
G0 X142.300 Y104.121
G0 X142.351 Y104.006
G0 X142.451 Y103.903
G0 X144.736 Y103.903
G0 X144.767 Y103.875
G0 X144.767 Y103.875
G0 X144.993 Y103.664
G0 X144.993 Y100.921
G0 X144.736 Y100.740
G0 X143.136 Y100.740
G0 X142.899 Y100.921
G0 X142.899 Y102.406
G0 X143.136 Y102.638
G0 X143.594 Y102.638
G0 X143.796 Y102.406
G0 X143.796 Y102.178
G0 X143.647 Y102.064
G0 X143.647 Y101.949
G0 X143.497 Y101.835
G0 X143.497 Y101.606
G0 X143.548 Y101.415
G0 X143.708 Y101.372
G0 X144.165 Y101.372
G0 X143.708 Y101.372
G0 X143.497 Y101.606
G0 X143.497 Y101.835
G0 X143.647 Y101.949
G0 X143.647 Y102.064
G0 X143.796 Y102.178
G0 X143.796 Y102.406
G0 X143.746 Y102.595
G0 X143.594 Y102.638
G0 X143.136 Y102.638
G0 X142.950 Y102.595
G0 X142.899 Y102.406
G0 X142.899 Y100.921
G0 X142.950 Y100.782
G0 X143.136 Y100.740
G0 X144.736 Y100.740
G0 X144.943 Y100.782
G0 X144.993 Y100.921
G0 X144.993 Y103.664
G0 X144.943 Y103.861
G0 X144.770 Y103.896
G0 X144.770 Y103.896
G0 X144.884 Y104.566
G0 X144.884 Y104.566
G0 X144.886 Y104.579
G0 X144.884 Y104.566
G1 X144.736 Y104.536 E12.5252 F1440
G1 X143.136 Y104.536 E12.5882
G1 X142.950 Y104.578 E12.5977
G1 X142.899 Y104.806 E12.6064
G1 X142.899 Y106.178 E12.6575
G1 X142.950 Y106.391 E12.6684
G1 X143.136 Y106.434 E12.6760
G1 X143.594 Y106.434 E12.6939
G1 X143.746 Y106.391 E12.7018
G1 X143.796 Y106.178 E12.7100
G1 X143.796 Y106.064 E12.7142
G1 X143.647 Y105.949 E12.7283
G1 X143.647 Y105.721 E12.7453
G1 X143.497 Y105.606 E12.7523
G1 X143.497 Y105.378 E12.7608
G1 X143.708 Y105.168 E12.7725
G1 X144.165 Y105.168 E12.7905
G1 X144.395 Y105.378 E12.8021
G1 X144.395 Y106.864 E12.8574
G1 X144.165 Y107.066 E12.8694
G1 X142.451 Y107.066 E12.9369
G1 X142.300 Y106.864 E12.9463
G1 X142.300 Y104.121 E13.0484
G1 X142.451 Y103.903 E13.0588
G1 X144.736 Y103.903 E13.1488
G1 X144.943 Y103.861 E13.1593
G1 X144.993 Y103.664 E13.1669
G1 X144.993 Y100.921 E13.2690
G1 X144.943 Y100.782 E13.2763
G1 X144.736 Y100.740 E13.2846
G1 X143.136 Y100.740 E13.3476
G1 X142.950 Y100.782 E13.3572
G1 X142.899 Y100.921 E13.3627
G1 X142.899 Y102.406 E13.4180
G1 X142.950 Y102.595 E13.4277
G1 X143.136 Y102.638 E13.4353
G1 X143.594 Y102.638 E13.4533
G1 X143.746 Y102.595 E13.4611
G1 X143.796 Y102.406 E13.4684
G1 X143.796 Y102.178 E13.4769
G1 X143.647 Y102.064 E13.4910
G1 X143.647 Y101.949 E13.4995
G1 X143.497 Y101.835 E13.5065
G1 X143.497 Y101.606 E13.5150
G1 X143.708 Y101.372 E13.5274
G1 X144.165 Y101.372 E13.5454
G1 X144.395 Y101.606 E13.5576
G1 X144.395 Y103.092 E13.6129
G1 X144.165 Y103.270 E13.6243
G1 X142.451 Y103.270 E13.6918
G1 X142.300 Y103.092 E13.7005
G1 X142.300 Y100.349 E13.8026
G0 X142.451 Y100.156 F5400
G0 X145.422 Y100.156
G0 X145.552 Y100.349
G0 X145.552 Y111.321
G0 X145.422 Y111.446
G0 X145.194 Y111.446
G1 X144.993 Y111.321 E13.8114 F1440
G1 X144.993 Y108.578 E13.9135
G1 X144.943 Y108.374 E13.9240
G1 X144.736 Y108.332 E13.9323
G1 X143.136 Y108.332 E13.9952
G1 X142.950 Y108.374 E14.0048
G1 X142.899 Y108.578 E14.0126
G1 X142.899 Y110.064 E14.0679
G1 X142.950 Y110.187 E14.0746
G1 X143.136 Y110.230 E14.0822
G1 X143.594 Y110.230 E14.1002
G1 X143.746 Y110.187 E14.1080
G1 X143.796 Y110.064 E14.1130
G1 X143.796 Y109.835 E14.1215
G1 X143.647 Y109.721 E14.1355
G1 X143.647 Y109.492 E14.1526
G1 X143.497 Y109.378 E14.1596
G1 X143.497 Y109.149 E14.1681
G1 X143.708 Y108.964 E14.1791
G1 X144.165 Y108.964 E14.1971
G1 X144.395 Y109.149 E14.2081
G1 X144.395 Y110.635 E14.2634
G1 X144.165 Y110.862 E14.2761
G1 X142.451 Y110.862 E14.3436
G1 X142.300 Y110.635 E14.3537
G1 X142.300 Y107.892 E14.4558
G1 X142.451 Y107.699 E14.4655
G1 X144.736 Y107.699 E14.5554
G1 X144.943 Y107.657 E14.5659
G1 X144.993 Y107.435 E14.5744
G1 X144.993 Y104.806 E14.6723
G1 X144.956 Y104.637 E14.6804
G0 X144.956 Y104.637 F5400
G0 X144.953 Y104.764
G0 X144.953 Y104.764
G0 X144.993 Y104.806
G0 X144.993 Y107.435
G0 X144.905 Y107.526
G0 X144.905 Y107.526
G0 X144.902 Y107.665
G0 X144.902 Y107.665
G0 X144.736 Y107.699
G0 X142.451 Y107.699
G0 X142.300 Y107.892
G0 X142.300 Y110.635
G0 X142.451 Y110.862
G0 X144.165 Y110.862
G0 X144.395 Y110.635
G0 X144.395 Y109.149
G0 X144.165 Y108.964
G0 X143.708 Y108.964
G0 X143.497 Y109.149
G0 X143.497 Y109.378
G0 X143.647 Y109.492
G0 X143.647 Y109.721
G0 X143.796 Y109.835
G0 X143.796 Y110.064
G0 X143.746 Y110.187
G0 X143.594 Y110.230
G0 X143.136 Y110.230
G0 X142.950 Y110.187
G0 X142.899 Y110.064
G0 X142.899 Y108.578
G0 X142.950 Y108.374
G0 X143.136 Y108.332
G0 X144.736 Y108.332
G0 X144.890 Y108.363
G0 X144.890 Y108.363
G0 X144.736 Y108.332
G0 X143.136 Y108.332
G0 X142.950 Y108.374
G0 X142.899 Y108.578
G0 X142.899 Y110.064
G0 X142.950 Y110.187
G0 X143.136 Y110.230
G0 X143.594 Y110.230
G0 X143.746 Y110.187
G0 X143.796 Y110.064
G0 X143.796 Y109.835
G0 X143.647 Y109.721
G0 X143.647 Y109.492
G0 X143.497 Y109.378
G0 X143.497 Y109.149
G0 X143.708 Y108.964
G0 X144.165 Y108.964
G0 X144.395 Y109.149
G0 X144.395 Y110.635
G0 X144.165 Y110.862
G0 X142.451 Y110.862
G0 X142.300 Y110.635
G0 X142.300 Y107.892
G0 X142.451 Y107.699
G0 X144.736 Y107.699
G0 X144.943 Y107.657
G0 X144.993 Y107.435
G0 X144.993 Y104.806
G0 X144.943 Y104.578
G0 X144.736 Y104.536
G0 X144.993 Y104.806
G0 X144.993 Y107.435
G0 X144.736 Y107.699
G0 X142.451 Y107.699
G0 X142.351 Y107.778
G0 X142.300 Y107.892
G0 X142.300 Y110.635
G0 X142.351 Y110.749
G0 X142.451 Y110.862
G0 X144.165 Y110.862
G0 X144.344 Y110.820
G0 X144.395 Y110.635
G0 X144.395 Y109.149
G0 X144.344 Y109.006
G0 X144.165 Y108.964
G0 X143.708 Y108.964
G0 X143.548 Y109.006
G0 X143.497 Y109.149
G0 X143.497 Y109.378
G0 X143.647 Y109.492
G0 X143.647 Y109.721
G0 X143.796 Y109.835
G0 X143.796 Y110.064
G0 X143.594 Y110.230
G0 X143.136 Y110.230
G0 X142.899 Y110.064
G0 X142.899 Y108.578
G0 X143.136 Y108.332
G0 X144.736 Y108.332
G0 X144.888 Y108.477
G0 X144.888 Y108.477
G0 X144.993 Y108.578
G0 X144.993 Y111.321
G0 X144.736 Y111.446
G0 X144.736 Y111.446
G0 X144.837 Y111.366
G0 X144.837 Y111.366
G0 X144.837 Y111.379
G0 X144.837 Y111.366
G1 X144.804 Y111.393 E14.6821 F1440
G1 X144.736 Y111.446 E14.6844
G1 X141.879 Y111.446 E14.7621
G1 X141.742 Y111.321 E14.7672
G1 X141.742 Y100.349 E15.0658
G1 X141.879 Y100.156 E15.0723
G1 X142.108 Y100.156 E15.0785
G1 X142.222 Y100.247 E15.0858
G1 X142.336 Y100.247 E15.0915
G1 X142.451 Y100.156 E15.0955
G1 X145.422 Y100.156 E15.1764
G1 X145.552 Y100.349 E15.1827
G1 X145.552 Y111.321 E15.4813
G1 X145.422 Y111.446 E15.4862
G1 X145.194 Y111.446 E15.4925
G1 X145.079 Y111.355 E15.4998
G1 X144.911 Y111.355 E15.5082
G0 X144.111 Y111.355 F5400
G0 X142.307 Y112.823
G1 X142.351 Y113.035 E15.5189 F1440
G0 X142.300 Y113.149 F5400
G0 X142.300 Y114.178
G1 X142.337 Y114.406 E15.5297 F1440
G1 X142.271 Y114.521 E15.5337
G1 X142.293 Y114.484 E15.5352
G1 X142.352 Y114.381 E15.5411
G0 X142.595 Y114.301 F5400
G0 X143.209 Y113.946
G1 X143.172 Y113.981 E15.5429 F1440
G1 X143.209 Y113.946 E15.5448
G1 X143.107 Y114.005 E15.5492
G1 X143.004 Y114.064 E15.5536
G1 X142.902 Y114.123 E15.5580
G1 X142.800 Y114.182 E15.5624
G1 X142.697 Y114.241 E15.5668
G1 X142.595 Y114.301 E15.5712
G1 X142.300 Y114.178 E15.5831
G1 X142.300 Y113.149 E15.6214
G1 X142.577 Y112.960 E15.6339
G1 X142.679 Y113.019 E15.6383
G1 X142.782 Y113.078 E15.6427
G1 X142.884 Y113.138 E15.6471
G1 X142.986 Y113.197 E15.6515
G1 X143.089 Y113.256 E15.6559
G1 X143.191 Y113.315 E15.6603
G1 X143.294 Y113.374 E15.6647
G1 X143.396 Y113.433 E15.6691
G1 X143.499 Y113.493 E15.6735
G1 X143.601 Y113.552 E15.6779
G1 X143.704 Y113.611 E15.6823
G1 X143.806 Y113.670 E15.6867
G1 X143.909 Y113.729 E15.6911
G1 X144.011 Y113.788 E15.6955
G1 X144.114 Y113.847 E15.6999
G1 X144.028 Y114.118 E15.7076
G1 X143.925 Y114.177 E15.7108
G1 X143.823 Y114.236 E15.7141
G1 X143.721 Y114.295 E15.7173
G1 X143.618 Y114.354 E15.7205
G1 X143.516 Y114.413 E15.7237
G1 X143.413 Y114.473 E15.7269
G1 X143.311 Y114.532 E15.7302
G1 X143.208 Y114.591 E15.7334
G1 X143.106 Y114.650 E15.7366
G1 X143.003 Y114.709 E15.7398
G1 X142.901 Y114.768 E15.7430
G1 X142.798 Y114.828 E15.7462
G1 X142.696 Y114.887 E15.7495
G1 X142.593 Y114.946 E15.7527
G1 X142.491 Y115.005 E15.7559
G1 X142.388 Y115.064 E15.7591
G1 X142.286 Y115.123 E15.7623
G1 X142.184 Y115.182 E15.7656
G1 X142.081 Y115.242 E15.7688
G1 X141.979 Y115.301 E15.7720
G1 X141.742 Y115.206 E15.7789
G1 X141.742 Y112.121 E15.8629
G1 X141.961 Y111.960 E15.8703
G1 X144.625 Y113.498 E15.9540
G1 X144.643 Y113.763 E15.9612
G1 X144.540 Y113.822 E15.9644
G1 X144.438 Y113.881 E15.9677
G1 X144.179 Y113.944 E15.9810
G0 X144.114 Y113.847 F5400
G0 X142.577 Y112.960
G1 X142.401 Y112.974 E15.9919 F1440
G1 X142.341 Y112.872 E15.9976
G1 X142.312 Y112.822 E15.9999
G0 X142.306 Y112.817 F5400
G0 X142.312 Y112.822
G0 X142.312 Y112.822
G0 X142.341 Y112.872
G0 X142.401 Y112.974
G0 X142.518 Y112.965
G0 X142.518 Y112.965
G0 X142.401 Y112.974
G0 X142.341 Y112.872
G0 X142.282 Y112.770
G0 X142.304 Y112.806
G0 X142.351 Y113.035
G0 X142.300 Y113.149
G0 X142.300 Y114.178
G0 X142.337 Y114.406
G0 X142.271 Y114.521
G0 X142.293 Y114.484
G0 X142.352 Y114.381
G0 X142.595 Y114.301
G0 X143.209 Y113.946
G0 X143.172 Y113.981
G0 X143.209 Y113.946
G0 X143.107 Y114.005
G0 X143.004 Y114.064
G0 X142.902 Y114.123
G0 X142.800 Y114.182
G0 X142.697 Y114.241
G0 X142.595 Y114.301
G0 X142.300 Y114.178
G0 X142.300 Y113.149
G0 X142.543 Y112.983
G0 X142.543 Y112.983
G0 X142.577 Y112.960
G0 X142.679 Y113.019
G0 X142.782 Y113.078
G0 X142.884 Y113.138
G0 X142.986 Y113.197
G0 X143.089 Y113.256
G0 X143.191 Y113.315
G0 X143.294 Y113.374
G0 X143.396 Y113.433
G0 X143.499 Y113.493
G0 X143.601 Y113.552
G0 X143.704 Y113.611
G0 X143.806 Y113.670
G0 X143.909 Y113.729
G0 X144.011 Y113.788
G0 X144.114 Y113.847
G0 X144.028 Y114.118
G0 X144.028 Y114.118
G0 X144.051 Y114.036
G0 X144.051 Y114.036
G0 X144.053 Y114.037
G0 X144.053 Y114.037
G0 X144.062 Y114.043
G0 X144.051 Y114.036
G1 X144.047 Y114.050 E16.0003 F1440
G0 X144.028 Y114.118 F5400
G0 X141.979 Y115.301
G1 X141.819 Y115.303 E16.0077 F1440
G1 X141.760 Y115.406 E16.0115
G1 X141.743 Y115.435 E16.0124
G1 X141.809 Y115.321 E16.0182
G0 X141.742 Y115.206 F5400
G0 X141.742 Y112.121
G1 X141.842 Y112.006 E16.0261 F1440
G1 X141.776 Y111.892 E16.0308
G0 X141.750 Y111.847 F5400
G0 X141.809 Y111.950
G0 X141.961 Y111.960
G0 X144.625 Y113.498
G1 X144.661 Y113.624 E16.0373 F1440
G1 X144.810 Y113.635 E16.0424
G1 X144.839 Y113.635 E16.0433
G1 X144.679 Y113.637 E16.0513
G0 X144.643 Y113.763 F5400
G0 X144.438 Y113.881
G1 X144.330 Y113.935 E16.0548 F1440
G1 X144.166 Y113.933 E16.0629
G0 X144.116 Y113.962 F5400
G0 F3000 E15.0629
G0 X141.524 Y113.814 F5400
G0 X138.933 Y113.667
G0 X136.341 Y113.519
G0 F3000 E16.0629
G0 X136.279 Y113.492 F5400
G0 X136.051 Y113.492
G0 X135.936 Y113.642
G0 X135.708 Y113.642
G0 X135.594 Y113.792
G0 X135.365 Y113.792
G0 X135.173 Y113.606
G0 X135.173 Y113.149
G0 X135.365 Y112.894
G0 X136.851 Y112.894
G0 X137.071 Y113.149
G0 X137.071 Y114.749
G0 X136.851 Y114.989
G0 X134.679 Y114.989
G0 X134.794 Y114.390
G0 X136.279 Y114.390
G1 X136.396 Y114.339 E16.0693 F1440
G0 X136.438 Y114.178 F5400
G0 X136.438 Y113.721
G1 X136.410 Y113.602 E16.0734 F1440
G0 X136.410 Y113.602 F5400
G0 X136.396 Y113.543
G0 X136.279 Y113.492
G0 X136.051 Y113.492
G0 X135.936 Y113.642
G0 X135.708 Y113.642
G0 X135.594 Y113.792
G0 X135.365 Y113.792
G0 X135.215 Y113.741
G0 X135.173 Y113.606
G0 X135.173 Y113.149
G0 X135.215 Y112.945
G0 X135.365 Y112.894
G0 X136.851 Y112.894
G0 X137.029 Y112.945
G0 X137.071 Y113.149
G0 X137.071 Y113.847
G0 X137.071 Y113.847
G0 X137.071 Y113.847
G0 X137.071 Y113.847
G0 X137.071 Y113.149
G0 X136.851 Y112.894
G0 X135.365 Y112.894
G0 X135.173 Y113.149
G0 X135.173 Y113.606
G0 X135.365 Y113.792
G0 X135.594 Y113.792
G0 X135.708 Y113.642
G0 X135.936 Y113.642
G0 X136.051 Y113.492
G0 X136.279 Y113.492
G0 X136.438 Y113.721
G0 X136.438 Y114.178
G0 X136.279 Y114.390
G0 X134.794 Y114.390
G0 X134.679 Y115.547
G0 X141.308 Y115.547
G0 X141.451 Y115.435
G0 X141.451 Y112.464
G0 X141.360 Y112.349
G0 X141.360 Y112.235
G0 X141.451 Y112.121
G0 X141.451 Y111.892
G0 X141.308 Y111.737
G0 X134.679 Y111.737
G0 X134.794 Y112.296
G0 X137.536 Y112.296
G0 X137.704 Y112.464
G0 X137.704 Y114.083
G0 X137.704 Y114.083
G0 X137.704 Y114.083
G0 X137.704 Y114.083
G0 X137.704 Y114.749
G0 X137.879 Y114.989
G0 X140.622 Y114.989
G0 X140.867 Y114.749
G0 X140.867 Y113.149
G0 X140.622 Y112.894
G0 X139.136 Y112.894
G0 X138.969 Y113.149
G0 X138.969 Y113.606
G0 X139.136 Y113.792
G0 X139.365 Y113.792
G0 X139.479 Y113.642
G0 X139.708 Y113.642
G0 X139.822 Y113.492
G0 X140.051 Y113.492
G0 X140.192 Y113.543
G0 X140.234 Y113.721
G0 X140.234 Y114.178
G0 X140.192 Y114.339
G0 X140.051 Y114.390
G0 X138.565 Y114.390
G0 X138.379 Y114.339
G0 X138.377 Y114.333
G0 X138.377 Y114.333
G0 X138.437 Y114.355
G0 X138.437 Y114.355
G0 X138.449 Y114.360
G0 X138.437 Y114.355
G1 X138.565 Y114.390 E16.0783 F1440
G1 X140.051 Y114.390 E16.1336
G1 X140.192 Y114.339 E16.1411
G1 X140.234 Y114.178 E16.1477
G1 X140.234 Y113.721 E16.1657
G1 X140.192 Y113.543 E16.1748
G1 X140.051 Y113.492 E16.1803
G1 X139.822 Y113.492 E16.1889
G1 X139.708 Y113.642 E16.2029
G1 X139.479 Y113.642 E16.2199
G1 X139.365 Y113.792 E16.2269
G1 X139.136 Y113.792 E16.2355
G1 X138.969 Y113.606 E16.2453
G1 X138.969 Y113.149 E16.2633
G1 X139.136 Y112.894 E16.2746
G1 X140.622 Y112.894 E16.3299
G1 X140.867 Y113.149 E16.3439
G1 X140.867 Y114.749 E16.4068
G1 X140.622 Y114.989 E16.4196
G1 X137.879 Y114.989 E16.5217
G1 X137.704 Y114.749 E16.5334
G1 X137.704 Y112.464 E16.6233
G1 X137.662 Y112.346 E16.6295
G1 X137.536 Y112.296 E16.6346
G1 X134.794 Y112.296 E16.7367
G0 X134.679 Y111.737 F5400
G0 X141.308 Y111.737
G0 X141.451 Y111.892
G0 X141.451 Y112.121
G1 X141.308 Y112.296 E16.7451 F1440
G1 X138.565 Y112.296 E16.8472
G1 X138.379 Y112.346 E16.8568
G1 X138.336 Y112.464 E16.8617
G1 X138.336 Y114.178 E16.9292
G1 X138.363 Y114.281 E16.9341
G0 X138.363 Y114.281 F5400
G0 X138.379 Y114.339
G0 X138.565 Y114.390
G0 X138.565 Y114.390
G0 X138.414 Y114.250
G0 X138.414 Y114.250
G0 X138.565 Y114.390
G0 X140.051 Y114.390
G0 X140.234 Y114.178
G0 X140.234 Y113.721
G0 X140.051 Y113.492
G0 X139.822 Y113.492
G0 X139.708 Y113.642
G0 X139.479 Y113.642
G0 X139.365 Y113.792
G0 X139.151 Y113.792
G0 X139.151 Y113.792
G0 X139.151 Y113.792
G0 X139.151 Y113.792
G0 X139.136 Y113.792
G0 X138.969 Y113.606
G0 X138.969 Y113.149
G0 X139.136 Y112.894
G0 X140.596 Y112.894
G0 X140.596 Y112.894
G0 X140.596 Y112.894
G0 X140.596 Y112.894
G0 X139.136 Y112.894
G0 X139.011 Y112.945
G0 X138.969 Y113.149
G0 X138.969 Y113.606
G0 X139.011 Y113.741
G0 X139.136 Y113.792
G0 X139.365 Y113.792
G0 X139.479 Y113.642
G0 X139.708 Y113.642
G0 X139.822 Y113.492
G0 X140.051 Y113.492
G0 X140.234 Y113.721
G0 X140.234 Y114.178
G0 X140.051 Y114.390
G0 X138.565 Y114.390
G0 X138.336 Y114.178
G0 X138.336 Y112.464
G0 X138.565 Y112.296
G0 X141.308 Y112.296
G0 X141.395 Y112.398
G0 X141.395 Y112.398
G0 X141.397 Y112.396
G0 X141.397 Y112.396
G0 X141.408 Y112.389
G0 X141.397 Y112.396
G1 X141.451 Y112.464 E16.9365 F1440
G1 X141.451 Y115.435 E17.0174
G1 X141.308 Y115.547 E17.0223
G1 X134.679 Y115.547 E17.2025
G1 X134.794 Y114.390 E17.2458
G1 X136.279 Y114.390 E17.3010
G1 X136.438 Y114.178 E17.3115
G1 X136.438 Y113.721 E17.3294
G1 X136.279 Y113.492 E17.3398
G1 X136.051 Y113.492 E17.3483
G1 X135.936 Y113.642 E17.3624
G1 X135.708 Y113.642 E17.3794
G1 X135.594 Y113.792 E17.3864
G1 X135.365 Y113.792 E17.3949
G1 X135.215 Y113.741 E17.4028
G1 X135.173 Y113.606 E17.4084
G1 X135.173 Y113.149 E17.4263
G1 X135.215 Y112.945 E17.4368
G1 X135.365 Y112.894 E17.4427
G1 X136.851 Y112.894 E17.4980
G1 X137.029 Y112.945 E17.5072
G1 X137.071 Y113.149 E17.5154
G1 X137.071 Y114.749 E17.5784
G1 X137.029 Y114.938 E17.5880
G1 X136.851 Y114.989 E17.5949
G1 X134.679 Y114.989 E17.6758
G0 X134.679 Y115.547 F5400
G0 X141.308 Y115.547
G0 X141.451 Y115.435
G0 X141.451 Y112.464
G0 X141.308 Y112.296
G0 X138.565 Y112.296
G0 X138.336 Y112.464
G0 X138.336 Y114.178
G0 X138.565 Y114.390
G0 X140.051 Y114.390
G0 X140.234 Y114.178
G0 X140.234 Y113.721
G0 X140.051 Y113.492
G0 X139.822 Y113.492
G0 X139.708 Y113.642
G0 X139.479 Y113.642
G0 X139.365 Y113.792
G0 X139.136 Y113.792
G1 X139.011 Y113.741 E17.6825 F1440
G0 X138.969 Y113.606 F5400
G0 X138.969 Y113.149
G1 X139.011 Y112.945 E17.6929 F1440
G0 X139.136 Y112.894 F5400
G0 X140.622 Y112.894
G1 X140.825 Y112.945 E17.7033 F1440
G0 X140.867 Y113.149 F5400
G0 X140.867 Y114.749
G1 X140.825 Y114.938 E17.7130 F1440
G0 X140.622 Y114.989 F5400
G0 X137.879 Y114.989
G1 X137.746 Y114.938 E17.7201 F1440
G0 X137.704 Y114.749 F5400
G0 X137.704 Y112.464
G0 X137.536 Y112.296
G0 X134.794 Y112.296
G1 X134.679 Y111.737 E17.7356 F1440
G1 X141.308 Y111.737 E17.9160
G1 X141.451 Y111.892 E17.9218
G1 X141.451 Y112.121 E17.9280
G1 X141.360 Y112.235 E17.9353
G1 X141.360 Y112.289 E17.9380
G0 F3000 E16.9380
G0 X138.876 Y111.457 F5400
G0 X136.392 Y110.625
G0 X133.908 Y109.793
G0 F3000 E17.9380
G0 X134.108 Y109.597 F5400
G0 X135.251 Y109.597
G0 X135.489 Y109.835
G0 X135.489 Y110.635
G0 X135.251 Y110.862
G0 X134.794 Y110.862
G0 X134.540 Y110.635
G0 X134.540 Y110.406
G0 X134.794 Y110.230
G0 X134.908 Y110.230
G1 X134.794 Y110.230 E17.9425 F1440
G1 X134.583 Y110.272 E17.9532
G1 X134.540 Y110.406 E17.9588
G1 X134.540 Y110.635 E17.9678
G1 X134.583 Y110.749 E17.9739
G0 X134.266 Y111.088 F5400
G0 X134.024 Y110.846
G1 X133.882 Y110.635 E17.9855 F1440
G1 X133.835 Y110.521 E17.9926
G1 X133.787 Y110.406 E18.0012
G1 X133.865 Y110.292 E18.0081
G1 X133.865 Y109.895 E18.0279
G0 X133.865 Y109.639 F5400
G1 X133.591 Y109.639 E18.0415 F1440
G1 X133.194 Y109.639 E18.0614
G1 X133.079 Y109.709 E18.0704
G1 X132.965 Y109.662 E18.0773
G1 X132.851 Y109.615 E18.0827
G0 X132.650 Y109.472 F5400
G0 X132.407 Y109.230
G1 X132.293 Y109.035 E18.0935 F1440
G1 X132.245 Y108.921 E18.1008
G1 X132.198 Y108.806 E18.1097
G0 X132.326 Y108.692 F5400
G0 X132.326 Y108.578
G0 X132.508 Y108.332
G0 X133.079 Y108.332
G0 X133.275 Y108.578
G0 X133.275 Y108.806
G0 X133.079 Y108.964
G0 X132.851 Y108.964
G1 X133.079 Y108.964 E18.1187 F1440
G1 X133.233 Y108.922 E18.1266
G1 X133.275 Y108.806 E18.1315
G1 X133.275 Y108.578 E18.1404
G1 X133.233 Y108.374 E18.1508
G1 X133.079 Y108.332 E18.1571
G1 X132.508 Y108.332 E18.1796
G1 X132.368 Y108.374 E18.1869
G1 X132.326 Y108.578 E18.1951
G1 X132.326 Y108.692 E18.1996
G0 X132.003 Y108.826 F5400
G0 X131.761 Y108.583
G1 X131.685 Y108.464 E18.2054 F1440
G1 X131.638 Y108.349 E18.2120
G1 X131.594 Y108.353 E18.2140
G0 X131.437 Y108.260 F5400
G0 X131.195 Y108.018
G0 X131.251 Y107.699
G0 X133.651 Y107.699
G0 X133.908 Y107.892
G0 X133.908 Y109.378
G1 X133.693 Y109.596 E18.2268 F1440
G0 X133.424 Y109.870 F5400
G0 X134.054 Y109.538
G0 X134.108 Y109.597
G0 X135.251 Y109.597
G0 X135.489 Y109.378
G0 X135.489 Y108.578
G0 X135.251 Y108.332
G0 X134.794 Y108.332
G0 X134.540 Y108.578
G0 X134.540 Y108.806
G0 X134.794 Y108.964
G0 X134.908 Y108.964
G0 X134.908 Y108.964
G0 X134.794 Y108.964
G0 X134.583 Y108.922
G0 X134.540 Y108.806
G0 X134.540 Y108.578
G0 X134.583 Y108.374
G0 X134.794 Y108.332
G0 X135.251 Y108.332
G0 X135.447 Y108.374
G0 X135.489 Y108.578
G0 X135.489 Y108.782
G0 X135.489 Y108.782
G0 X135.489 Y108.782
G0 X135.489 Y108.782
G0 X135.489 Y109.378
G0 X135.251 Y109.597
G0 X134.108 Y109.597
G0 X133.908 Y109.378
G0 X133.908 Y107.892
G0 X134.108 Y107.699
G0 X137.536 Y107.699
G0 X137.704 Y107.892
G0 X137.704 Y109.378
G0 X137.536 Y109.597
G0 X136.394 Y109.597
G0 X136.122 Y109.378
G0 X136.122 Y108.578
G0 X136.394 Y108.332
G0 X136.851 Y108.332
G0 X137.071 Y108.578
G0 X137.071 Y108.806
G0 X136.851 Y108.964
G0 X136.622 Y108.964
G0 X136.622 Y108.964
G0 X136.851 Y108.964
G0 X137.029 Y108.922
G0 X137.071 Y108.806
G0 X137.071 Y108.578
G0 X137.029 Y108.374
G0 X136.851 Y108.332
G0 X136.394 Y108.332
G0 X136.279 Y108.374
G0 X136.164 Y108.374
G0 X136.152 Y108.433
G0 X136.152 Y108.433
G0 X136.164 Y108.426
G0 X136.152 Y108.433
G1 X136.122 Y108.578 E18.2326 F1440
G1 X136.122 Y109.378 E18.2641
G1 X136.164 Y109.492 E18.2702
G1 X136.164 Y109.721 E18.2816
G0 X136.122 Y109.835 F5400
G0 X136.122 Y110.635
G1 X136.164 Y110.820 E18.2911 F1440
G1 X136.279 Y110.820 E18.2968
G0 X136.394 Y110.862 F5400
G0 X136.851 Y110.862
G1 X137.029 Y110.820 E18.3059 F1440
G0 X137.071 Y110.635 F5400
G0 X137.071 Y110.406
G1 X137.029 Y110.272 E18.3130 F1440
G0 X136.851 Y110.230 F5400
G0 X136.622 Y110.230
G1 X136.851 Y110.230 E18.3220 F1440
G1 X137.071 Y110.406 E18.3331
G1 X137.071 Y110.635 E18.3421
G1 X136.851 Y110.862 E18.3545
G1 X136.394 Y110.862 E18.3725
G1 X136.122 Y110.635 E18.3865
G1 X136.122 Y109.835 E18.4180
G1 X136.394 Y109.597 E18.4322
G1 X137.536 Y109.597 E18.4771
G0 X137.704 Y109.835 F5400
G0 X137.704 Y111.321
G0 X137.536 Y111.446
G0 X134.794 Y111.446
G0 X134.590 Y111.411
G0 X134.347 Y111.169
G1 X134.679 Y110.820 E18.5012 F1440
G1 X134.794 Y110.862 E18.5060
G1 X135.251 Y110.862 E18.5240
G1 X135.447 Y110.820 E18.5340
G1 X135.489 Y110.635 E18.5414
G1 X135.489 Y109.835 E18.5729
G1 X135.447 Y109.721 E18.5790
G1 X135.447 Y109.492 E18.5904
G0 X135.489 Y109.378 F5400
G0 X135.489 Y108.578
G1 X135.447 Y108.374 E18.6008 F1440
G0 X135.251 Y108.332 F5400
G0 X134.794 Y108.332
G1 X134.583 Y108.374 E18.6115 F1440
G0 X134.540 Y108.578 F5400
G0 X134.540 Y108.806
G1 X134.583 Y108.922 E18.6177 F1440
G0 X134.794 Y108.964 F5400
G0 X134.908 Y108.964
G1 X134.794 Y108.964 E18.6222 F1440
G1 X134.540 Y108.806 E18.6339
G1 X134.540 Y108.578 E18.6429
G1 X134.794 Y108.332 E18.6568
G1 X135.251 Y108.332 E18.6748
G1 X135.489 Y108.578 E18.6883
G1 X135.489 Y109.378 E18.7198
G1 X135.251 Y109.597 E18.7325
G1 X134.108 Y109.597 E18.7775
G1 X133.908 Y109.378 E18.7892
G1 X133.908 Y107.892 E18.8477
G0 X134.108 Y107.699 F5400
G0 X137.536 Y107.699
G0 X137.704 Y107.892
G0 X137.704 Y109.378
G0 X137.536 Y109.597
G0 X136.394 Y109.597
G0 X136.122 Y109.378
G0 X136.122 Y108.578
G0 X136.394 Y108.332
G0 X136.851 Y108.332
G0 X137.071 Y108.578
G0 X137.071 Y108.806
G0 X136.851 Y108.964
G0 X136.622 Y108.964
G1 X136.851 Y108.964 E18.8567 F1440
G1 X137.029 Y108.922 E18.8658
G1 X137.071 Y108.806 E18.8706
G1 X137.071 Y108.578 E18.8796
G1 X137.029 Y108.374 E18.8900
G1 X136.851 Y108.332 E18.8972
G1 X136.394 Y108.332 E18.9152
G1 X136.279 Y108.374 E18.9213
G1 X136.224 Y108.374 E18.9241
G0 X136.224 Y108.374 F5400
G0 X136.279 Y108.374
G0 X136.394 Y108.332
G0 X136.851 Y108.332
G0 X137.029 Y108.374
G0 X137.071 Y108.578
G0 X137.071 Y108.806
G0 X137.029 Y108.922
G0 X136.851 Y108.964
G0 X136.622 Y108.964
G0 X136.622 Y108.964
G0 X136.851 Y108.964
G0 X137.071 Y108.806
G0 X137.071 Y108.578
G0 X136.851 Y108.332
G0 X136.394 Y108.332
G0 X136.122 Y108.578
G0 X136.122 Y109.378
G0 X136.394 Y109.597
G0 X137.536 Y109.597
G0 X137.704 Y109.378
G0 X137.704 Y107.892
G0 X137.536 Y107.699
G0 X136.211 Y107.699
G0 X136.211 Y107.699
G0 X136.211 Y107.699
G0 X136.211 Y107.699
G0 X137.536 Y107.699
G0 X137.704 Y107.435
G0 X137.704 Y106.064
G0 X137.536 Y105.801
G0 X136.394 Y105.801
G0 X136.122 Y106.064
G0 X136.122 Y106.864
G0 X136.394 Y107.066
G0 X136.851 Y107.066
G0 X137.071 Y106.864
G0 X137.071 Y106.635
G0 X136.851 Y106.434
G0 X136.622 Y106.434
G0 X136.622 Y106.434
G0 X136.851 Y106.434
G0 X137.029 Y106.476
G0 X137.071 Y106.635
G0 X137.071 Y106.864
G0 X137.029 Y107.024
G0 X136.851 Y107.066
G0 X136.394 Y107.066
G0 X136.279 Y107.024
G0 X136.199 Y107.024
G0 X136.199 Y107.024
G0 X136.279 Y107.024
G0 X136.394 Y107.066
G0 X136.851 Y107.066
G0 X137.029 Y107.024
G0 X137.071 Y106.864
G0 X137.071 Y106.635
G0 X137.029 Y106.476
G0 X136.851 Y106.434
G0 X136.622 Y106.434
G0 X136.622 Y106.434
G0 X136.851 Y106.434
G0 X137.071 Y106.635
G0 X137.071 Y106.864
G0 X136.851 Y107.066
G0 X136.394 Y107.066
G0 X136.197 Y106.919
G0 X136.197 Y106.919
G0 X136.122 Y106.864
G0 X136.122 Y106.064
G0 X136.179 Y106.008
G0 X136.179 Y106.008
G0 X136.172 Y105.643
G0 X136.172 Y105.643
G0 X136.122 Y105.606
G0 X136.122 Y104.806
G0 X136.156 Y104.773
G0 X136.156 Y104.773
G0 X136.394 Y104.536
G0 X136.851 Y104.536
G0 X137.071 Y104.806
G0 X137.071 Y104.921
G0 X136.851 Y105.168
G0 X136.622 Y105.168
G0 X136.622 Y105.168
G0 X136.851 Y105.168
G0 X137.029 Y105.126
G0 X137.071 Y104.921
G0 X137.071 Y104.806
G0 X137.029 Y104.578
G0 X136.851 Y104.536
G0 X136.394 Y104.536
G0 X136.279 Y104.578
G0 X136.164 Y104.578
G0 X136.153 Y104.637
G0 X136.153 Y104.637
G0 X136.153 Y104.624
G0 X136.153 Y104.637
G1 X136.122 Y104.806 E18.9308 F1440
G1 X136.122 Y105.606 E18.9623
G1 X136.164 Y105.721 E18.9684
G1 X136.164 Y105.949 E18.9798
G0 X136.122 Y106.064 F5400
G0 X136.122 Y106.864
G1 X136.164 Y107.024 E18.9881 F1440
G1 X136.279 Y107.024 E18.9938
G0 X136.394 Y107.066 F5400
G0 X136.851 Y107.066
G1 X137.029 Y107.024 E19.0029 F1440
G0 X137.071 Y106.864 F5400
G0 X137.071 Y106.635
G1 X137.029 Y106.476 E19.0112 F1440
G0 X136.851 Y106.434 F5400
G0 X136.622 Y106.434
G1 X136.851 Y106.434 E19.0201 F1440
G1 X137.071 Y106.635 E19.0319
G1 X137.071 Y106.864 E19.0409
G1 X136.851 Y107.066 E19.0527
G1 X136.394 Y107.066 E19.0707
G1 X136.122 Y106.864 E19.0840
G1 X136.122 Y106.064 E19.1155
G1 X136.394 Y105.801 E19.1303
G1 X137.536 Y105.801 E19.1753
G0 X137.704 Y106.064 F5400
G0 X137.704 Y107.435
G1 X137.536 Y107.699 E19.1876 F1440
G1 X134.108 Y107.699 E19.3226
G1 X133.908 Y107.435 E19.3356
G1 X133.908 Y106.064 E19.3896
G0 X134.108 Y105.801 F5400
G0 X135.251 Y105.801
G0 X135.489 Y106.064
G0 X135.489 Y106.864
G0 X135.251 Y107.066
G0 X134.794 Y107.066
G0 X134.540 Y106.864
G0 X134.540 Y106.635
G0 X134.794 Y106.434
G0 X134.908 Y106.434
G1 X134.794 Y106.434 E19.3941 F1440
G1 X134.583 Y106.476 E19.4048
G1 X134.540 Y106.635 E19.4113
G1 X134.540 Y106.864 E19.4203
G1 X134.583 Y107.024 E19.4285
G1 X134.794 Y107.066 E19.4370
G1 X135.251 Y107.066 E19.4550
G1 X135.447 Y107.024 E19.4650
G1 X135.489 Y106.864 E19.4715
G1 X135.489 Y106.064 E19.5030
G1 X135.447 Y105.949 E19.5091
G1 X135.447 Y105.721 E19.5205
G0 X135.489 Y105.606 F5400
G0 X135.489 Y104.806
G1 X135.447 Y104.578 E19.5321 F1440
G0 X135.251 Y104.536 F5400
G0 X134.794 Y104.536
G1 X134.583 Y104.578 E19.5428 F1440
G0 X134.540 Y104.806 F5400
G0 X134.540 Y104.921
G1 X134.583 Y105.126 E19.5533 F1440
G0 X134.794 Y105.168 F5400
G0 X134.908 Y105.168
G1 X134.794 Y105.168 E19.5578 F1440
G1 X134.540 Y104.921 E19.5717
G1 X134.540 Y104.806 E19.5762
G1 X134.794 Y104.536 E19.5908
G1 X135.251 Y104.536 E19.6088
G1 X135.489 Y104.806 E19.6230
G1 X135.489 Y105.606 E19.6545
G1 X135.251 Y105.801 E19.6666
G1 X134.108 Y105.801 E19.7116
G1 X133.908 Y105.606 E19.7226
G1 X133.908 Y104.121 E19.7811
G0 X134.108 Y103.903 F5400
G0 X137.536 Y103.903
G0 X137.704 Y104.121
G0 X137.704 Y105.606
G0 X137.536 Y105.801
G0 X136.394 Y105.801
G0 X136.122 Y105.606
G0 X136.122 Y104.806
G0 X136.394 Y104.536
G0 X136.851 Y104.536
G0 X137.071 Y104.806
G0 X137.071 Y104.921
G0 X136.851 Y105.168
G0 X136.622 Y105.168
G1 X136.851 Y105.168 E19.7901 F1440
G1 X137.029 Y105.126 E19.7992
G1 X137.071 Y104.921 E19.8075
G1 X137.071 Y104.806 E19.8119
G1 X137.029 Y104.578 E19.8235
G1 X136.851 Y104.536 E19.8307
G1 X136.394 Y104.536 E19.8487
G1 X136.279 Y104.578 E19.8548
G1 X136.224 Y104.578 E19.8576
G0 X136.224 Y104.578 F5400
G0 X136.279 Y104.578
G0 X136.394 Y104.536
G0 X136.851 Y104.536
G0 X137.029 Y104.578
G0 X137.071 Y104.806
G0 X137.071 Y104.921
G0 X137.029 Y105.126
G0 X136.851 Y105.168
G0 X136.622 Y105.168
G0 X136.622 Y105.168
G0 X136.851 Y105.168
G0 X137.071 Y104.921
G0 X137.071 Y104.806
G0 X136.851 Y104.536
G0 X136.394 Y104.536
G0 X136.122 Y104.806
G0 X136.122 Y105.606
G0 X136.394 Y105.801
G0 X137.536 Y105.801
G0 X137.704 Y105.606
G0 X137.704 Y104.121
G0 X137.536 Y103.903
G0 X136.210 Y103.903
G0 X136.210 Y103.903
G0 X136.210 Y103.903
G0 X136.210 Y103.903
G0 X137.536 Y103.903
G0 X137.704 Y103.664
G0 X137.704 Y102.178
G0 X137.536 Y102.005
G0 X136.394 Y102.005
G0 X136.122 Y102.178
G0 X136.122 Y103.092
G0 X136.394 Y103.270
G0 X136.851 Y103.270
G0 X137.071 Y103.092
G0 X137.071 Y102.864
G0 X136.851 Y102.638
G0 X136.622 Y102.638
G0 X136.622 Y102.638
G0 X136.851 Y102.638
G0 X137.029 Y102.680
G0 X137.071 Y102.864
G0 X137.071 Y103.092
G0 X137.029 Y103.228
G0 X136.851 Y103.270
G0 X136.394 Y103.270
G0 X136.279 Y103.228
G0 X136.196 Y103.228
G0 X136.196 Y103.228
G0 X136.279 Y103.228
G0 X136.394 Y103.270
G0 X136.851 Y103.270
G0 X137.029 Y103.228
G0 X137.071 Y103.092
G0 X137.071 Y102.864
G0 X137.029 Y102.680
G0 X136.851 Y102.638
G0 X136.622 Y102.638
G0 X136.622 Y102.638
G0 X136.851 Y102.638
G0 X137.071 Y102.864
G0 X137.071 Y103.092
G0 X136.851 Y103.270
G0 X136.394 Y103.270
G0 X136.194 Y103.140
G0 X136.194 Y103.140
G0 X136.174 Y102.145
G0 X136.174 Y102.145
G0 X136.122 Y102.178
G0 X136.122 Y103.092
G0 X136.394 Y103.270
G0 X136.851 Y103.270
G0 X137.071 Y103.092
G0 X137.071 Y102.864
G0 X136.851 Y102.638
G0 X136.622 Y102.638
G0 X136.622 Y102.638
G0 X136.851 Y102.638
G0 X137.029 Y102.680
G0 X137.071 Y102.864
G0 X137.071 Y103.092
G0 X137.029 Y103.228
G0 X136.851 Y103.270
G0 X136.394 Y103.270
G0 X136.279 Y103.228
G0 X136.164 Y103.228
G0 X136.122 Y103.092
G0 X136.122 Y102.178
G0 X136.164 Y102.064
G0 X136.164 Y101.949
G0 X136.122 Y101.835
G0 X136.122 Y100.921
G0 X136.164 Y100.782
G0 X136.279 Y100.782
G0 X136.394 Y100.740
G0 X136.851 Y100.740
G0 X137.029 Y100.782
G0 X137.071 Y100.921
G0 X137.071 Y101.149
G0 X137.029 Y101.330
G0 X136.851 Y101.372
G0 X136.622 Y101.372
G0 X136.622 Y101.372
G0 X136.851 Y101.372
G0 X137.071 Y101.149
G0 X137.071 Y100.921
G0 X136.851 Y100.740
G0 X136.394 Y100.740
G0 X136.122 Y100.921
G0 X136.122 Y101.835
G0 X136.168 Y101.864
G0 X136.168 Y101.864
G0 X136.122 Y101.835
G0 X136.122 Y100.921
G0 X136.148 Y100.903
G0 X136.148 Y100.903
G0 X136.394 Y100.740
G0 X136.851 Y100.740
G0 X137.071 Y100.921
G0 X137.071 Y101.149
G0 X136.851 Y101.372
G0 X136.622 Y101.372
G0 X136.622 Y101.372
G0 X136.851 Y101.372
G0 X137.029 Y101.330
G0 X137.071 Y101.149
G0 X137.071 Y100.921
G0 X137.029 Y100.782
G0 X136.851 Y100.740
G0 X136.394 Y100.740
G0 X136.279 Y100.782
G0 X136.164 Y100.782
G0 X136.147 Y100.839
G0 X136.147 Y100.839
G0 X136.147 Y100.826
G0 X136.147 Y100.839
G1 X136.122 Y100.921 E19.8609 F1440
G1 X136.122 Y101.835 E19.8969
G1 X136.164 Y101.949 E19.9030
G1 X136.164 Y102.064 E19.9087
G0 X136.122 Y102.178 F5400
G0 X136.122 Y103.092
G1 X136.164 Y103.228 E19.9158 F1440
G1 X136.279 Y103.228 E19.9215
G0 X136.394 Y103.270 F5400
G0 X136.851 Y103.270
G1 X137.029 Y103.228 E19.9306 F1440
G0 X137.071 Y103.092 F5400
G0 X137.071 Y102.864
G1 X137.029 Y102.680 E19.9400 F1440
G0 X136.851 Y102.638 F5400
G0 X136.622 Y102.638
G1 X136.851 Y102.638 E19.9490 F1440
G1 X137.071 Y102.864 E19.9615
G1 X137.071 Y103.092 E19.9705
G1 X136.851 Y103.270 E19.9816
G1 X136.394 Y103.270 E19.9996
G1 X136.122 Y103.092 E20.0124
G1 X136.122 Y102.178 E20.0484
G1 X136.394 Y102.005 E20.0610
G1 X137.536 Y102.005 E20.1060
G0 X137.704 Y102.178 F5400
G0 X137.704 Y103.664
G1 X137.536 Y103.903 E20.1175 F1440
G1 X134.108 Y103.903 E20.2524
G1 X133.908 Y103.664 E20.2647
G1 X133.908 Y102.178 E20.3232
G0 X134.108 Y102.005 F5400
G0 X135.251 Y102.005
G0 X135.489 Y102.178
G0 X135.489 Y103.092
G0 X135.251 Y103.270
G0 X134.794 Y103.270
G0 X134.540 Y103.092
G0 X134.540 Y102.864
G0 X134.794 Y102.638
G0 X134.908 Y102.638
G1 X134.794 Y102.638 E20.3277 F1440
G1 X134.583 Y102.680 E20.3384
G1 X134.540 Y102.864 E20.3459
G1 X134.540 Y103.092 E20.3548
G1 X134.583 Y103.228 E20.3620
G1 X134.794 Y103.270 E20.3704
G1 X135.251 Y103.270 E20.3884
G1 X135.447 Y103.228 E20.3984
G1 X135.489 Y103.092 E20.4040
G1 X135.489 Y102.178 E20.4400
G1 X135.447 Y102.064 E20.4461
G1 X135.447 Y101.949 E20.4518
G0 X135.489 Y101.835 F5400
G0 X135.489 Y100.921
G1 X135.447 Y100.782 E20.4590 F1440
G0 X135.251 Y100.740 F5400
G0 X134.794 Y100.740
G1 X134.583 Y100.782 E20.4698 F1440
G0 X134.540 Y100.921 F5400
G0 X134.540 Y101.149
G1 X134.583 Y101.330 E20.4790 F1440
G0 X134.794 Y101.372 F5400
G0 X134.908 Y101.372
G1 X134.794 Y101.372 E20.4835 F1440
G1 X134.540 Y101.149 E20.4968
G1 X134.540 Y100.921 E20.5058
G1 X134.794 Y100.740 E20.5181
G1 X135.251 Y100.740 E20.5361
G1 X135.489 Y100.921 E20.5479
G1 X135.489 Y101.835 E20.5838
G1 X135.251 Y102.005 E20.5954
G1 X134.108 Y102.005 E20.6403
G1 X133.908 Y101.835 E20.6507
G1 X133.908 Y100.349 E20.7092
G0 X134.108 Y100.156 F5400
G0 X137.536 Y100.156
G0 X137.704 Y100.349
G0 X137.704 Y101.835
G0 X137.536 Y102.005
G0 X136.394 Y102.005
G0 X136.122 Y101.835
G0 X136.122 Y100.921
G0 X136.394 Y100.740
G0 X136.851 Y100.740
G0 X137.071 Y100.921
G0 X137.071 Y101.149
G0 X136.851 Y101.372
G0 X136.622 Y101.372
G1 X136.851 Y101.372 E20.7181 F1440
G1 X137.029 Y101.330 E20.7273
G1 X137.071 Y101.149 E20.7346
G1 X137.071 Y100.921 E20.7436
G1 X137.029 Y100.782 E20.7508
G1 X136.851 Y100.740 E20.7580
G1 X136.394 Y100.740 E20.7760
G1 X136.279 Y100.782 E20.7821
G1 X136.224 Y100.782 E20.7848
G0 X136.224 Y100.782 F5400
G0 X136.279 Y100.782
G0 X136.394 Y100.740
G0 X136.851 Y100.740
G0 X137.029 Y100.782
G0 X137.071 Y100.921
G0 X137.071 Y101.149
G0 X137.029 Y101.330
G0 X136.851 Y101.372
G0 X136.622 Y101.372
G0 X136.622 Y101.372
G0 X136.851 Y101.372
G0 X137.071 Y101.149
G0 X137.071 Y100.921
G0 X136.851 Y100.740
G0 X136.394 Y100.740
G0 X136.295 Y100.805
G0 X136.295 Y100.805
G0 X136.394 Y100.740
G0 X136.851 Y100.740
G0 X137.071 Y100.921
G0 X137.071 Y101.149
G0 X136.851 Y101.372
G0 X136.622 Y101.372
G0 X136.622 Y101.372
G0 X136.851 Y101.372
G0 X137.029 Y101.330
G0 X137.071 Y101.149
G0 X137.071 Y101.060
G0 X137.071 Y101.060
G0 X137.071 Y101.060
G0 X137.071 Y101.060
G0 X137.071 Y101.149
G0 X136.851 Y101.372
G0 X136.622 Y101.372
G0 X136.622 Y101.372
G0 X136.851 Y101.372
G0 X137.029 Y101.330
G0 X137.071 Y101.149
G0 X137.071 Y100.921
G0 X137.029 Y100.782
G0 X136.851 Y100.740
G0 X136.394 Y100.740
G0 X136.279 Y100.782
G0 X136.164 Y100.782
G0 X136.122 Y100.921
G0 X136.122 Y101.835
G0 X136.164 Y101.949
G0 X136.164 Y102.064
G0 X136.122 Y102.178
G0 X136.122 Y103.092
G0 X136.164 Y103.228
G0 X136.279 Y103.228
G0 X136.394 Y103.270
G0 X136.851 Y103.270
G0 X137.029 Y103.228
G0 X137.071 Y103.092
G0 X137.071 Y102.864
G0 X137.029 Y102.680
G0 X136.851 Y102.638
G0 X136.622 Y102.638
G0 X136.622 Y102.638
G0 X136.851 Y102.638
G0 X137.071 Y102.864
G0 X137.071 Y103.092
G0 X136.851 Y103.270
G0 X136.394 Y103.270
G0 X136.122 Y103.092
G0 X136.122 Y102.178
G0 X136.394 Y102.005
G0 X137.536 Y102.005
G0 X137.704 Y102.178
G0 X137.879 Y102.005
G0 X139.022 Y102.005
G0 X139.285 Y102.178
G0 X139.285 Y103.092
G0 X139.022 Y103.270
G0 X138.565 Y103.270
G0 X138.336 Y103.092
G0 X138.336 Y102.864
G0 X138.565 Y102.638
G0 X138.794 Y102.638
G0 X138.794 Y102.638
G0 X138.565 Y102.638
G0 X138.379 Y102.680
G0 X138.336 Y102.864
G0 X138.336 Y103.092
G0 X138.379 Y103.228
G0 X138.565 Y103.270
G0 X139.022 Y103.270
G0 X139.243 Y103.228
G0 X139.285 Y103.092
G0 X139.285 Y102.178
G0 X139.243 Y102.064
G0 X139.243 Y101.949
G0 X139.285 Y101.835
G0 X139.285 Y100.921
G0 X139.243 Y100.782
G0 X139.022 Y100.740
G0 X138.565 Y100.740
G0 X138.379 Y100.782
G0 X138.336 Y100.921
G0 X138.336 Y101.149
G0 X138.379 Y101.330
G0 X138.565 Y101.372
G0 X138.794 Y101.372
G0 X138.794 Y101.372
G0 X138.565 Y101.372
G0 X138.336 Y101.149
G0 X138.336 Y100.921
G0 X138.565 Y100.740
G0 X139.022 Y100.740
G0 X139.285 Y100.921
G0 X139.285 Y101.835
G0 X139.022 Y102.005
G0 X137.879 Y102.005
G0 X137.704 Y101.835
G0 X137.704 Y101.268
G0 X137.704 Y101.268
G0 X137.704 Y101.268
G0 X137.704 Y101.268
G0 X137.704 Y101.835
G0 X137.536 Y102.005
G0 X136.394 Y102.005
G0 X136.122 Y101.835
G0 X136.122 Y100.921
G0 X136.394 Y100.740
G0 X136.851 Y100.740
G0 X137.071 Y100.921
G0 X137.071 Y101.149
G0 X136.851 Y101.372
G0 X136.622 Y101.372
G0 X136.622 Y101.372
G0 X136.851 Y101.372
G0 X137.029 Y101.330
G0 X137.071 Y101.149
G0 X137.071 Y100.921
G0 X137.029 Y100.782
G0 X136.851 Y100.740
G0 X136.394 Y100.740
G0 X136.279 Y100.782
G0 X136.164 Y100.782
G0 X136.122 Y100.921
G0 X136.122 Y101.835
G0 X136.164 Y101.949
G0 X136.164 Y102.064
G0 X136.122 Y102.178
G0 X136.122 Y103.092
G0 X136.164 Y103.228
G0 X136.279 Y103.228
G0 X136.394 Y103.270
G0 X136.851 Y103.270
G0 X137.029 Y103.228
G0 X137.071 Y103.092
G0 X137.071 Y102.864
G0 X137.029 Y102.680
G0 X136.851 Y102.638
G0 X136.622 Y102.638
G0 X136.622 Y102.638
G0 X136.851 Y102.638
G0 X137.071 Y102.864
G0 X137.071 Y103.092
G0 X136.851 Y103.270
G0 X136.394 Y103.270
G0 X136.122 Y103.092
G0 X136.122 Y102.178
G0 X136.394 Y102.005
G0 X137.536 Y102.005
G0 X137.704 Y102.178
G0 X137.879 Y102.005
G0 X139.022 Y102.005
G0 X139.285 Y102.178
G0 X139.285 Y103.092
G0 X139.022 Y103.270
G0 X138.565 Y103.270
G0 X138.336 Y103.092
G0 X138.336 Y102.864
G0 X138.565 Y102.638
G0 X138.794 Y102.638
G0 X138.794 Y102.638
G0 X138.565 Y102.638
G0 X138.379 Y102.680
G0 X138.336 Y102.864
G0 X138.336 Y103.092
G0 X138.379 Y103.228
G0 X138.565 Y103.270
G0 X139.022 Y103.270
G0 X139.243 Y103.228
G0 X139.285 Y103.092
G0 X139.285 Y102.178
G0 X139.243 Y102.064
G0 X139.243 Y101.949
G0 X139.285 Y101.835
G0 X139.285 Y100.921
G0 X139.243 Y100.782
G0 X139.022 Y100.740
G0 X138.565 Y100.740
G0 X138.379 Y100.782
G0 X138.336 Y100.921
G0 X138.336 Y101.149
G0 X138.379 Y101.330
G0 X138.565 Y101.372
G0 X138.794 Y101.372
G0 X138.794 Y101.372
G0 X138.565 Y101.372
G0 X138.336 Y101.149
G0 X138.336 Y100.921
G0 X138.565 Y100.740
G0 X139.022 Y100.740
G0 X139.285 Y100.921
G0 X139.285 Y101.788
G0 X139.285 Y101.788
G0 X139.285 Y101.788
G0 X139.285 Y101.788
G0 X139.285 Y100.921
G0 X139.243 Y100.782
G0 X139.022 Y100.740
G0 X138.565 Y100.740
G0 X138.379 Y100.782
G0 X138.336 Y100.921
G0 X138.336 Y101.149
G0 X138.379 Y101.330
G0 X138.565 Y101.372
G0 X138.794 Y101.372
G0 X138.794 Y101.372
G0 X138.565 Y101.372
G0 X138.336 Y101.149
G0 X138.336 Y100.921
G0 X138.565 Y100.740
G0 X139.022 Y100.740
G0 X139.285 Y100.921
G0 X139.285 Y101.835
G0 X139.022 Y102.005
G0 X137.879 Y102.005
G0 X137.704 Y101.835
G0 X137.704 Y100.349
G0 X137.879 Y100.156
G0 X141.308 Y100.156
G0 X141.451 Y100.349
G0 X141.451 Y101.835
G0 X141.308 Y102.005
G0 X140.165 Y102.005
G0 X139.918 Y101.835
G0 X139.918 Y100.921
G0 X140.165 Y100.740
G0 X140.622 Y100.740
G0 X140.867 Y100.921
G0 X140.867 Y101.149
G0 X140.622 Y101.372
G0 X140.394 Y101.372
G0 X140.394 Y101.372
G0 X140.622 Y101.372
G0 X140.825 Y101.330
G0 X140.867 Y101.149
G0 X140.867 Y100.921
G0 X140.825 Y100.782
G0 X140.622 Y100.740
G0 X140.165 Y100.740
G0 X139.960 Y100.782
G0 X139.918 Y100.921
G0 X139.918 Y101.835
G0 X139.960 Y101.949
G0 X139.960 Y102.009
G0 X139.960 Y102.009
G0 X139.972 Y102.013
G0 X139.960 Y102.009
G1 X139.960 Y102.064 E20.7875 F1440
G0 X139.918 Y102.178 F5400
G0 X139.918 Y103.092
G1 X139.960 Y103.228 E20.7947 F1440
G0 X140.165 Y103.270 F5400
G0 X140.622 Y103.270
G1 X140.825 Y103.228 E20.8050 F1440
G0 X140.867 Y103.092 F5400
G0 X140.867 Y102.864
G1 X140.825 Y102.680 E20.8144 F1440
G0 X140.622 Y102.638 F5400
G0 X140.394 Y102.638
G1 X140.622 Y102.638 E20.8234 F1440
G1 X140.867 Y102.864 E20.8365
G1 X140.867 Y103.092 E20.8455
G1 X140.622 Y103.270 E20.8574
G1 X140.165 Y103.270 E20.8754
G1 X139.918 Y103.092 E20.8874
G1 X139.918 Y102.178 E20.9234
G1 X140.165 Y102.005 E20.9352
G1 X141.308 Y102.005 E20.9802
G0 X141.451 Y102.178 F5400
G0 X141.451 Y103.664
G1 X141.308 Y103.903 E20.9912 F1440
G1 X137.879 Y103.903 E21.1261
G1 X137.704 Y103.664 E21.1378
G1 X137.704 Y102.178 E21.1963
G0 X137.879 Y102.005 F5400
G0 X139.022 Y102.005
G0 X139.285 Y102.178
G0 X139.285 Y103.092
G0 X139.022 Y103.270
G0 X138.565 Y103.270
G0 X138.336 Y103.092
G0 X138.336 Y102.864
G0 X138.565 Y102.638
G0 X138.794 Y102.638
G1 X138.565 Y102.638 E21.2053 F1440
G1 X138.379 Y102.680 E21.2148
G1 X138.336 Y102.864 E21.2222
G1 X138.336 Y103.092 E21.2312
G1 X138.379 Y103.228 E21.2383
G1 X138.565 Y103.270 E21.2458
G1 X139.022 Y103.270 E21.2638
G1 X139.243 Y103.228 E21.2751
G1 X139.285 Y103.092 E21.2807
G1 X139.285 Y102.178 E21.3166
G1 X139.243 Y102.064 E21.3227
G1 X139.243 Y101.949 E21.3284
G0 X139.285 Y101.835 F5400
G0 X139.285 Y100.921
G1 X139.243 Y100.782 E21.3357 F1440
G0 X139.022 Y100.740 F5400
G0 X138.565 Y100.740
G1 X138.379 Y100.782 E21.3452 F1440
G0 X138.336 Y100.921 F5400
G0 X138.336 Y101.149
G1 X138.379 Y101.330 E21.3545 F1440
G0 X138.565 Y101.372 F5400
G0 X138.794 Y101.372
G1 X138.565 Y101.372 E21.3635 F1440
G1 X138.336 Y101.149 E21.3760
G1 X138.336 Y100.921 E21.3850
G1 X138.565 Y100.740 E21.3965
G1 X139.022 Y100.740 E21.4145
G1 X139.285 Y100.921 E21.4271
G1 X139.285 Y101.835 E21.4631
G1 X139.022 Y102.005 E21.4754
G1 X137.879 Y102.005 E21.5204
G1 X137.704 Y101.835 E21.5300
G1 X137.704 Y100.349 E21.5885
G0 X137.879 Y100.156 F5400
G0 X141.308 Y100.156
G0 X141.451 Y100.349
G0 X141.451 Y101.835
G0 X141.308 Y102.005
G0 X140.165 Y102.005
G0 X139.918 Y101.835
G0 X139.918 Y100.921
G0 X140.165 Y100.740
G0 X140.622 Y100.740
G0 X140.867 Y100.921
G0 X140.867 Y101.149
G0 X140.622 Y101.372
G0 X140.394 Y101.372
G1 X140.622 Y101.372 E21.5974 F1440
G1 X140.825 Y101.330 E21.6078
G1 X140.867 Y101.149 E21.6151
G1 X140.867 Y100.921 E21.6241
G1 X140.825 Y100.782 E21.6313
G1 X140.622 Y100.740 E21.6395
G1 X140.165 Y100.740 E21.6574
G1 X139.960 Y100.782 E21.6679
G1 X139.918 Y100.921 E21.6736
G1 X139.918 Y101.835 E21.7096
G1 X139.939 Y101.893 E21.7123
G0 X139.939 Y101.893 F5400
G0 X139.940 Y102.117
G0 X139.940 Y102.117
G0 X139.918 Y102.178
G0 X139.918 Y103.092
G0 X139.960 Y103.228
G0 X140.165 Y103.270
G0 X140.622 Y103.270
G0 X140.825 Y103.228
G0 X140.867 Y103.092
G0 X140.867 Y102.864
G0 X140.825 Y102.680
G0 X140.622 Y102.638
G0 X140.394 Y102.638
G0 X140.394 Y102.638
G0 X140.622 Y102.638
G0 X140.867 Y102.864
G0 X140.867 Y103.092
G0 X140.622 Y103.270
G0 X140.165 Y103.270
G0 X139.918 Y103.092
G0 X139.918 Y102.178
G0 X139.941 Y102.162
G0 X139.941 Y102.162
G0 X139.946 Y103.112
G0 X139.946 Y103.112
G0 X140.165 Y103.270
G0 X140.622 Y103.270
G0 X140.867 Y103.092
G0 X140.867 Y102.864
G0 X140.622 Y102.638
G0 X140.394 Y102.638
G0 X140.394 Y102.638
G0 X140.622 Y102.638
G0 X140.825 Y102.680
G0 X140.867 Y102.864
G0 X140.867 Y103.092
G0 X140.825 Y103.228
G0 X140.622 Y103.270
G0 X140.165 Y103.270
G0 X139.960 Y103.228
G0 X139.946 Y103.183
G0 X139.946 Y103.183
G0 X139.960 Y103.228
G0 X140.165 Y103.270
G0 X140.622 Y103.270
G0 X140.825 Y103.228
G0 X140.867 Y103.092
G0 X140.867 Y102.864
G0 X140.825 Y102.680
G0 X140.622 Y102.638
G0 X140.394 Y102.638
G0 X140.394 Y102.638
G0 X140.622 Y102.638
G0 X140.867 Y102.864
G0 X140.867 Y103.092
G0 X140.622 Y103.270
G0 X140.165 Y103.270
G0 X139.918 Y103.092
G0 X139.918 Y102.178
G0 X140.165 Y102.005
G0 X141.308 Y102.005
G0 X141.451 Y102.178
G0 X141.451 Y103.664
G0 X141.308 Y103.903
G0 X139.950 Y103.903
G0 X139.950 Y103.903
G0 X139.950 Y103.903
G0 X139.950 Y103.903
G0 X141.308 Y103.903
G0 X141.451 Y104.121
G0 X141.451 Y105.606
G0 X141.308 Y105.801
G0 X140.165 Y105.801
G0 X139.918 Y105.606
G0 X139.918 Y104.806
G0 X140.165 Y104.536
G0 X140.622 Y104.536
G0 X140.867 Y104.806
G0 X140.867 Y104.921
G0 X140.622 Y105.168
G0 X140.394 Y105.168
G0 X140.394 Y105.168
G0 X140.622 Y105.168
G0 X140.825 Y105.126
G0 X140.867 Y104.921
G0 X140.867 Y104.806
G0 X140.825 Y104.578
G0 X140.622 Y104.536
G0 X140.165 Y104.536
G0 X139.960 Y104.578
G0 X139.954 Y104.612
G0 X139.954 Y104.612
G0 X139.960 Y104.578
G0 X140.165 Y104.536
G0 X140.622 Y104.536
G0 X140.825 Y104.578
G0 X140.867 Y104.806
G0 X140.867 Y104.921
G0 X140.825 Y105.126
G0 X140.622 Y105.168
G0 X140.394 Y105.168
G0 X140.394 Y105.168
G0 X140.622 Y105.168
G0 X140.867 Y104.921
G0 X140.867 Y104.806
G0 X140.622 Y104.536
G0 X140.165 Y104.536
G0 X139.955 Y104.766
G0 X139.955 Y104.766
G0 X139.918 Y104.806
G0 X139.918 Y105.606
G0 X139.959 Y105.639
G0 X139.959 Y105.639
G0 X139.918 Y105.606
G0 X139.918 Y104.806
G0 X140.165 Y104.536
G0 X140.622 Y104.536
G0 X140.867 Y104.806
G0 X140.867 Y104.921
G0 X140.622 Y105.168
G0 X140.394 Y105.168
G0 X140.394 Y105.168
G0 X140.622 Y105.168
G0 X140.825 Y105.126
G0 X140.867 Y104.921
G0 X140.867 Y104.806
G0 X140.825 Y104.578
G0 X140.622 Y104.536
G0 X140.165 Y104.536
G0 X139.960 Y104.578
G0 X139.918 Y104.806
G0 X139.918 Y105.606
G0 X139.960 Y105.720
G0 X139.960 Y105.720
G0 X139.960 Y105.721
G0 X139.960 Y105.781
G0 X139.960 Y105.781
G0 X139.960 Y105.794
G0 X139.960 Y105.781
G1 X139.960 Y105.949 E21.7207 F1440
G0 X139.918 Y106.064 F5400
G0 X139.918 Y106.864
G1 X139.960 Y107.024 E21.7290 F1440
G0 X140.165 Y107.066 F5400
G0 X140.622 Y107.066
G1 X140.825 Y107.024 E21.7393 F1440
G0 X140.867 Y106.864 F5400
G0 X140.867 Y106.635
G1 X140.825 Y106.476 E21.7475 F1440
G0 X140.622 Y106.434 F5400
G0 X140.394 Y106.434
G1 X140.622 Y106.434 E21.7565 F1440
G1 X140.867 Y106.635 E21.7690
G1 X140.867 Y106.864 E21.7780
G1 X140.622 Y107.066 E21.7905
G1 X140.165 Y107.066 E21.8085
G1 X139.918 Y106.864 E21.8211
G1 X139.918 Y106.064 E21.8526
G1 X140.165 Y105.801 E21.8668
G1 X141.308 Y105.801 E21.9117
G0 X141.451 Y106.064 F5400
G0 X141.451 Y107.435
G1 X141.308 Y107.699 E21.9235 F1440
G1 X137.879 Y107.699 E22.0585
G1 X137.704 Y107.435 E22.0710
G1 X137.704 Y106.064 E22.1249
G0 X137.879 Y105.801 F5400
G0 X139.022 Y105.801
G0 X139.285 Y106.064
G0 X139.285 Y106.864
G0 X139.022 Y107.066
G0 X138.565 Y107.066
G0 X138.336 Y106.864
G0 X138.336 Y106.635
G0 X138.565 Y106.434
G0 X138.794 Y106.434
G1 X138.565 Y106.434 E22.1339 F1440
G1 X138.379 Y106.476 E22.1435
G1 X138.336 Y106.635 E22.1499
G1 X138.336 Y106.864 E22.1589
G1 X138.379 Y107.024 E22.1672
G1 X138.565 Y107.066 E22.1747
G1 X139.022 Y107.066 E22.1927
G1 X139.243 Y107.024 E22.2039
G1 X139.285 Y106.864 E22.2105
G1 X139.285 Y106.064 E22.2419
G1 X139.243 Y105.949 E22.2480
G1 X139.243 Y105.721 E22.2594
G0 X139.285 Y105.606 F5400
G0 X139.285 Y104.806
G1 X139.243 Y104.578 E22.2710 F1440
G0 X139.022 Y104.536 F5400
G0 X138.565 Y104.536
G1 X138.379 Y104.578 E22.2806 F1440
G0 X138.336 Y104.806 F5400
G0 X138.336 Y104.921
G1 X138.379 Y105.126 E22.2910 F1440
G0 X138.565 Y105.168 F5400
G0 X138.794 Y105.168
G1 X138.565 Y105.168 E22.3000 F1440
G1 X138.336 Y104.921 E22.3133
G1 X138.336 Y104.806 E22.3178
G1 X138.565 Y104.536 E22.3317
G1 X139.022 Y104.536 E22.3497
G1 X139.285 Y104.806 E22.3646
G1 X139.285 Y105.606 E22.3961
G1 X139.022 Y105.801 E22.4089
G1 X137.879 Y105.801 E22.4539
G1 X137.704 Y105.606 E22.4642
G1 X137.704 Y104.121 E22.5227
G0 X137.879 Y103.903 F5400
G0 X141.308 Y103.903
G0 X141.451 Y104.121
G0 X141.451 Y105.606
G0 X141.308 Y105.801
G0 X140.165 Y105.801
G0 X139.918 Y105.606
G0 X139.918 Y104.806
G0 X140.165 Y104.536
G0 X140.622 Y104.536
G0 X140.867 Y104.806
G0 X140.867 Y104.921
G0 X140.622 Y105.168
G0 X140.394 Y105.168
G1 X140.622 Y105.168 E22.5317 F1440
G1 X140.825 Y105.126 E22.5420
G1 X140.867 Y104.921 E22.5503
G1 X140.867 Y104.806 E22.5548
G1 X140.825 Y104.578 E22.5664
G1 X140.622 Y104.536 E22.5745
G1 X140.165 Y104.536 E22.5925
G1 X139.960 Y104.578 E22.6029
G1 X139.918 Y104.806 E22.6121
G1 X139.918 Y105.606 E22.6436
G1 X139.939 Y105.664 E22.6463
G0 X139.939 Y105.664 F5400
G0 X139.960 Y105.721
G0 X139.960 Y105.949
G0 X139.941 Y106.001
G0 X139.941 Y106.001
G0 X139.941 Y106.039
G0 X139.941 Y106.039
G0 X139.918 Y106.064
G0 X139.918 Y106.864
G0 X139.946 Y106.887
G0 X139.946 Y106.887
G0 X139.946 Y106.972
G0 X139.946 Y106.972
G0 X139.960 Y107.024
G0 X140.165 Y107.066
G0 X140.622 Y107.066
G0 X140.825 Y107.024
G0 X140.867 Y106.864
G0 X140.867 Y106.635
G0 X140.825 Y106.476
G0 X140.622 Y106.434
G0 X140.394 Y106.434
G0 X140.394 Y106.434
G0 X140.622 Y106.434
G0 X140.867 Y106.635
G0 X140.867 Y106.864
G0 X140.622 Y107.066
G0 X140.165 Y107.066
G0 X139.918 Y106.864
G0 X139.918 Y106.064
G0 X140.165 Y105.801
G0 X141.308 Y105.801
G0 X141.451 Y106.064
G0 X141.451 Y107.435
G0 X141.308 Y107.699
G0 X141.308 Y107.699
G0 X139.950 Y107.699
G0 X139.950 Y107.699
G0 X139.950 Y107.699
G0 X139.950 Y107.699
G0 X141.451 Y107.892
G0 X141.451 Y109.378
G0 X141.308 Y109.597
G0 X140.165 Y109.597
G0 X139.918 Y109.378
G0 X139.918 Y108.578
G0 X140.165 Y108.332
G0 X140.622 Y108.332
G0 X140.867 Y108.578
G0 X140.867 Y108.806
G0 X140.622 Y108.964
G0 X140.394 Y108.964
G0 X140.394 Y108.964
G0 X140.622 Y108.964
G0 X140.825 Y108.922
G0 X140.867 Y108.806
G0 X140.867 Y108.578
G0 X140.825 Y108.374
G0 X140.622 Y108.332
G0 X140.165 Y108.332
G0 X139.960 Y108.374
G0 X139.954 Y108.403
G0 X139.954 Y108.403
G0 X139.960 Y108.374
G0 X140.165 Y108.332
G0 X140.622 Y108.332
G0 X140.825 Y108.374
G0 X140.867 Y108.578
G0 X140.867 Y108.806
G0 X140.825 Y108.922
G0 X140.622 Y108.964
G0 X140.394 Y108.964
G0 X140.394 Y108.964
G0 X140.622 Y108.964
G0 X140.867 Y108.806
G0 X140.867 Y108.578
G0 X140.622 Y108.332
G0 X140.165 Y108.332
G0 X139.955 Y108.541
G0 X139.955 Y108.541
G0 X139.918 Y108.578
G0 X139.918 Y109.378
G0 X139.959 Y109.415
G0 X139.959 Y109.415
G0 X139.918 Y109.378
G0 X139.918 Y108.578
G0 X140.165 Y108.332
G0 X140.622 Y108.332
G0 X140.867 Y108.578
G0 X140.867 Y108.806
G0 X140.622 Y108.964
G0 X140.394 Y108.964
G0 X140.394 Y108.964
G0 X140.622 Y108.964
G0 X140.825 Y108.922
G0 X140.867 Y108.806
G0 X140.867 Y108.578
G0 X140.825 Y108.374
G0 X140.622 Y108.332
G0 X140.165 Y108.332
G0 X139.960 Y108.374
G0 X139.918 Y108.578
G0 X139.918 Y109.378
G0 X139.960 Y109.491
G0 X139.960 Y109.491
G0 X139.960 Y109.492
G0 X139.960 Y109.552
G0 X139.960 Y109.552
G0 X139.960 Y109.565
G0 X139.960 Y109.552
G1 X139.960 Y109.721 E22.6547 F1440
G0 X139.918 Y109.835 F5400
G0 X139.918 Y110.635
G1 X139.960 Y110.820 E22.6642 F1440
G0 X140.165 Y110.862 F5400
G0 X140.622 Y110.862
G1 X140.825 Y110.820 E22.6745 F1440
G0 X140.867 Y110.635 F5400
G0 X140.867 Y110.406
G1 X140.825 Y110.272 E22.6816 F1440
G0 X140.622 Y110.230 F5400
G0 X140.394 Y110.230
G1 X140.622 Y110.230 E22.6906 F1440
G1 X140.867 Y110.406 E22.7025
G1 X140.867 Y110.635 E22.7114
G1 X140.622 Y110.862 E22.7246
G1 X140.165 Y110.862 E22.7426
G1 X139.918 Y110.635 E22.7558
G1 X139.918 Y109.835 E22.7873
G1 X140.165 Y109.597 E22.8008
G1 X141.308 Y109.597 E22.8458
G0 X141.451 Y109.835 F5400
G0 X141.451 Y111.321
G0 X141.308 Y111.446
G0 X137.879 Y111.446
G1 X137.704 Y111.321 E22.8543 F1440
G1 X137.704 Y109.835 E22.9127
G0 X137.879 Y109.597 F5400
G0 X139.022 Y109.597
G0 X139.285 Y109.835
G0 X139.285 Y110.635
G0 X139.022 Y110.862
G0 X138.565 Y110.862
G0 X138.336 Y110.635
G0 X138.336 Y110.406
G0 X138.565 Y110.230
G0 X138.794 Y110.230
G1 X138.565 Y110.230 E22.9217 F1440
G1 X138.379 Y110.272 E22.9313
G1 X138.336 Y110.406 E22.9368
G1 X138.336 Y110.635 E22.9458
G1 X138.379 Y110.820 E22.9553
G1 X138.565 Y110.862 E22.9628
G1 X139.022 Y110.862 E22.9808
G1 X139.243 Y110.820 E22.9920
G1 X139.285 Y110.635 E22.9995
G1 X139.285 Y109.835 E23.0310
G1 X139.243 Y109.721 E23.0370
G1 X139.243 Y109.492 E23.0485
G0 X139.285 Y109.378 F5400
G0 X139.285 Y108.578
G1 X139.243 Y108.374 E23.0588 F1440
G0 X139.022 Y108.332 F5400
G0 X138.565 Y108.332
G1 X138.379 Y108.374 E23.0684 F1440
G0 X138.336 Y108.578 F5400
G0 X138.336 Y108.806
G1 X138.379 Y108.922 E23.0745 F1440
G0 X138.565 Y108.964 F5400
G0 X138.794 Y108.964
G1 X138.565 Y108.964 E23.0835 F1440
G1 X138.336 Y108.806 E23.0944
G1 X138.336 Y108.578 E23.1034
G1 X138.565 Y108.332 E23.1167
G1 X139.022 Y108.332 E23.1347
G1 X139.285 Y108.578 E23.1488
G1 X139.285 Y109.378 E23.1803
G1 X139.022 Y109.597 E23.1938
G1 X137.879 Y109.597 E23.2388
G1 X137.704 Y109.378 E23.2498
G1 X137.704 Y107.892 E23.3083
G0 X137.879 Y107.699 F5400
G0 X141.308 Y107.699
G0 X141.451 Y107.892
G0 X141.451 Y109.378
G0 X141.308 Y109.597
G0 X140.165 Y109.597
G0 X139.918 Y109.378
G0 X139.918 Y108.578
G0 X140.165 Y108.332
G0 X140.622 Y108.332
G0 X140.867 Y108.578
G0 X140.867 Y108.806
G0 X140.622 Y108.964
G0 X140.394 Y108.964
G1 X140.622 Y108.964 E23.3173 F1440
G1 X140.825 Y108.922 E23.3276
G1 X140.867 Y108.806 E23.3325
G1 X140.867 Y108.578 E23.3415
G1 X140.825 Y108.374 E23.3519
G1 X140.622 Y108.332 E23.3600
G1 X140.165 Y108.332 E23.3780
G1 X139.960 Y108.374 E23.3884
G1 X139.918 Y108.578 E23.3966
G1 X139.918 Y109.378 E23.4281
G1 X139.939 Y109.436 E23.4309
G0 X139.939 Y109.436 F5400
G0 X139.918 Y109.378
G0 X139.918 Y108.578
G0 X139.960 Y108.374
G0 X140.165 Y108.332
G0 X140.622 Y108.332
G0 X140.825 Y108.374
G0 X140.867 Y108.578
G0 X140.867 Y108.806
G0 X140.825 Y108.922
G0 X140.622 Y108.964
G0 X140.394 Y108.964
G0 X140.394 Y108.964
G0 X140.622 Y108.964
G0 X140.867 Y108.806
G0 X140.867 Y108.578
G0 X140.622 Y108.332
G0 X140.165 Y108.332
G0 X139.918 Y108.578
G0 X139.918 Y109.378
G0 X140.165 Y109.597
G0 X141.308 Y109.597
G0 X141.451 Y109.378
G0 X141.451 Y107.892
G0 X141.308 Y107.699
G0 X137.879 Y107.699
G0 X137.704 Y107.892
G0 X137.704 Y109.378
G0 X137.879 Y109.597
G0 X139.022 Y109.597
G0 X139.285 Y109.378
G0 X139.285 Y109.120
G0 X139.285 Y109.120
G0 X139.285 Y109.120
G0 X139.285 Y109.120
G0 X139.285 Y108.578
G0 X139.243 Y108.374
G0 X139.022 Y108.332
G0 X138.565 Y108.332
G0 X138.379 Y108.374
G0 X138.336 Y108.578
G0 X138.336 Y108.662
G0 X138.336 Y108.662
G0 X138.336 Y108.662
G0 X138.336 Y108.662
G0 X138.336 Y108.806
G0 X138.565 Y108.964
G0 X138.794 Y108.964
G0 X138.794 Y108.964
G0 X138.565 Y108.964
G0 X138.379 Y108.922
G0 X138.336 Y108.806
G0 X138.336 Y108.578
G0 X138.379 Y108.374
G0 X138.565 Y108.332
G0 X139.022 Y108.332
G0 X139.243 Y108.374
G0 X139.285 Y108.578
G0 X139.285 Y109.378
G0 X139.243 Y109.492
G0 X139.243 Y109.721
G0 X139.285 Y109.835
G0 X139.285 Y110.635
G0 X139.243 Y110.820
G0 X139.022 Y110.862
G0 X138.565 Y110.862
G0 X138.379 Y110.820
G0 X138.336 Y110.635
G0 X138.336 Y110.406
G0 X138.379 Y110.272
G0 X138.565 Y110.230
G0 X138.794 Y110.230
G0 X138.794 Y110.230
G0 X138.565 Y110.230
G0 X138.336 Y110.406
G0 X138.336 Y110.635
G0 X138.565 Y110.862
G0 X139.022 Y110.862
G0 X139.285 Y110.635
G0 X139.285 Y109.835
G0 X139.022 Y109.597
G0 X137.879 Y109.597
G0 X137.704 Y109.835
G0 X137.704 Y111.321
G0 X137.704 Y109.835
G0 X137.536 Y109.597
G0 X136.394 Y109.597
G0 X136.122 Y109.835
G0 X136.122 Y110.635
G0 X136.394 Y110.862
G0 X136.851 Y110.862
G0 X137.071 Y110.635
G0 X137.071 Y110.406
G0 X136.851 Y110.230
G0 X136.622 Y110.230
G0 X136.622 Y110.230
G0 X136.851 Y110.230
G0 X137.029 Y110.272
G0 X137.071 Y110.406
G0 X137.071 Y110.635
G0 X137.029 Y110.820
G0 X136.851 Y110.862
G0 X136.394 Y110.862
G0 X136.279 Y110.820
G0 X136.164 Y110.820
G0 X136.122 Y110.635
G0 X136.122 Y109.835
G0 X136.164 Y109.721
G0 X136.164 Y109.492
G0 X136.122 Y109.378
G0 X136.122 Y108.578
G0 X136.164 Y108.374
G0 X136.279 Y108.374
G0 X136.394 Y108.332
G0 X136.851 Y108.332
G0 X137.029 Y108.374
G0 X137.071 Y108.578
G0 X137.071 Y108.806
G0 X137.029 Y108.922
G0 X136.851 Y108.964
G0 X136.622 Y108.964
G0 X136.622 Y108.964
G0 X136.851 Y108.964
G0 X137.071 Y108.806
G0 X137.071 Y108.578
G0 X136.851 Y108.332
G0 X136.394 Y108.332
G0 X136.122 Y108.578
G0 X136.122 Y109.378
G0 X136.394 Y109.597
G0 X137.536 Y109.597
G0 X137.704 Y109.378
G0 X137.704 Y108.357
G0 X137.704 Y108.357
G0 X137.704 Y108.357
G0 X137.704 Y108.357
G0 X137.704 Y107.892
G0 X136.341 Y107.699
G0 X136.341 Y107.699
G0 X136.341 Y107.699
G0 X136.341 Y107.699
G0 X133.908 Y107.435
G0 X133.908 Y106.064
G0 X134.108 Y105.801
G0 X135.251 Y105.801
G0 X135.489 Y106.064
G0 X135.489 Y106.864
G0 X135.251 Y107.066
G0 X135.031 Y107.066
G0 X135.031 Y107.066
G0 X135.031 Y107.066
G0 X135.031 Y107.066
G0 X134.794 Y107.066
G0 X134.583 Y107.024
G0 X134.540 Y106.864
G0 X134.540 Y106.829
G0 X134.540 Y106.829
G0 X134.540 Y106.829
G0 X134.540 Y106.829
G0 X134.540 Y106.864
G0 X134.794 Y107.066
G0 X135.251 Y107.066
G0 X135.489 Y106.864
G0 X135.489 Y106.064
G0 X135.251 Y105.801
G0 X134.108 Y105.801
G0 X133.908 Y106.064
G0 X133.908 Y106.524
G0 X133.908 Y106.524
G0 X133.908 Y106.524
G0 X133.908 Y106.524
G0 X133.908 Y106.064
G0 X133.651 Y105.801
G0 X132.508 Y105.801
G0 X132.483 Y105.836
G0 X132.483 Y105.836
G0 X132.326 Y106.064
G0 X132.326 Y106.864
G0 X132.508 Y107.066
G0 X133.079 Y107.066
G0 X133.275 Y106.864
G0 X133.275 Y106.635
G0 X133.079 Y106.434
G0 X132.851 Y106.434
G0 X132.851 Y106.434
G0 X133.079 Y106.434
G0 X133.233 Y106.476
G0 X133.275 Y106.635
G0 X133.275 Y106.864
G0 X133.233 Y107.024
G0 X133.079 Y107.066
G0 X132.508 Y107.066
G0 X132.368 Y107.024
G0 X132.326 Y106.864
G0 X132.326 Y106.064
G0 X132.368 Y105.949
G0 X132.368 Y105.781
G0 X132.368 Y105.781
G0 X132.357 Y105.775
G0 X132.368 Y105.781
G1 X132.368 Y105.949 E23.4393 F1440
G0 X132.326 Y106.064 F5400
G0 X132.326 Y106.864
G1 X132.368 Y107.024 E23.4476 F1440
G0 X132.508 Y107.066 F5400
G0 X133.079 Y107.066
G1 X133.233 Y107.024 E23.4555 F1440
G0 X133.275 Y106.864 F5400
G0 X133.275 Y106.635
G1 X133.233 Y106.476 E23.4637 F1440
G0 X133.079 Y106.434 F5400
G0 X132.851 Y106.434
G1 X133.079 Y106.434 E23.4727 F1440
G1 X133.275 Y106.635 E23.4838
G1 X133.275 Y106.864 E23.4928
G1 X133.079 Y107.066 E23.5039
G1 X132.508 Y107.066 E23.5263
G1 X132.326 Y106.864 E23.5371
G1 X132.326 Y106.064 E23.5685
G1 X132.508 Y105.801 E23.5811
G1 X133.651 Y105.801 E23.6261
G0 X133.908 Y106.064 F5400
G0 X133.908 Y107.435
G1 X133.651 Y107.699 E23.6406 F1440
G1 X131.251 Y107.699 E23.7350
G1 X131.136 Y107.793 E23.7443
G1 X131.022 Y107.746 E23.7507
G0 X130.791 Y107.614 F5400
G0 X130.548 Y107.371
G1 X130.794 Y107.024 E23.7719 F1440
G1 X130.908 Y107.066 E23.7767
G1 X131.479 Y107.066 E23.7992
G1 X131.651 Y107.024 E23.8080
G1 X131.694 Y106.864 E23.8145
G1 X131.694 Y106.064 E23.8460
G1 X131.651 Y105.949 E23.8521
G1 X131.651 Y105.721 E23.8635
G0 X131.694 Y105.606 F5400
G0 X131.694 Y104.806
G1 X131.651 Y104.578 E23.8751 F1440
G0 X131.479 Y104.536 F5400
G0 X130.908 Y104.536
G1 X130.787 Y104.578 E23.8815 F1440
G0 X130.744 Y104.806 F5400
G0 X130.744 Y104.921
G1 X130.787 Y105.126 E23.8919 F1440
G0 X130.908 Y105.168 F5400
G0 X131.136 Y105.168
G1 X130.908 Y105.168 E23.9009 F1440
G1 X130.744 Y104.921 E23.9126
G1 X130.744 Y104.806 E23.9171
G1 X130.908 Y104.536 E23.9296
G1 X131.479 Y104.536 E23.9520
G1 X131.694 Y104.806 E23.9656
G1 X131.694 Y105.606 E23.9971
G1 X131.479 Y105.801 E24.0085
G1 X130.336 Y105.801 E24.0535
G0 X130.160 Y105.606 F5400
G0 X130.160 Y104.121
G0 X130.336 Y103.903
G0 X133.651 Y103.903
G0 X133.908 Y104.121
G0 X133.908 Y105.606
G0 X133.651 Y105.801
G0 X132.508 Y105.801
G0 X132.326 Y105.606
G0 X132.326 Y104.806
G0 X132.508 Y104.536
G0 X133.079 Y104.536
G0 X133.275 Y104.806
G0 X133.275 Y104.921
G0 X133.079 Y105.168
G0 X132.851 Y105.168
G1 X133.079 Y105.168 E24.0625 F1440
G1 X133.233 Y105.126 E24.0704
G1 X133.275 Y104.921 E24.0787
G1 X133.275 Y104.806 E24.0832
G1 X133.233 Y104.578 E24.0948
G1 X133.079 Y104.536 E24.1011
G1 X132.508 Y104.536 E24.1235
G1 X132.368 Y104.578 E24.1308
G1 X132.326 Y104.806 E24.1400
G1 X132.326 Y105.606 E24.1714
G1 X132.348 Y105.664 E24.1742
G0 X132.348 Y105.664 F5400
G0 X132.368 Y105.721
G0 X132.368 Y105.949
G0 X132.326 Y106.064
G0 X132.326 Y106.864
G0 X132.368 Y107.024
G0 X132.508 Y107.066
G0 X133.079 Y107.066
G0 X133.233 Y107.024
G0 X133.275 Y106.864
G0 X133.275 Y106.635
G0 X133.233 Y106.476
G0 X133.079 Y106.434
G0 X132.851 Y106.434
G0 X132.851 Y106.434
G0 X133.079 Y106.434
G0 X133.275 Y106.635
G0 X133.275 Y106.864
G0 X133.079 Y107.066
G0 X132.508 Y107.066
G0 X132.326 Y106.864
G0 X132.326 Y106.064
G0 X132.508 Y105.801
G0 X133.651 Y105.801
G0 X133.908 Y106.064
G0 X133.908 Y107.435
G0 X133.651 Y107.699
G0 X131.251 Y107.699
G0 X131.136 Y107.793
G0 X131.022 Y107.746
G0 X130.791 Y107.614
G0 X130.548 Y107.371
G0 X130.794 Y107.024
G0 X130.908 Y107.066
G0 X131.479 Y107.066
G0 X131.651 Y107.024
G0 X131.694 Y106.864
G0 X131.694 Y106.080
G0 X131.694 Y106.080
G0 X131.694 Y106.080
G0 X131.694 Y106.080
G0 X131.125 Y106.441
G0 X131.136 Y106.434
G1 X130.908 Y106.434 E24.1832 F1440
G1 X130.787 Y106.476 E24.1896
G1 X130.744 Y106.635 E24.1961
G1 X130.744 Y106.864 E24.2051
G1 X130.787 Y106.978 E24.2111
G1 X130.510 Y107.249 E24.2137
G0 X130.510 Y107.249 F5400
G0 X130.467 Y107.291
G0 X130.225 Y107.048
G0 X130.160 Y106.864
G0 X130.160 Y106.064
G0 X130.336 Y105.801
G0 X130.336 Y105.801
G0 X131.024 Y105.801
G0 X131.024 Y105.801
G0 X131.024 Y105.801
G0 X131.024 Y105.801
G0 X130.336 Y105.801
G0 X131.479 Y105.801
G0 X131.694 Y105.606
G0 X131.694 Y104.806
G0 X131.479 Y104.536
G0 X131.472 Y104.536
G0 X131.472 Y104.536
G0 X131.472 Y104.536
G0 X131.472 Y104.536
G0 X130.908 Y104.536
G0 X130.787 Y104.578
G0 X130.744 Y104.806
G0 X130.744 Y104.921
G0 X130.787 Y105.126
G0 X130.908 Y105.168
G0 X131.136 Y105.168
G0 X131.136 Y105.168
G0 X130.908 Y105.168
G0 X130.744 Y104.921
G0 X130.744 Y104.806
G0 X130.908 Y104.536
G0 X131.479 Y104.536
G0 X131.694 Y104.806
G0 X131.694 Y105.606
G0 X131.479 Y105.801
G0 X130.336 Y105.801
G0 X130.160 Y105.606
G0 X130.160 Y104.121
G0 X130.336 Y103.903
G0 X131.697 Y103.903
G0 X131.697 Y103.903
G0 X131.697 Y103.903
G0 X131.697 Y103.903
G0 X133.651 Y103.903
G0 X133.908 Y103.664
G0 X133.908 Y102.178
G0 X133.651 Y102.005
G0 X132.508 Y102.005
G0 X132.326 Y102.178
G0 X132.326 Y103.092
G0 X132.508 Y103.270
G0 X133.079 Y103.270
G0 X133.275 Y103.092
G0 X133.275 Y102.864
G0 X133.079 Y102.638
G0 X132.851 Y102.638
G0 X132.851 Y102.638
G0 X133.079 Y102.638
G0 X133.233 Y102.680
G0 X133.275 Y102.864
G0 X133.275 Y103.092
G0 X133.233 Y103.228
G0 X133.079 Y103.270
G0 X132.508 Y103.270
G0 X132.368 Y103.228
G0 X132.326 Y103.092
G0 X132.326 Y102.178
G0 X132.368 Y102.064
G0 X132.368 Y102.009
G0 X132.368 Y102.009
G0 X132.373 Y101.997
G0 X132.368 Y102.009
G1 X132.368 Y102.064 E24.2164 F1440
G0 X132.326 Y102.178 F5400
G0 X132.326 Y103.092
G1 X132.368 Y103.228 E24.2235 F1440
G0 X132.508 Y103.270 F5400
G0 X133.079 Y103.270
G1 X133.233 Y103.228 E24.2315 F1440
G0 X133.275 Y103.092 F5400
G0 X133.275 Y102.864
G1 X133.233 Y102.680 E24.2409 F1440
G0 X133.079 Y102.638 F5400
G0 X132.851 Y102.638
G1 X133.079 Y102.638 E24.2499 F1440
G1 X133.275 Y102.864 E24.2617
G1 X133.275 Y103.092 E24.2707
G1 X133.079 Y103.270 E24.2811
G1 X132.508 Y103.270 E24.3036
G1 X132.326 Y103.092 E24.3136
G1 X132.326 Y102.178 E24.3496
G1 X132.508 Y102.005 E24.3594
G1 X133.651 Y102.005 E24.4044
G0 X133.908 Y102.178 F5400
G0 X133.908 Y103.664
G1 X133.651 Y103.903 E24.4182 F1440
G1 X130.336 Y103.903 E24.5487
G0 X130.160 Y103.664 F5400
G0 X130.160 Y102.178
G0 X130.336 Y102.005
G0 X131.479 Y102.005
G0 X131.694 Y102.178
G0 X131.694 Y103.092
G0 X131.479 Y103.270
G0 X130.908 Y103.270
G0 X130.744 Y103.092
G0 X130.744 Y102.864
G0 X130.908 Y102.638
G0 X131.136 Y102.638
G1 X130.908 Y102.638 E24.5577 F1440
G1 X130.787 Y102.680 E24.5641
G1 X130.744 Y102.864 E24.5715
G1 X130.744 Y103.092 E24.5805
G1 X130.787 Y103.228 E24.5876
G1 X130.908 Y103.270 E24.5926
G1 X131.479 Y103.270 E24.6151
G1 X131.651 Y103.228 E24.6240
G1 X131.694 Y103.092 E24.6296
G1 X131.694 Y102.178 E24.6655
G1 X131.651 Y102.064 E24.6716
G1 X131.651 Y101.949 E24.6773
G0 X131.694 Y101.835 F5400
G0 X131.694 Y100.921
G1 X131.651 Y100.782 E24.6846 F1440
G0 X131.479 Y100.740 F5400
G0 X130.908 Y100.740
G1 X130.787 Y100.782 E24.6910 F1440
G0 X130.744 Y100.921 F5400
G0 X130.744 Y101.149
G1 X130.787 Y101.330 E24.7002 F1440
G0 X130.908 Y101.372 F5400
G0 X131.136 Y101.372
G1 X130.908 Y101.372 E24.7092 F1440
G1 X130.744 Y101.149 E24.7201
G1 X130.744 Y100.921 E24.7291
G1 X130.908 Y100.740 E24.7387
G1 X131.479 Y100.740 E24.7612
G1 X131.694 Y100.921 E24.7722
G1 X131.694 Y101.835 E24.8082
G1 X131.479 Y102.005 E24.8190
G1 X130.336 Y102.005 E24.8640
G0 X130.160 Y101.835 F5400
G0 X130.160 Y100.349
G0 X130.336 Y100.156
G0 X133.651 Y100.156
G0 X133.908 Y100.349
G0 X133.908 Y101.835
G0 X133.651 Y102.005
G0 X132.508 Y102.005
G0 X132.326 Y101.835
G0 X132.326 Y100.921
G0 X132.508 Y100.740
G0 X133.079 Y100.740
G0 X133.275 Y100.921
G0 X133.275 Y101.149
G0 X133.079 Y101.372
G0 X132.851 Y101.372
G1 X133.079 Y101.372 E24.8729 F1440
G1 X133.233 Y101.330 E24.8809
G1 X133.275 Y101.149 E24.8882
G1 X133.275 Y100.921 E24.8972
G1 X133.233 Y100.782 E24.9044
G1 X133.079 Y100.740 E24.9107
G1 X132.508 Y100.740 E24.9332
G1 X132.368 Y100.782 E24.9405
G1 X132.326 Y100.921 E24.9462
G1 X132.326 Y101.835 E24.9822
G1 X132.348 Y101.893 E24.9849
G0 X132.348 Y101.893 F5400
G0 X132.368 Y101.949
G0 X132.368 Y102.064
G0 X132.326 Y102.178
G0 X132.326 Y103.092
G0 X132.368 Y103.228
G0 X132.508 Y103.270
G0 X133.079 Y103.270
G0 X133.233 Y103.228
G0 X133.275 Y103.092
G0 X133.275 Y102.864
G0 X133.233 Y102.680
G0 X133.079 Y102.638
G0 X132.851 Y102.638
G0 X132.851 Y102.638
G0 X133.079 Y102.638
G0 X133.275 Y102.864
G0 X133.275 Y103.092
G0 X133.079 Y103.270
G0 X132.508 Y103.270
G0 X132.326 Y103.092
G0 X132.326 Y102.178
G0 X132.443 Y102.066
G0 X132.443 Y102.066
G0 X132.326 Y102.178
G0 X132.326 Y103.092
G0 X132.508 Y103.270
G0 X133.079 Y103.270
G0 X133.100 Y103.252
G0 X133.100 Y103.252
G0 X133.106 Y103.263
G0 X133.106 Y103.263
G0 X133.233 Y103.228
G0 X133.275 Y103.092
G0 X133.275 Y102.864
G0 X133.233 Y102.680
G0 X133.079 Y102.638
G0 X132.851 Y102.638
G0 X132.851 Y102.638
G0 X133.079 Y102.638
G0 X133.275 Y102.864
G0 X133.275 Y103.092
G0 X133.079 Y103.270
G0 X132.508 Y103.270
G0 X132.326 Y103.092
G0 X132.326 Y102.178
G0 X132.508 Y102.005
G0 X133.651 Y102.005
G0 X133.908 Y102.178
G0 X133.908 Y103.664
G0 X133.651 Y103.903
G0 X133.651 Y103.903
G0 X133.460 Y103.903
G0 X133.460 Y103.903
G0 X133.460 Y103.903
G0 X133.460 Y103.903
G0 X133.908 Y104.121
G0 X133.908 Y104.712
G0 X133.908 Y104.712
G0 X133.908 Y104.712
G0 X133.908 Y104.712
G0 X133.908 Y105.606
G0 X134.108 Y105.801
G0 X134.510 Y105.801
G0 X134.510 Y105.801
G0 X134.510 Y105.801
G0 X134.510 Y105.801
G0 X135.251 Y105.801
G0 X135.489 Y106.064
G0 X135.489 Y106.864
G0 X135.251 Y107.066
G0 X134.794 Y107.066
G0 X134.540 Y106.864
G0 X134.540 Y106.635
G0 X134.794 Y106.434
G0 X134.908 Y106.434
G0 X134.908 Y106.434
G0 X134.860 Y106.434
G0 X134.860 Y106.434
G0 X134.860 Y106.434
G0 X134.860 Y106.434
G0 X134.908 Y106.434
G0 X134.908 Y106.434
G0 X134.794 Y106.434
G0 X134.583 Y106.476
G0 X134.540 Y106.635
G0 X134.540 Y106.864
G0 X134.583 Y107.024
G0 X134.794 Y107.066
G0 X135.210 Y107.066
G0 X135.210 Y107.066
G0 X135.210 Y107.066
G0 X135.210 Y107.066
G0 X135.251 Y107.066
G0 X135.489 Y106.864
G0 X135.489 Y106.064
G0 X135.251 Y105.801
G0 X134.108 Y105.801
G0 X133.908 Y106.064
G0 X133.908 Y107.435
G0 X134.108 Y107.699
G0 X135.560 Y107.699
G0 X135.560 Y107.699
G0 X135.560 Y107.699
G0 X135.560 Y107.699
G0 X137.536 Y107.699
G0 X137.704 Y107.892
G0 X137.704 Y109.378
G0 X137.536 Y109.597
G0 X136.394 Y109.597
G0 X136.122 Y109.378
G0 X136.122 Y108.578
G0 X136.394 Y108.332
G0 X136.851 Y108.332
G0 X137.071 Y108.578
G0 X137.071 Y108.806
G0 X136.851 Y108.964
G0 X136.622 Y108.964
G0 X136.622 Y108.964
G0 X136.851 Y108.964
G0 X137.029 Y108.922
G0 X137.071 Y108.806
G0 X137.071 Y108.578
G0 X137.029 Y108.374
G0 X136.851 Y108.332
G0 X136.394 Y108.332
G0 X136.279 Y108.374
G0 X136.164 Y108.374
G0 X136.122 Y108.578
G0 X136.122 Y108.715
G0 X136.122 Y108.715
G0 X136.122 Y108.715
G0 X136.122 Y108.715
G0 X136.122 Y109.378
G0 X136.394 Y109.597
G0 X136.610 Y109.597
G0 X136.610 Y109.597
G0 X136.610 Y109.597
G0 X136.610 Y109.597
G0 X136.394 Y109.597
G0 X136.122 Y109.835
G0 X136.122 Y110.635
G0 X136.394 Y110.862
G0 X136.851 Y110.862
G0 X137.071 Y110.635
G0 X137.071 Y110.406
G0 X136.851 Y110.230
G0 X136.622 Y110.230
G0 X136.622 Y110.230
G0 X136.851 Y110.230
G0 X136.977 Y110.260
G0 X136.977 Y110.260
G0 X136.851 Y110.230
G0 X136.622 Y110.230
G0 X136.622 Y110.230
G0 X136.851 Y110.230
G0 X137.048 Y110.388
G0 X137.048 Y110.388
G0 X137.071 Y110.406
G0 X137.071 Y110.430
G0 X137.071 Y110.430
G0 X137.071 Y110.430
G0 X137.071 Y110.430
G0 X137.071 Y110.406
G0 X137.029 Y110.272
G0 X136.851 Y110.230
G0 X136.622 Y110.230
G0 X136.622 Y110.230
G0 X136.851 Y110.230
G0 X137.071 Y110.406
G0 X137.071 Y110.635
G0 X136.851 Y110.862
G0 X136.394 Y110.862
G0 X136.122 Y110.635
G0 X136.122 Y109.835
G0 X136.394 Y109.597
G0 X137.536 Y109.597
G0 X137.704 Y109.835
G0 X137.704 Y111.321
G0 X137.536 Y111.446
G0 X137.536 Y111.446
G0 X137.604 Y111.393
G0 X137.604 Y111.393
G0 X137.536 Y111.446
G0 X137.536 Y111.446
G0 X137.605 Y111.395
G0 X137.605 Y111.395
G0 X137.610 Y111.404
G0 X137.604 Y111.393
G1 X137.536 Y111.446 E24.9873 F1440
G1 X134.794 Y111.446 E25.0618
G1 X134.679 Y111.454 E25.0647
G1 X134.565 Y111.406 E25.0693
G1 X134.590 Y111.411 E25.0702
G1 X134.509 Y111.330 E25.0740
G1 X134.428 Y111.249 E25.0779
G1 X134.347 Y111.169 E25.0817
G1 X134.266 Y111.088 E25.0855
G1 X134.186 Y111.007 E25.0894
G1 X134.105 Y110.926 E25.0932
G1 X134.024 Y110.846 E25.0970
G0 X133.938 Y110.770 F5400
G0 X133.891 Y110.656
G0 X133.843 Y110.541
G0 X133.796 Y110.427
G1 X133.666 Y110.395 E25.1037 F1440
G1 X133.100 Y109.830 E25.1436
G0 X133.065 Y109.703 F5400
G0 X132.951 Y109.656
G0 X132.836 Y109.609
G0 X132.722 Y109.561
G1 X132.650 Y109.472 E25.1475 F1440
G1 X132.569 Y109.391 E25.1513
G1 X132.488 Y109.310 E25.1552
G1 X132.407 Y109.230 E25.1590
G0 X132.336 Y109.139 F5400
G0 X132.289 Y109.025
G0 X132.241 Y108.911
G0 X132.194 Y108.797
G1 X132.003 Y108.826 E25.1655 F1440
G1 X131.922 Y108.745 E25.1693
G1 X131.842 Y108.664 E25.1732
G1 X131.761 Y108.583 E25.1770
G0 X131.695 Y108.487 F5400
G0 X131.646 Y108.375
G0 X131.532 Y108.327
G1 X131.437 Y108.260 E25.1809 F1440
G1 X131.357 Y108.179 E25.1848
G1 X131.276 Y108.098 E25.1886
G1 X131.195 Y108.018 E25.1924
G0 X131.222 Y107.829 F5400
G0 X131.108 Y107.781
G0 X130.994 Y107.734
G0 X130.879 Y107.687
G1 X130.791 Y107.614 E25.1963 F1440
G1 X130.710 Y107.533 E25.2001
G1 X130.629 Y107.452 E25.2040
G1 X130.548 Y107.371 E25.2078
G1 X130.467 Y107.291 E25.2117
G1 X130.387 Y107.210 E25.2155
G1 X130.306 Y107.129 E25.2194
G1 X130.225 Y107.048 E25.2232
G1 X130.173 Y106.978 E25.2258
G1 X130.160 Y106.864 E25.2290
G1 X130.160 Y106.064 E25.2508
G1 X130.251 Y105.949 E25.2580
G1 X130.251 Y105.721 E25.2694
G1 X130.160 Y105.606 E25.2734
G1 X130.160 Y104.121 E25.3139
G1 X130.251 Y104.006 E25.3211
G1 X130.251 Y103.778 E25.3325
G1 X130.160 Y103.664 E25.3365
G1 X130.160 Y102.178 E25.3770
G1 X130.251 Y102.064 E25.3842
G1 X130.251 Y101.949 E25.3899
G1 X130.160 Y101.835 E25.3939
G1 X130.160 Y100.349 E25.4344
G1 X130.336 Y100.156 E25.4415
G1 X133.651 Y100.156 E25.5317
G1 X133.765 Y100.247 E25.5390
G1 X133.994 Y100.247 E25.5504
G1 X134.108 Y100.156 E25.5544
G1 X137.536 Y100.156 E25.6477
G1 X137.651 Y100.247 E25.6550
G1 X137.765 Y100.247 E25.6607
G1 X137.879 Y100.156 E25.6646
G1 X141.308 Y100.156 E25.7580
G1 X141.451 Y100.349 E25.7645
G1 X141.451 Y101.835 E25.8050
G1 X141.360 Y101.949 E25.8123
G1 X141.360 Y102.064 E25.8180
G1 X141.451 Y102.178 E25.8219
G1 X141.451 Y103.664 E25.8624
G1 X141.360 Y103.778 E25.8697
G1 X141.360 Y104.006 E25.8811
G1 X141.451 Y104.121 E25.8850
G1 X141.451 Y105.606 E25.9255
G1 X141.360 Y105.721 E25.9328
G1 X141.360 Y105.949 E25.9442
G1 X141.451 Y106.064 E25.9481
G1 X141.451 Y107.435 E25.9855
G1 X141.360 Y107.549 E25.9928
G1 X141.360 Y107.778 E26.0042
G1 X141.451 Y107.892 E26.0081
G1 X141.451 Y109.378 E26.0486
G1 X141.360 Y109.492 E26.0559
G1 X141.360 Y109.721 E26.0673
G1 X141.451 Y109.835 E26.0712
G1 X141.451 Y111.321 E26.1117
G1 X141.308 Y111.446 E26.1168
G1 X137.879 Y111.446 E26.2101
G1 X137.765 Y111.355 E26.2174
G1 X137.711 Y111.355 E26.2201
G0 F3000 E25.2201
G0 X135.098 Y111.112 F5400
G0 X132.485 Y110.868
G0 X124.646 Y110.138
G0 X122.034 Y109.895
G0 F3000 E26.2201
G1 X122.034 Y110.292 E26.2399 F1440
G1 X122.117 Y110.406 E26.2499
G1 X122.070 Y110.521 E26.2571
G1 X122.022 Y110.635 E26.2630
G0 X121.867 Y110.866 F5400
G0 X121.624 Y111.109
G1 X121.317 Y110.749 E26.2866 F1440
G0 X121.359 Y110.635 F5400
G0 X121.359 Y110.406
G1 X121.317 Y110.282 E26.2931 F1440
G0 X121.194 Y110.240 F5400
G0 X120.965 Y110.240
G1 X121.194 Y110.240 E26.3021 F1440
G1 X121.359 Y110.406 E26.3114
G1 X121.359 Y110.635 E26.3204
G0 X121.194 Y110.872 F5400
G0 X120.622 Y110.872
G0 X120.410 Y110.635
G0 X120.410 Y109.835
G0 X120.622 Y109.607
G0 X121.765 Y109.607
G1 X121.988 Y109.796 E26.3325 F1440
G0 X122.446 Y109.913 F5400
G1 X122.183 Y109.603 E26.3520 F1440
G1 X121.991 Y109.378 E26.3637
G1 X121.991 Y107.892 E26.4222
G0 X122.222 Y107.709 F5400
G0 X124.622 Y107.709
G0 X124.695 Y108.038
G0 X124.534 Y108.200
G1 X124.219 Y108.464 E26.4396 F1440
G0 X124.129 Y108.604 F5400
G0 X123.887 Y108.846
G0 X123.573 Y108.806
G0 X123.573 Y108.578
G1 X123.531 Y108.384 E26.4496 F1440
G0 X123.365 Y108.342 F5400
G0 X122.794 Y108.342
G1 X122.666 Y108.384 E26.4562 F1440
G0 X122.624 Y108.578 F5400
G0 X122.624 Y108.806
G1 X122.666 Y108.932 E26.4629 F1440
G0 X122.794 Y108.974 F5400
G0 X123.022 Y108.974
G1 X122.794 Y108.974 E26.4718 F1440
G1 X122.624 Y108.806 E26.4812
G1 X122.624 Y108.578 E26.4902
G1 X122.794 Y108.342 E26.5017
G1 X123.365 Y108.342 E26.5242
G1 X123.573 Y108.578 E26.5366
G1 X123.573 Y108.806 E26.5456
G1 X123.659 Y108.921 E26.5542
G1 X123.611 Y109.035 E26.5603
G0 X123.483 Y109.250 F5400
G0 X123.241 Y109.493
G1 X123.022 Y109.637 E26.5725 F1440
G1 X122.908 Y109.684 E26.5798
G1 X122.794 Y109.731 E26.5885
G1 X122.679 Y109.649 E26.5955
G1 X122.282 Y109.649 E26.6153
G0 X122.015 Y109.649 F5400
G0 X121.799 Y109.636
G0 X121.765 Y109.607
G0 X120.622 Y109.607
G0 X120.410 Y109.835
G0 X120.410 Y110.635
G0 X120.622 Y110.872
G0 X121.194 Y110.872
G0 X120.622 Y110.872
G0 X120.452 Y110.830
G0 X120.410 Y110.635
G0 X120.410 Y109.835
G0 X120.452 Y109.721
G0 X120.452 Y109.492
G0 X120.410 Y109.378
G0 X120.410 Y108.578
G0 X120.452 Y108.384
G0 X120.622 Y108.342
G0 X121.194 Y108.342
G0 X121.317 Y108.384
G0 X121.359 Y108.578
G0 X121.359 Y108.806
G0 X121.317 Y108.932
G0 X121.194 Y108.974
G0 X120.965 Y108.974
G0 X120.965 Y108.974
G0 X121.194 Y108.974
G0 X121.359 Y108.806
G0 X121.359 Y108.578
G0 X121.194 Y108.342
G0 X120.622 Y108.342
G0 X120.410 Y108.578
G0 X120.410 Y109.378
G0 X120.622 Y109.607
G0 X121.334 Y109.607
G0 X121.334 Y109.607
G0 X121.334 Y109.607
G0 X121.334 Y109.607
G0 X120.622 Y109.607
G0 X120.410 Y109.835
G0 X120.410 Y110.635
G0 X120.622 Y110.872
G0 X121.194 Y110.872
G0 X120.622 Y110.872
G0 X120.452 Y110.830
G0 X120.410 Y110.635
G0 X120.410 Y109.835
G0 X120.452 Y109.721
G0 X120.452 Y109.492
G0 X120.410 Y109.378
G0 X120.410 Y108.578
G0 X120.452 Y108.384
G0 X120.622 Y108.342
G0 X121.194 Y108.342
G0 X121.317 Y108.384
G0 X121.359 Y108.578
G0 X121.359 Y108.806
G0 X121.317 Y108.932
G0 X121.194 Y108.974
G0 X120.965 Y108.974
G0 X120.965 Y108.974
G0 X121.194 Y108.974
G0 X121.359 Y108.806
G0 X121.359 Y108.578
G0 X121.194 Y108.342
G0 X120.622 Y108.342
G0 X120.410 Y108.578
G0 X120.410 Y109.378
G0 X120.579 Y109.560
G0 X120.579 Y109.560
G0 X120.410 Y109.378
G0 X120.410 Y108.578
G0 X120.622 Y108.342
G0 X121.194 Y108.342
G0 X121.359 Y108.578
G0 X121.359 Y108.806
G0 X121.194 Y108.974
G0 X120.965 Y108.974
G0 X120.965 Y108.974
G0 X121.194 Y108.974
G0 X121.317 Y108.932
G0 X121.359 Y108.806
G0 X121.359 Y108.578
G0 X121.317 Y108.384
G0 X121.194 Y108.342
G0 X120.622 Y108.342
G0 X120.452 Y108.384
G0 X120.410 Y108.578
G0 X120.410 Y109.378
G0 X120.452 Y109.492
G0 X120.452 Y109.552
G0 X120.452 Y109.552
G0 X120.439 Y109.551
G0 X120.452 Y109.552
G1 X120.452 Y109.721 E26.6237 F1440
G1 X120.410 Y109.835 E26.6285
G1 X120.410 Y110.635 E26.6600
G1 X120.452 Y110.830 E26.6699
G1 X120.622 Y110.872 E26.6768
G1 X121.194 Y110.872 E26.6993
G1 X121.308 Y110.830 E26.7054
G0 X121.544 Y111.190 F5400
G0 X121.301 Y111.432
G0 X121.194 Y111.456
G0 X118.451 Y111.456
G1 X118.196 Y111.321 E26.7168 F1440
G1 X118.196 Y109.835 E26.7752
G0 X118.451 Y109.607 F5400
G0 X119.594 Y109.607
G0 X119.777 Y109.835
G0 X119.777 Y110.635
G0 X119.594 Y110.872
G0 X119.022 Y110.872
G0 X118.828 Y110.635
G0 X118.828 Y110.406
G0 X119.022 Y110.240
G0 X119.251 Y110.240
G1 X119.022 Y110.240 E26.7842 F1440
G1 X118.870 Y110.282 E26.7921
G1 X118.828 Y110.406 E26.7973
G1 X118.828 Y110.635 E26.8063
G1 X118.870 Y110.830 E26.8162
G1 X119.022 Y110.872 E26.8224
G1 X119.594 Y110.872 E26.8449
G1 X119.735 Y110.830 E26.8523
G1 X119.777 Y110.635 E26.8601
G1 X119.777 Y109.835 E26.8916
G1 X119.735 Y109.721 E26.8977
G1 X119.735 Y109.492 E26.9091
G0 X119.777 Y109.378 F5400
G0 X119.777 Y108.578
G1 X119.735 Y108.384 E26.9190 F1440
G0 X119.594 Y108.342 F5400
G0 X119.022 Y108.342
G1 X118.870 Y108.384 E26.9269 F1440
G0 X118.828 Y108.578 F5400
G0 X118.828 Y108.806
G1 X118.870 Y108.932 E26.9335 F1440
G0 X119.022 Y108.974 F5400
G0 X119.251 Y108.974
G1 X119.022 Y108.974 E26.9425 F1440
G1 X118.828 Y108.806 E26.9525
G1 X118.828 Y108.578 E26.9615
G1 X119.022 Y108.342 E26.9736
G1 X119.594 Y108.342 E26.9961
G1 X119.777 Y108.578 E27.0078
G1 X119.777 Y109.378 E27.0393
G1 X119.594 Y109.607 E27.0509
G1 X118.451 Y109.607 E27.0959
G1 X118.196 Y109.378 E27.1093
G1 X118.196 Y107.892 E27.1678
G0 X118.451 Y107.709 F5400
G0 X121.765 Y107.709
G0 X121.991 Y107.892
G0 X121.991 Y109.378
G1 X121.765 Y109.607 E27.1805 F1440
G1 X120.622 Y109.607 E27.2255
G0 X120.410 Y109.378 F5400
G0 X120.410 Y108.578
G0 X120.622 Y108.342
G0 X121.194 Y108.342
G0 X121.359 Y108.578
G0 X121.359 Y108.806
G0 X121.194 Y108.974
G0 X120.965 Y108.974
G1 X121.194 Y108.974 E27.2345 F1440
G1 X121.317 Y108.932 E27.2410
G1 X121.359 Y108.806 E27.2462
G1 X121.359 Y108.578 E27.2552
G1 X121.317 Y108.384 E27.2651
G1 X121.194 Y108.342 E27.2702
G1 X120.622 Y108.342 E27.2927
G1 X120.452 Y108.384 E27.3014
G1 X120.410 Y108.578 E27.3093
G1 X120.410 Y109.378 E27.3407
G1 X120.431 Y109.436 E27.3435
G0 X120.462 Y109.517 F5400
G0 X120.461 Y109.433
G0 X120.410 Y109.378
G0 X120.410 Y108.578
G0 X120.459 Y108.523
G0 X120.459 Y108.523
G0 X120.622 Y108.342
G0 X121.194 Y108.342
G0 X121.359 Y108.578
G0 X121.359 Y108.806
G0 X121.194 Y108.974
G0 X120.965 Y108.974
G0 X120.965 Y108.974
G0 X121.194 Y108.974
G0 X121.317 Y108.932
G0 X121.359 Y108.806
G0 X121.359 Y108.578
G0 X121.317 Y108.384
G0 X121.194 Y108.342
G0 X120.622 Y108.342
G0 X120.459 Y108.382
G0 X120.459 Y108.382
G0 X120.622 Y108.342
G0 X121.194 Y108.342
G0 X121.317 Y108.384
G0 X121.359 Y108.578
G0 X121.359 Y108.806
G0 X121.317 Y108.932
G0 X121.194 Y108.974
G0 X120.965 Y108.974
G0 X120.965 Y108.974
G0 X121.194 Y108.974
G0 X121.359 Y108.806
G0 X121.359 Y108.578
G0 X121.194 Y108.342
G0 X120.622 Y108.342
G0 X120.410 Y108.578
G0 X120.410 Y109.378
G0 X120.622 Y109.607
G0 X121.765 Y109.607
G0 X121.991 Y109.378
G0 X121.991 Y107.892
G0 X121.765 Y107.709
G0 X120.457 Y107.709
G0 X120.457 Y107.709
G0 X120.457 Y107.709
G0 X120.457 Y107.709
G0 X121.765 Y107.709
G0 X121.991 Y107.549
G0 X121.991 Y106.064
G0 X121.765 Y105.811
G0 X120.622 Y105.811
G0 X120.410 Y106.064
G0 X120.410 Y106.864
G0 X120.622 Y107.076
G0 X121.194 Y107.076
G0 X121.359 Y106.864
G0 X121.359 Y106.635
G0 X121.194 Y106.444
G0 X120.965 Y106.444
G0 X120.965 Y106.444
G0 X121.194 Y106.444
G0 X121.317 Y106.486
G0 X121.359 Y106.635
G0 X121.359 Y106.864
G0 X121.317 Y107.034
G0 X121.194 Y107.076
G0 X120.622 Y107.076
G0 X120.455 Y107.035
G0 X120.455 Y107.035
G0 X120.622 Y107.076
G0 X121.194 Y107.076
G0 X121.317 Y107.034
G0 X121.359 Y106.864
G0 X121.359 Y106.635
G0 X121.317 Y106.486
G0 X121.194 Y106.444
G0 X120.965 Y106.444
G0 X120.965 Y106.444
G0 X121.194 Y106.444
G0 X121.359 Y106.635
G0 X121.359 Y106.864
G0 X121.194 Y107.076
G0 X120.622 Y107.076
G0 X120.455 Y106.909
G0 X120.455 Y106.909
G0 X120.410 Y106.864
G0 X120.410 Y106.064
G0 X120.453 Y106.013
G0 X120.453 Y106.013
G0 X120.410 Y106.064
G0 X120.410 Y106.864
G0 X120.622 Y107.076
G0 X121.194 Y107.076
G0 X121.359 Y106.864
G0 X121.359 Y106.635
G0 X121.194 Y106.444
G0 X120.965 Y106.444
G0 X120.965 Y106.444
G0 X121.194 Y106.444
G0 X121.317 Y106.486
G0 X121.359 Y106.635
G0 X121.359 Y106.864
G0 X121.317 Y107.034
G0 X121.194 Y107.076
G0 X120.622 Y107.076
G0 X120.452 Y107.034
G0 X120.410 Y106.864
G0 X120.410 Y106.064
G0 X120.452 Y105.949
G0 X120.452 Y105.781
G0 X120.452 Y105.781
G0 X120.452 Y105.768
G0 X120.452 Y105.781
G1 X120.452 Y105.949 E27.3519 F1440
G0 X120.410 Y106.064 F5400
G0 X120.410 Y106.864
G1 X120.452 Y107.034 E27.3607 F1440
G0 X120.622 Y107.076 F5400
G0 X121.194 Y107.076
G1 X121.317 Y107.034 E27.3672 F1440
G0 X121.359 Y106.864 F5400
G0 X121.359 Y106.635
G1 X121.317 Y106.486 E27.3749 F1440
G0 X121.194 Y106.444 F5400
G0 X120.965 Y106.444
G1 X121.194 Y106.444 E27.3839 F1440
G1 X121.359 Y106.635 E27.3939
G1 X121.359 Y106.864 E27.4029
G1 X121.194 Y107.076 E27.4135
G1 X120.622 Y107.076 E27.4359
G1 X120.410 Y106.864 E27.4478
G1 X120.410 Y106.064 E27.4793
G1 X120.622 Y105.811 E27.4922
G1 X121.765 Y105.811 E27.5372
G0 X121.991 Y106.064 F5400
G0 X121.991 Y107.549
G1 X121.765 Y107.709 E27.5481 F1440
G1 X118.451 Y107.709 E27.6786
G1 X118.196 Y107.549 E27.6904
G1 X118.196 Y106.064 E27.7489
G0 X118.451 Y105.811 F5400
G0 X119.594 Y105.811
G0 X119.777 Y106.064
G0 X119.777 Y106.864
G0 X119.594 Y107.076
G0 X119.022 Y107.076
G0 X118.828 Y106.864
G0 X118.828 Y106.635
G0 X119.022 Y106.444
G0 X119.251 Y106.444
G1 X119.022 Y106.444 E27.7579 F1440
G1 X118.870 Y106.486 E27.7657
G1 X118.828 Y106.635 E27.7718
G1 X118.828 Y106.864 E27.7808
G1 X118.870 Y107.034 E27.7896
G1 X119.022 Y107.076 E27.7958
G1 X119.594 Y107.076 E27.8183
G1 X119.735 Y107.034 E27.8256
G1 X119.777 Y106.864 E27.8326
G1 X119.777 Y106.064 E27.8640
G1 X119.735 Y105.949 E27.8701
G1 X119.735 Y105.721 E27.8815
G0 X119.777 Y105.606 F5400
G0 X119.777 Y104.806
G1 X119.735 Y104.588 E27.8926 F1440
G0 X119.594 Y104.546 F5400
G0 X119.022 Y104.546
G1 X118.870 Y104.588 E27.9005 F1440
G0 X118.828 Y104.806 F5400
G0 X118.828 Y104.921
G1 X118.870 Y105.136 E27.9114 F1440
G0 X119.022 Y105.178 F5400
G0 X119.251 Y105.178
G1 X119.022 Y105.178 E27.9204 F1440
G1 X118.828 Y104.921 E27.9331
G1 X118.828 Y104.806 E27.9376
G1 X119.022 Y104.546 E27.9504
G1 X119.594 Y104.546 E27.9729
G1 X119.777 Y104.806 E27.9854
G1 X119.777 Y105.606 E28.0169
G1 X119.594 Y105.811 E28.0278
G1 X118.451 Y105.811 E28.0727
G1 X118.196 Y105.606 E28.0856
G1 X118.196 Y104.121 E28.1441
G0 X118.451 Y103.913 F5400
G0 X121.765 Y103.913
G0 X121.991 Y104.121
G0 X121.991 Y105.606
G0 X121.765 Y105.811
G0 X120.622 Y105.811
G0 X120.410 Y105.606
G0 X120.410 Y104.806
G0 X120.622 Y104.546
G0 X121.194 Y104.546
G0 X121.359 Y104.806
G0 X121.359 Y104.921
G0 X121.194 Y105.178
G0 X120.965 Y105.178
G1 X121.194 Y105.178 E28.1531 F1440
G1 X121.317 Y105.136 E28.1596
G1 X121.359 Y104.921 E28.1682
G1 X121.359 Y104.806 E28.1727
G1 X121.317 Y104.588 E28.1838
G1 X121.194 Y104.546 E28.1889
G1 X120.622 Y104.546 E28.2114
G1 X120.452 Y104.588 E28.2202
G1 X120.410 Y104.806 E28.2289
G1 X120.410 Y105.606 E28.2604
G1 X120.431 Y105.664 E28.2632
G0 X120.458 Y105.736 F5400
G0 X120.458 Y105.653
G0 X120.410 Y105.606
G0 X120.410 Y104.806
G0 X120.456 Y104.749
G0 X120.456 Y104.749
G0 X120.622 Y104.546
G0 X121.194 Y104.546
G0 X121.359 Y104.806
G0 X121.359 Y104.921
G0 X121.194 Y105.178
G0 X120.965 Y105.178
G0 X120.965 Y105.178
G0 X121.194 Y105.178
G0 X121.317 Y105.136
G0 X121.359 Y104.921
G0 X121.359 Y104.806
G0 X121.317 Y104.588
G0 X121.194 Y104.546
G0 X120.622 Y104.546
G0 X120.456 Y104.587
G0 X120.456 Y104.587
G0 X120.622 Y104.546
G0 X121.194 Y104.546
G0 X121.317 Y104.588
G0 X121.359 Y104.806
G0 X121.359 Y104.921
G0 X121.317 Y105.136
G0 X121.194 Y105.178
G0 X120.965 Y105.178
G0 X120.965 Y105.178
G0 X121.194 Y105.178
G0 X121.359 Y104.921
G0 X121.359 Y104.806
G0 X121.194 Y104.546
G0 X120.622 Y104.546
G0 X120.410 Y104.806
G0 X120.410 Y105.606
G0 X120.622 Y105.811
G0 X121.765 Y105.811
G0 X121.991 Y105.606
G0 X121.991 Y104.121
G0 X121.765 Y103.913
G0 X120.455 Y103.913
G0 X120.455 Y103.913
G0 X120.455 Y103.913
G0 X120.455 Y103.913
G0 X121.765 Y103.913
G0 X121.991 Y103.664
G0 X121.991 Y102.178
G0 X121.765 Y102.015
G0 X120.622 Y102.015
G0 X120.410 Y102.178
G0 X120.410 Y103.092
G0 X120.622 Y103.280
G0 X121.194 Y103.280
G0 X121.359 Y103.092
G0 X121.359 Y102.864
G0 X121.194 Y102.648
G0 X120.965 Y102.648
G0 X120.965 Y102.648
G0 X121.194 Y102.648
G0 X121.317 Y102.690
G0 X121.359 Y102.864
G0 X121.359 Y103.092
G0 X121.317 Y103.238
G0 X121.194 Y103.280
G0 X120.622 Y103.280
G0 X120.454 Y103.239
G0 X120.454 Y103.239
G0 X120.622 Y103.280
G0 X121.194 Y103.280
G0 X121.317 Y103.238
G0 X121.359 Y103.092
G0 X121.359 Y102.864
G0 X121.317 Y102.690
G0 X121.194 Y102.648
G0 X120.965 Y102.648
G0 X120.965 Y102.648
G0 X121.194 Y102.648
G0 X121.359 Y102.864
G0 X121.359 Y103.092
G0 X121.194 Y103.280
G0 X120.622 Y103.280
G0 X120.454 Y103.131
G0 X120.454 Y103.131
G0 X120.452 Y102.145
G0 X120.452 Y102.145
G0 X120.410 Y102.178
G0 X120.410 Y103.092
G0 X120.622 Y103.280
G0 X121.194 Y103.280
G0 X121.359 Y103.092
G0 X121.359 Y102.864
G0 X121.194 Y102.648
G0 X120.965 Y102.648
G0 X120.965 Y102.648
G0 X121.194 Y102.648
G0 X121.317 Y102.690
G0 X121.359 Y102.864
G0 X121.359 Y103.092
G0 X121.317 Y103.238
G0 X121.194 Y103.280
G0 X120.622 Y103.280
G0 X120.452 Y103.238
G0 X120.410 Y103.092
G0 X120.410 Y102.178
G0 X120.452 Y102.064
G0 X120.452 Y102.009
G0 X120.452 Y102.009
G0 X120.452 Y101.996
G0 X120.452 Y102.009
G1 X120.452 Y102.064 E28.2659 F1440
G0 X120.410 Y102.178 F5400
G0 X120.410 Y103.092
G1 X120.452 Y103.238 E28.2734 F1440
G0 X120.622 Y103.280 F5400
G0 X121.194 Y103.280
G1 X121.317 Y103.238 E28.2799 F1440
G0 X121.359 Y103.092 F5400
G0 X121.359 Y102.864
G1 X121.317 Y102.690 E28.2889 F1440
G0 X121.194 Y102.648 F5400
G0 X120.965 Y102.648
G1 X121.194 Y102.648 E28.2979 F1440
G1 X121.359 Y102.864 E28.3086
G1 X121.359 Y103.092 E28.3176
G1 X121.194 Y103.280 E28.3274
G1 X120.622 Y103.280 E28.3499
G1 X120.410 Y103.092 E28.3611
G1 X120.410 Y102.178 E28.3971
G1 X120.622 Y102.015 E28.4076
G1 X121.765 Y102.015 E28.4525
G0 X121.991 Y102.178 F5400
G0 X121.991 Y103.664
G1 X121.765 Y103.913 E28.4658 F1440
G1 X118.451 Y103.913 E28.5962
G1 X118.196 Y103.664 E28.6102
G1 X118.196 Y102.178 E28.6687
G0 X118.451 Y102.015 F5400
G0 X119.594 Y102.015
G0 X119.777 Y102.178
G0 X119.777 Y103.092
G0 X119.594 Y103.280
G0 X119.022 Y103.280
G0 X118.828 Y103.092
G0 X118.828 Y102.864
G0 X119.022 Y102.648
G0 X119.251 Y102.648
G1 X119.022 Y102.648 E28.6777 F1440
G1 X118.870 Y102.690 E28.6856
G1 X118.828 Y102.864 E28.6926
G1 X118.828 Y103.092 E28.7016
G1 X118.870 Y103.238 E28.7092
G1 X119.022 Y103.280 E28.7154
G1 X119.594 Y103.280 E28.7379
G1 X119.735 Y103.238 E28.7452
G1 X119.777 Y103.092 E28.7512
G1 X119.777 Y102.178 E28.7872
G1 X119.735 Y102.064 E28.7933
G1 X119.735 Y101.949 E28.7990
G0 X119.777 Y101.835 F5400
G0 X119.777 Y100.921
G1 X119.735 Y100.792 E28.8057 F1440
G0 X119.594 Y100.750 F5400
G0 X119.022 Y100.750
G1 X118.870 Y100.792 E28.8136 F1440
G0 X118.828 Y100.921 F5400
G0 X118.828 Y101.149
G1 X118.870 Y101.340 E28.8233 F1440
G0 X119.022 Y101.383 F5400
G0 X119.251 Y101.383
G1 X119.022 Y101.383 E28.8323 F1440
G1 X118.828 Y101.149 E28.8443
G1 X118.828 Y100.921 E28.8533
G1 X119.022 Y100.750 E28.8634
G1 X119.594 Y100.750 E28.8859
G1 X119.777 Y100.921 E28.8958
G1 X119.777 Y101.835 E28.9318
G1 X119.594 Y102.015 E28.9419
G1 X118.451 Y102.015 E28.9868
G1 X118.196 Y101.835 E28.9991
G1 X118.196 Y100.349 E29.0576
G0 X118.451 Y100.166 F5400
G0 X121.765 Y100.166
G0 X121.991 Y100.349
G0 X121.991 Y101.835
G0 X121.765 Y102.015
G0 X120.622 Y102.015
G0 X120.410 Y101.835
G0 X120.410 Y100.921
G0 X120.622 Y100.750
G0 X121.194 Y100.750
G0 X121.359 Y100.921
G0 X121.359 Y101.149
G0 X121.194 Y101.383
G0 X120.965 Y101.383
G1 X121.194 Y101.383 E29.0666 F1440
G1 X121.317 Y101.340 E29.0731
G1 X121.359 Y101.149 E29.0808
G1 X121.359 Y100.921 E29.0898
G1 X121.317 Y100.792 E29.0965
G1 X121.194 Y100.750 E29.1017
G1 X120.622 Y100.750 E29.1241
G1 X120.452 Y100.792 E29.1329
G1 X120.410 Y100.921 E29.1382
G1 X120.410 Y101.835 E29.1742
G1 X120.431 Y101.893 E29.1770
G0 X120.439 Y101.915 F5400
G0 X120.439 Y101.915
G0 X120.410 Y101.835
G0 X120.410 Y100.921
G0 X120.452 Y100.792
G0 X120.622 Y100.750
G0 X121.194 Y100.750
G0 X121.317 Y100.792
G0 X121.359 Y100.921
G0 X121.359 Y101.149
G0 X121.317 Y101.340
G0 X121.194 Y101.383
G0 X120.965 Y101.383
G0 X120.965 Y101.383
G0 X121.194 Y101.383
G0 X121.359 Y101.149
G0 X121.359 Y100.921
G0 X121.194 Y100.750
G0 X120.622 Y100.750
G0 X120.410 Y100.921
G0 X120.410 Y101.835
G0 X120.622 Y102.015
G0 X121.765 Y102.015
G0 X121.991 Y101.835
G0 X121.991 Y100.349
G0 X121.765 Y100.166
G0 X118.451 Y100.166
G0 X118.196 Y100.349
G0 X118.196 Y101.835
G0 X118.451 Y102.015
G0 X119.594 Y102.015
G0 X119.777 Y101.835
G0 X119.777 Y100.921
G0 X119.594 Y100.750
G0 X119.022 Y100.750
G0 X118.828 Y100.921
G0 X118.828 Y101.149
G0 X119.022 Y101.383
G0 X119.251 Y101.383
G0 X119.251 Y101.383
G0 X119.022 Y101.383
G0 X118.870 Y101.340
G0 X118.828 Y101.149
G0 X118.828 Y100.921
G0 X118.870 Y100.792
G0 X119.022 Y100.750
G0 X119.594 Y100.750
G0 X119.735 Y100.792
G0 X119.777 Y100.921
G0 X119.777 Y101.835
G0 X119.741 Y101.932
G0 X119.741 Y101.932
G0 X119.777 Y101.835
G0 X119.777 Y100.921
G0 X119.735 Y100.792
G0 X119.594 Y100.750
G0 X119.022 Y100.750
G0 X118.870 Y100.792
G0 X118.828 Y100.921
G0 X118.828 Y101.149
G0 X118.870 Y101.340
G0 X119.022 Y101.383
G0 X119.251 Y101.383
G0 X119.251 Y101.383
G0 X119.022 Y101.383
G0 X118.828 Y101.149
G0 X118.828 Y100.921
G0 X119.022 Y100.750
G0 X119.594 Y100.750
G0 X119.777 Y100.921
G0 X119.777 Y101.835
G0 X119.677 Y101.934
G0 X119.677 Y101.934
G0 X119.594 Y102.015
G0 X118.451 Y102.015
G0 X118.381 Y101.966
G0 X118.381 Y101.966
G0 X118.039 Y101.975
G0 X118.039 Y101.975
G0 X117.994 Y102.015
G0 X116.851 Y102.015
G0 X116.837 Y102.005
G0 X116.837 Y102.005
G0 X116.614 Y101.835
G0 X116.614 Y100.921
G0 X116.851 Y100.750
G0 X117.308 Y100.750
G0 X117.563 Y100.921
G0 X117.563 Y101.149
G0 X117.308 Y101.383
G0 X117.194 Y101.383
G0 X117.194 Y101.383
G0 X117.308 Y101.383
G0 X117.521 Y101.340
G0 X117.563 Y101.149
G0 X117.563 Y100.921
G0 X117.521 Y100.792
G0 X117.308 Y100.750
G0 X116.851 Y100.750
G0 X116.656 Y100.792
G0 X116.614 Y100.921
G0 X116.614 Y101.835
G0 X116.656 Y101.949
G0 X116.656 Y102.009
G0 X116.656 Y102.009
G0 X116.643 Y102.010
G0 X116.656 Y102.009
G1 X116.656 Y102.064 E29.1797 F1440
G0 X116.614 Y102.178 F5400
G0 X116.614 Y103.092
G1 X116.656 Y103.238 E29.1872 F1440
G0 X116.851 Y103.280 F5400
G0 X117.308 Y103.280
G1 X117.521 Y103.238 E29.1981 F1440
G0 X117.563 Y103.092 F5400
G0 X117.563 Y102.864
G1 X117.521 Y102.690 E29.2070 F1440
G0 X117.308 Y102.648 F5400
G0 X117.194 Y102.648
G1 X117.308 Y102.648 E29.2115 F1440
G1 X117.563 Y102.864 E29.2246
G1 X117.563 Y103.092 E29.2336
G1 X117.308 Y103.280 E29.2461
G1 X116.851 Y103.280 E29.2641
G1 X116.614 Y103.092 E29.2760
G1 X116.614 Y102.178 E29.3120
G1 X116.851 Y102.015 E29.3233
G1 X117.994 Y102.015 E29.3682
G0 X118.196 Y102.178 F5400
G0 X118.196 Y103.664
G1 X117.994 Y103.913 E29.3809 F1440
G1 X114.565 Y103.913 E29.5158
G0 X114.448 Y103.664 F5400
G0 X114.448 Y102.178
G0 X114.565 Y102.015
G0 X115.822 Y102.015
G0 X115.981 Y102.178
G0 X115.981 Y103.092
G0 X115.822 Y103.280
G0 X115.251 Y103.280
G0 X115.032 Y103.092
G0 X115.032 Y102.864
G0 X115.251 Y102.648
G0 X115.479 Y102.648
G1 X115.251 Y102.648 E29.5248 F1440
G1 X115.075 Y102.690 E29.5338
G1 X115.032 Y102.864 E29.5409
G1 X115.032 Y103.092 E29.5499
G1 X115.075 Y103.238 E29.5574
G1 X115.251 Y103.280 E29.5646
G1 X115.822 Y103.280 E29.5870
G1 X115.939 Y103.238 E29.5932
G1 X115.981 Y103.092 E29.5992
G1 X115.981 Y102.178 E29.6352
G1 X115.939 Y102.064 E29.6413
G1 X115.939 Y101.949 E29.6470
G0 X115.981 Y101.835 F5400
G0 X115.981 Y100.921
G1 X115.939 Y100.792 E29.6537 F1440
G0 X115.822 Y100.750 F5400
G0 X115.251 Y100.750
G1 X115.075 Y100.792 E29.6628 F1440
G0 X115.032 Y100.921 F5400
G0 X115.032 Y101.149
G1 X115.075 Y101.340 E29.6725 F1440
G0 X115.251 Y101.383 F5400
G0 X115.479 Y101.383
G1 X115.251 Y101.383 E29.6815 F1440
G1 X115.032 Y101.149 E29.6941
G1 X115.032 Y100.921 E29.7031
G1 X115.251 Y100.750 E29.7140
G1 X115.822 Y100.750 E29.7365
G1 X115.981 Y100.921 E29.7457
G1 X115.981 Y101.835 E29.7817
G1 X115.822 Y102.015 E29.7911
G1 X114.565 Y102.015 E29.8405
G0 X114.448 Y101.835 F5400
G0 X114.448 Y100.349
G0 X114.565 Y100.166
G0 X117.994 Y100.166
G0 X118.196 Y100.349
G0 X118.196 Y101.835
G0 X117.994 Y102.015
G0 X116.851 Y102.015
G0 X116.614 Y101.835
G0 X116.614 Y100.921
G0 X116.851 Y100.750
G0 X117.308 Y100.750
G0 X117.563 Y100.921
G0 X117.563 Y101.149
G0 X117.308 Y101.383
G0 X117.194 Y101.383
G1 X117.308 Y101.383 E29.8450 F1440
G1 X117.521 Y101.340 E29.8559
G1 X117.563 Y101.149 E29.8636
G1 X117.563 Y100.921 E29.8726
G1 X117.521 Y100.792 E29.8793
G1 X117.308 Y100.750 E29.8879
G1 X116.851 Y100.750 E29.9058
G1 X116.656 Y100.792 E29.9158
G1 X116.614 Y100.921 E29.9211
G1 X116.614 Y101.835 E29.9571
G1 X116.635 Y101.893 E29.9599
G0 X116.646 Y101.921 F5400
G0 X116.646 Y101.921
G0 X116.656 Y101.949
G0 X116.656 Y102.064
G0 X116.646 Y102.091
G0 X116.646 Y102.091
G0 X116.614 Y102.178
G0 X116.614 Y103.092
G0 X116.656 Y103.238
G0 X116.851 Y103.280
G0 X117.308 Y103.280
G0 X117.521 Y103.238
G0 X117.563 Y103.092
G0 X117.563 Y102.864
G0 X117.521 Y102.690
G0 X117.308 Y102.648
G0 X117.194 Y102.648
G0 X117.194 Y102.648
G0 X117.308 Y102.648
G0 X117.563 Y102.864
G0 X117.563 Y103.092
G0 X117.308 Y103.280
G0 X116.851 Y103.280
G0 X116.614 Y103.092
G0 X116.614 Y102.178
G0 X116.646 Y102.156
G0 X116.646 Y102.156
G0 X116.614 Y102.178
G0 X116.614 Y103.092
G0 X116.649 Y103.120
G0 X116.649 Y103.120
G0 X116.851 Y103.280
G0 X117.308 Y103.280
G0 X117.563 Y103.092
G0 X117.563 Y102.864
G0 X117.308 Y102.648
G0 X117.194 Y102.648
G0 X117.194 Y102.648
G0 X117.308 Y102.648
G0 X117.521 Y102.690
G0 X117.563 Y102.864
G0 X117.563 Y103.092
G0 X117.521 Y103.238
G0 X117.308 Y103.280
G0 X116.851 Y103.280
G0 X116.656 Y103.238
G0 X116.649 Y103.214
G0 X116.649 Y103.214
G0 X116.656 Y103.238
G0 X116.851 Y103.280
G0 X117.308 Y103.280
G0 X117.521 Y103.238
G0 X117.563 Y103.092
G0 X117.563 Y102.864
G0 X117.521 Y102.690
G0 X117.308 Y102.648
G0 X117.194 Y102.648
