; GCode generated by CraftWare

G28 X0 Y0
G28 Z0


M104 S215 ;set head temp (no wait)
M190 S60 ;set bed temp (wait)
M109 S215 ;set head temp (wait)
; ------------------------------------
; Layer #0
; ------------------------------------
M106 S0 ;turn off fan
G21 ; mm
G90 ; abs
G92 E0 ;reset extr
G0 F1200 Z0.300
;segType:Skirt
G0 F3000 E-1.0000
G0 X117.762 Y112.304 F5400
G0 F3000 E0.0000
G1 X114.603 Y109.146 E0.2228 F2400
G1 X114.011 Y108.159 E0.2803
G1 X113.879 Y107.764 E0.3010
G1 X113.616 Y107.501 E0.3196
G1 X113.485 Y107.106 E0.3404
G1 X113.485 Y105.001 E0.4454
G1 X113.551 Y104.540 E0.4686
G1 X113.748 Y104.211 E0.4878
G1 X113.879 Y103.816 E0.5085
G1 X114.669 Y103.027 E0.5642
G1 X114.669 Y102.763 E0.5774
G1 X112.300 Y100.395 E0.7445
G1 X112.300 Y97.763 E0.8758
G1 X112.432 Y96.842 E0.9222
G1 X112.432 Y96.579 E0.9353
G1 X112.563 Y96.447 E0.9446
G1 X112.563 Y95.921 E0.9709
G1 X112.695 Y95.526 E0.9917
G1 X115.590 Y92.631 E1.1959
G1 X115.919 Y92.433 E1.2151
G1 X116.117 Y92.104 E1.2342
G1 X116.117 Y89.999 E1.3392
G1 X116.183 Y89.538 E1.3625
G1 X119.604 Y86.117 E1.6039
G1 X119.933 Y85.919 E1.6230
G1 X120.459 Y85.393 E1.6601
G1 X120.788 Y85.195 E1.6793
G1 X121.052 Y84.932 E1.6979
G1 X123.683 Y84.932 E1.8292
G1 X123.815 Y85.064 E1.8385
G1 X124.078 Y85.064 E1.8516
G1 X124.736 Y85.459 E1.8899
G1 X127.631 Y82.563 E2.0941
G1 X131.842 Y82.563 E2.3042
G1 X132.303 Y82.630 E2.3274
G1 X134.935 Y85.261 E2.5131
G1 X135.198 Y85.393 E2.5278
G1 X135.527 Y85.195 E2.5470
G1 X135.790 Y85.195 E2.5601
G1 X136.119 Y84.998 E2.5792
G1 X136.580 Y84.932 E2.6024
G1 X138.685 Y84.932 E2.7075
G1 X139.343 Y85.327 E2.7458
G1 X139.870 Y85.853 E2.7829
G1 X140.199 Y86.051 E2.8021
G1 X143.752 Y89.604 E3.0527
G1 X143.752 Y92.236 E3.1840
G1 X144.081 Y92.433 E3.2032
G1 X146.976 Y95.328 E3.4074
G1 X147.305 Y95.789 E3.4357
G1 X147.305 Y96.315 E3.4620
G1 X147.437 Y96.710 E3.4827
G1 X147.568 Y97.631 E3.5291
G1 X147.568 Y100.263 E3.6604
G1 X147.370 Y100.592 E3.6796
G1 X145.265 Y102.698 E3.8282
G1 X145.199 Y102.895 E3.8385
G1 X145.397 Y103.224 E3.8576
G1 X145.660 Y103.487 E3.8762
G1 X145.857 Y103.816 E3.8954
G1 X146.121 Y104.079 E3.9139
G1 X146.252 Y104.474 E3.9347
G1 X146.384 Y104.606 E3.9440
G1 X146.384 Y107.238 E4.0753
G1 X145.199 Y109.212 E4.1901
G1 X142.304 Y112.107 E4.3944
G1 X141.975 Y112.304 E4.4136
G1 X140.396 Y112.304 E4.4923
G1 X140.199 Y112.370 E4.5027
G1 X140.067 Y113.291 E4.5491
G1 X139.870 Y113.620 E4.5683
G1 X136.711 Y116.779 E4.7911
G1 X135.527 Y117.173 E4.8534
G1 X135.395 Y117.305 E4.8627
G1 X135.132 Y117.305 E4.8758
G1 X135.001 Y117.437 E4.8851
G1 X134.737 Y117.437 E4.8982
G1 X134.606 Y117.568 E4.9075
G1 X132.500 Y117.568 E5.0126
G1 X132.106 Y117.437 E5.0333
G1 X131.448 Y117.042 E5.0716
G1 X130.000 Y115.594 E5.1737
G1 X129.671 Y115.791 E5.1929
G1 X128.355 Y117.107 E5.2857
G1 X127.894 Y117.437 E5.3140
G1 X127.631 Y117.437 E5.3271
G1 X127.500 Y117.568 E5.3364
G1 X125.394 Y117.568 E5.4414
G1 X124.999 Y117.437 E5.4622
G1 X124.210 Y117.173 E5.5037
G1 X124.078 Y117.042 E5.5130
G1 X123.815 Y117.042 E5.5261
G1 X123.683 Y116.910 E5.5354
G1 X123.420 Y116.910 E5.5485
G1 X123.091 Y116.713 E5.5677
G1 X119.933 Y113.554 E5.7905
G1 X119.801 Y113.159 E5.8113
G1 X119.801 Y112.896 E5.8244
G1 X119.670 Y112.765 E5.8337
G1 X119.604 Y112.304 E5.8569
G1 X117.762 Y112.304 E5.9488
G0 X118.156 Y112.699 F5400
G1 X117.696 Y112.633 E5.9720 F2400
G1 X114.274 Y109.212 E6.2135
G1 X113.090 Y107.238 E6.3283
G1 X113.090 Y104.606 E6.4596
G1 X113.682 Y103.619 E6.5170
G1 X114.209 Y103.092 E6.5542
G1 X114.209 Y102.698 E6.5739
G1 X112.103 Y100.592 E6.7224
G1 X111.905 Y100.263 E6.7416
G1 X111.905 Y97.368 E6.8860
G1 X112.037 Y97.237 E6.8953
G1 X112.037 Y96.710 E6.9215
G1 X112.169 Y96.315 E6.9423
G1 X112.169 Y95.789 E6.9686
G1 X112.366 Y95.460 E6.9877
G1 X115.525 Y92.301 E7.2106
G1 X115.722 Y91.973 E7.2297
G1 X115.722 Y89.604 E7.3479
G1 X119.670 Y85.656 E7.6264
G1 X119.999 Y85.459 E7.6456
G1 X120.525 Y84.932 E7.6827
G1 X121.183 Y84.537 E7.7210
G1 X123.289 Y84.537 E7.8260
G1 X123.750 Y84.603 E7.8493
G1 X124.144 Y84.735 E7.8700
G1 X124.473 Y84.932 E7.8891
G1 X124.802 Y84.998 E7.9059
G1 X127.434 Y82.366 E8.0916
G1 X127.763 Y82.169 E8.1107
G1 X132.237 Y82.169 E8.3339
G1 X135.132 Y85.064 E8.5382
G1 X135.461 Y84.867 E8.5573
G1 X135.856 Y84.735 E8.5781
G1 X136.185 Y84.537 E8.5972
G1 X138.817 Y84.537 E8.7285
G1 X139.080 Y84.801 E8.7471
G1 X139.409 Y84.998 E8.7663
G1 X139.936 Y85.525 E8.8034
G1 X140.264 Y85.722 E8.8225
G1 X143.949 Y89.406 E9.0825
G1 X144.147 Y89.736 E9.1017
G1 X144.147 Y92.104 E9.2198
G1 X147.568 Y95.526 E9.4612
G1 X147.700 Y95.921 E9.4820
G1 X147.700 Y96.447 E9.5083
G1 X147.831 Y96.579 E9.5176
G1 X147.831 Y97.105 E9.5438
G1 X147.963 Y97.237 E9.5531
G1 X147.963 Y100.395 E9.7107
G1 X145.594 Y102.763 E9.8778
G1 X145.726 Y103.158 E9.8986
G1 X146.252 Y103.685 E9.9357
G1 X146.647 Y104.343 E9.9740
G1 X146.779 Y104.737 E9.9947
G1 X146.779 Y106.843 E10.0998
G1 X146.713 Y107.304 E10.1230
G1 X145.528 Y109.278 E10.2379
G1 X142.107 Y112.699 E10.4793
G1 X141.054 Y112.699 E10.5318
G1 X140.594 Y112.765 E10.5550
G1 X140.462 Y112.896 E10.5643
G1 X140.396 Y113.357 E10.5875
G1 X140.199 Y113.686 E10.6066
G1 X136.777 Y117.107 E10.8480
G1 X136.448 Y117.305 E10.8672
G1 X136.185 Y117.305 E10.8803
G1 X136.053 Y117.437 E10.8896
G1 X135.790 Y117.437 E10.9027
G1 X135.461 Y117.634 E10.9218
G1 X134.672 Y117.897 E10.9634
G1 X134.211 Y117.963 E10.9866
G1 X132.369 Y117.963 E11.0785
G1 X132.237 Y117.831 E11.0878
G1 X131.974 Y117.831 E11.1009
G1 X131.711 Y117.568 E11.1195
G1 X131.381 Y117.370 E11.1386
G1 X130.066 Y116.055 E11.2315
G1 X129.868 Y115.989 E11.2419
G1 X128.289 Y117.568 E11.3533
G1 X127.961 Y117.765 E11.3724
G1 X127.566 Y117.897 E11.3932
G1 X127.105 Y117.963 E11.4164
G1 X125.263 Y117.963 E11.5083
G1 X125.131 Y117.831 E11.5176
G1 X124.868 Y117.831 E11.5307
G1 X124.736 Y117.700 E11.5400
G1 X124.473 Y117.700 E11.5531
G1 X124.144 Y117.502 E11.5723
G1 X123.157 Y117.173 E11.6242
G1 X119.736 Y113.752 E11.8656
G1 X119.406 Y113.291 E11.8938
G1 X119.341 Y112.831 E11.9170
G1 X119.209 Y112.699 E11.9263
G1 X118.156 Y112.699 E11.9788
G0 X117.893 Y113.094 F5400
G1 X117.564 Y112.896 E11.9980 F2400
G1 X113.879 Y109.212 E12.2580
G1 X112.695 Y107.238 E12.3728
G1 X112.695 Y106.047 E12.4322
;segType:HShell
G0 F3000 E11.4322
G0 X135.237 Y109.824 F5400
G0 F3000 E12.4322
G1 X121.803 Y96.390 E13.3801 F2400
;segType:Perimeter
G0 X121.126 Y96.041 F5400
G1 X121.979 Y94.564 E13.4651 F1439
G1 X121.276 Y93.635 E13.5233
G1 X120.880 Y92.867 E13.5663
G1 X120.648 Y92.325 E13.5958
G1 X120.484 Y91.849 E13.6209
G1 X120.381 Y91.439 E13.6420
G1 X120.334 Y91.108 E13.6586
G1 X120.332 Y90.872 E13.6705
G1 X120.402 Y90.624 E13.6833
G1 X120.465 Y90.527 E13.6891
G1 X122.109 Y89.148 E13.7961
G1 X122.330 Y89.069 E13.8078
G1 X122.661 Y89.102 E13.8244
G1 X122.933 Y89.182 E13.8386
G1 X123.274 Y89.322 E13.8570
G1 X123.691 Y89.538 E13.8804
G1 X124.220 Y89.869 E13.9115
G1 X124.738 Y90.247 E13.9435
G1 X125.035 Y90.479 E13.9623
G1 X125.829 Y91.334 E14.0205
G1 X127.487 Y90.730 E14.1086
G1 X127.546 Y89.566 E14.1667
G1 X127.736 Y88.724 E14.2098
G1 X127.907 Y88.159 E14.2392
G1 X128.087 Y87.692 E14.2642
G1 X128.272 Y87.309 E14.2854
G1 X128.444 Y87.031 E14.3017
G1 X128.599 Y86.843 E14.3139
G1 X128.780 Y86.720 E14.3248
G1 X128.976 Y86.664 E14.3350
G1 X131.068 Y86.664 E14.4394
G1 X131.285 Y86.744 E14.4509
G1 X131.521 Y86.984 E14.4677
G1 X131.678 Y87.221 E14.4818
G1 X131.849 Y87.546 E14.5002
G1 X132.030 Y87.980 E14.5236
G1 X132.222 Y88.574 E14.5548
G1 X132.376 Y89.197 E14.5868
G1 X132.454 Y89.565 E14.6055
G1 X132.513 Y90.730 E14.6637
G1 X134.171 Y91.334 E14.7518
G1 X134.964 Y90.480 E14.8099
G1 X135.651 Y89.957 E14.8530
G1 X136.145 Y89.634 E14.8825
G1 X136.583 Y89.391 E14.9074
G1 X136.971 Y89.217 E14.9287
G1 X137.277 Y89.117 E14.9447
G1 X137.653 Y89.069 E14.9636
G1 X137.893 Y89.149 E14.9762
G1 X139.528 Y90.521 E15.0827
G1 X139.643 Y90.722 E15.0943
G1 X139.669 Y91.057 E15.1110
G1 X139.637 Y91.339 E15.1252
G1 X139.559 Y91.698 E15.1435
G1 X139.418 Y92.147 E15.1670
G1 X139.184 Y92.725 E15.1981
G1 X138.902 Y93.302 E15.2301
G1 X138.725 Y93.634 E15.2489
G1 X138.021 Y94.564 E15.3071
G1 X138.904 Y96.093 E15.3952
G1 X140.060 Y95.948 E15.4533
G1 X140.922 Y95.989 E15.4964
G1 X141.508 Y96.059 E15.5258
G1 X142.000 Y96.155 E15.5508
G1 X142.409 Y96.271 E15.5720
G1 X142.707 Y96.390 E15.5880
G1 X143.026 Y96.596 E15.6070
G1 X143.159 Y96.811 E15.6196
G1 X143.529 Y98.913 E15.7261
G1 X143.486 Y99.144 E15.7378
G1 X143.293 Y99.415 E15.7544
G1 X143.087 Y99.610 E15.7685
G1 X142.796 Y99.835 E15.7869
G1 X142.400 Y100.088 E15.8103
G1 X141.849 Y100.381 E15.8415
G1 X141.262 Y100.641 E15.8735
G1 X140.913 Y100.782 E15.8923
G1 X139.776 Y101.042 E15.9505
G1 X139.470 Y102.780 E16.0385
G1 X140.448 Y103.412 E16.0966
G1 X141.082 Y103.998 E16.1397
G1 X141.486 Y104.429 E16.1692
G1 X141.801 Y104.818 E16.1941
G1 X142.040 Y105.170 E16.2154
G1 X142.195 Y105.458 E16.2317
G1 X142.280 Y105.686 E16.2438
G1 X142.298 Y105.939 E16.2565
G1 X142.223 Y106.143 E16.2673
G1 X141.200 Y107.914 E16.3693
G1 X141.019 Y108.063 E16.3811
G1 X140.697 Y108.146 E16.3977
G1 X140.414 Y108.164 E16.4118
G1 X140.046 Y108.149 E16.4302
G1 X139.580 Y108.088 E16.4536
G1 X138.969 Y107.958 E16.4848
G1 X138.353 Y107.780 E16.5168
G1 X137.995 Y107.664 E16.5355
G1 X136.957 Y107.132 E16.5937
G1 X135.605 Y108.267 E16.6818
G1 X135.948 Y109.380 E16.7399
G1 X136.060 Y110.278 E16.7851
G1 X136.090 Y110.826 E16.8124
G1 X136.081 Y111.329 E16.8375
G1 X136.038 Y111.750 E16.8586
G1 X135.970 Y112.071 E16.8750
G1 X135.825 Y112.414 E16.8936
G1 X135.636 Y112.582 E16.9062
G1 X133.631 Y113.312 E17.0127
G1 X133.396 Y113.310 E17.0244
G1 X133.095 Y113.166 E17.0410
G1 X132.867 Y112.998 E17.0552
G1 X132.595 Y112.750 E17.0735
G1 X132.277 Y112.404 E17.0970
G1 X131.893 Y111.912 E17.1281
G1 X131.535 Y111.379 E17.1601
G1 X131.336 Y111.060 E17.1789
G1 X130.882 Y109.985 E17.2371
G1 X129.118 Y109.985 E17.3251
G1 X128.664 Y111.059 E17.3833
G1 X128.198 Y111.785 E17.4264
G1 X127.844 Y112.258 E17.4558
G1 X127.514 Y112.637 E17.4809
G1 X127.210 Y112.932 E17.5020
G1 X126.958 Y113.130 E17.5180
G1 X126.603 Y113.312 E17.5379
G1 X126.466 Y113.333 E17.5448
G1 X126.388 Y113.318 E17.5488
G1 X124.362 Y112.581 E17.6563
G1 X124.183 Y112.429 E17.6681
G1 X124.046 Y112.126 E17.6847
G1 X123.979 Y111.850 E17.6988
G1 X123.930 Y111.485 E17.7172
G1 X123.909 Y111.016 E17.7406
G1 X123.931 Y110.392 E17.7718
G1 X123.999 Y109.754 E17.8038
G1 X124.052 Y109.382 E17.8225
G1 X124.395 Y108.267 E17.8807
G1 X123.043 Y107.132 E17.9688
G1 X122.006 Y107.663 E18.0269
G1 X121.181 Y107.919 E18.0700
G1 X120.607 Y108.054 E18.0994
G1 X120.112 Y108.132 E18.1244
G1 X119.688 Y108.163 E18.1456
G1 X119.360 Y108.153 E18.1620
G1 X118.997 Y108.069 E18.1806
G1 X118.799 Y107.912 E18.1932
G1 X117.732 Y106.064 E18.2997
G1 X117.693 Y105.832 E18.3114
G1 X117.782 Y105.511 E18.3280
G1 X117.900 Y105.273 E18.3413
G1 X118.105 Y104.946 E18.3605
G1 X118.390 Y104.573 E18.3840
G1 X118.808 Y104.110 E18.4151
G1 X119.271 Y103.665 E18.4471
G1 X119.550 Y103.413 E18.4659
G1 X120.530 Y102.780 E18.5241
G1 X120.224 Y101.042 E18.6121
G1 X119.088 Y100.782 E18.6703
G1 X118.291 Y100.448 E18.7134
G1 X117.765 Y100.182 E18.7428
G1 X117.336 Y99.924 E18.7678
G1 X116.991 Y99.675 E18.7890
G1 X116.752 Y99.461 E18.8050
G1 X116.522 Y99.158 E18.8240
G1 X116.471 Y98.911 E18.8366
G1 X116.842 Y96.809 E18.9430
G1 X116.961 Y96.607 E18.9548
G1 X117.236 Y96.419 E18.9714
G1 X117.479 Y96.311 E18.9847
G1 X117.846 Y96.194 E19.0039
G1 X118.305 Y96.091 E19.0273
G1 X118.923 Y96.004 E19.0585
G1 X119.563 Y95.961 E19.0905
G1 X119.939 Y95.948 E19.1093
G1 X121.037 Y96.085 E19.1645
G0 X121.831 Y96.184 F5400
;segType:Loop
G0 X121.993 Y95.340
G1 X122.458 Y94.534 E19.2109 F2400
G1 X121.615 Y93.421 E19.2805
G1 X121.242 Y92.697 E19.3212
G1 X121.021 Y92.181 E19.3492
G1 X120.868 Y91.735 E19.3727
G1 X120.774 Y91.362 E19.3919
G1 X120.734 Y91.079 E19.4062
G1 X120.733 Y90.925 E19.4138
G1 X120.837 Y90.737 E19.4246
G1 X122.310 Y89.501 E19.5205
G1 X122.380 Y89.476 E19.5242
G1 X122.584 Y89.496 E19.5344
G1 X122.800 Y89.560 E19.5457
G1 X123.105 Y89.685 E19.5621
G1 X123.493 Y89.886 E19.5839
G1 X123.994 Y90.199 E19.6134
G1 X124.766 Y90.777 E19.6615
G1 X125.716 Y91.800 E19.7312
G1 X127.873 Y91.015 E19.8457
G1 X127.944 Y89.621 E19.9153
G1 X128.123 Y88.826 E19.9560
G1 X128.285 Y88.289 E19.9840
G1 X128.454 Y87.851 E20.0074
G1 X128.623 Y87.502 E20.0267
G1 X128.770 Y87.265 E20.0407
G1 X128.872 Y87.141 E20.0486
G1 X128.952 Y87.087 E20.0535
G1 X129.031 Y87.064 E20.0576
G1 X130.997 Y87.064 E20.1557
G1 X131.063 Y87.089 E20.1592
G1 X131.209 Y87.238 E20.1696
G1 X131.333 Y87.425 E20.1808
G1 X131.486 Y87.717 E20.1972
G1 X131.654 Y88.119 E20.2190
G1 X131.837 Y88.684 E20.2486
G1 X131.986 Y89.286 E20.2796
G1 X132.056 Y89.617 E20.2964
G1 X132.127 Y91.015 E20.3663
G1 X134.284 Y91.800 E20.4808
G1 X135.234 Y90.777 E20.5505
G1 X135.882 Y90.284 E20.5911
G1 X136.352 Y89.977 E20.6191
G1 X136.762 Y89.749 E20.6425
G1 X137.116 Y89.591 E20.6619
G1 X137.365 Y89.509 E20.6749
G1 X137.613 Y89.477 E20.6874
G1 X137.694 Y89.504 E20.6917
G1 X139.217 Y90.783 E20.7909
G1 X139.267 Y91.051 E20.8045
G1 X139.242 Y91.274 E20.8157
G1 X139.172 Y91.596 E20.8321
G1 X139.041 Y92.012 E20.8539
G1 X138.820 Y92.560 E20.8834
G1 X138.385 Y93.421 E20.9315
G1 X137.542 Y94.534 E21.0012
G1 X138.690 Y96.522 E21.1157
G1 X140.075 Y96.349 E21.1853
G1 X140.889 Y96.388 E21.2260
G1 X141.446 Y96.455 E21.2540
G1 X141.907 Y96.544 E21.2774
G1 X142.280 Y96.650 E21.2967
G1 X142.523 Y96.747 E21.3098
G1 X142.684 Y96.851 E21.3194
G1 X142.790 Y97.024 E21.3295
G1 X143.113 Y98.853 E21.4221
G1 X142.990 Y99.151 E21.4382
G1 X142.827 Y99.306 E21.4495
G1 X142.566 Y99.508 E21.4659
G1 X142.198 Y99.743 E21.4877
G1 X141.676 Y100.020 E21.5171
G1 X140.789 Y100.400 E21.5653
G1 X139.428 Y100.711 E21.6349
G1 X139.030 Y102.972 E21.7495
G1 X140.202 Y103.729 E21.8191
G1 X140.801 Y104.282 E21.8598
G1 X141.185 Y104.692 E21.8878
G1 X141.480 Y105.056 E21.9112
G1 X141.698 Y105.377 E21.9305
G1 X141.829 Y105.623 E21.9444
G1 X141.885 Y105.773 E21.9524
G1 X141.893 Y105.881 E21.9578
G1 X141.859 Y105.972 E21.9626
G1 X140.890 Y107.651 E22.0594
G1 X140.833 Y107.698 E22.0631
G1 X140.634 Y107.749 E22.0733
G1 X140.409 Y107.763 E22.0845
G1 X140.080 Y107.750 E22.1010
G1 X139.647 Y107.694 E22.1228
G1 X139.069 Y107.570 E22.1523
G1 X138.145 Y107.292 E22.2004
G1 X136.903 Y106.655 E22.2700
G1 X135.145 Y108.131 E22.3846
G1 X135.555 Y109.464 E22.4542
G1 X135.661 Y110.314 E22.4969
G1 X135.690 Y110.833 E22.5228
G1 X135.681 Y111.305 E22.5464
G1 X135.642 Y111.688 E22.5656
G1 X135.587 Y111.951 E22.5790
G1 X135.492 Y112.175 E22.5911
G1 X135.428 Y112.232 E22.5954
G1 X133.562 Y112.911 E22.6945
G1 X133.488 Y112.910 E22.6982
G1 X133.302 Y112.822 E22.7084
G1 X133.121 Y112.688 E22.7196
G1 X132.878 Y112.466 E22.7361
G1 X132.582 Y112.145 E22.7579
G1 X132.219 Y111.679 E22.7873
G1 X131.691 Y110.871 E22.8355
G1 X131.148 Y109.585 E22.9051
G1 X128.852 Y109.585 E23.0197
G1 X128.309 Y110.872 E23.0893
G1 X127.869 Y111.557 E23.1300
G1 X127.533 Y112.006 E23.1579
G1 X127.223 Y112.362 E23.1815
G1 X126.947 Y112.630 E23.2007
G1 X126.741 Y112.792 E23.2138
G1 X126.520 Y112.905 E23.2261
G1 X126.347 Y112.878 E23.2349
G1 X124.633 Y112.254 E23.3259
G1 X124.490 Y112.137 E23.3351
G1 X124.426 Y111.995 E23.3429
G1 X124.373 Y111.776 E23.3541
G1 X124.329 Y111.449 E23.3706
G1 X124.309 Y111.014 E23.3923
G1 X124.330 Y110.423 E23.4218
G1 X124.445 Y109.465 E23.4699
G1 X124.855 Y108.131 E23.5396
G1 X123.097 Y106.655 E23.6541
G1 X121.854 Y107.292 E23.7238
G1 X121.076 Y107.533 E23.7644
G1 X120.530 Y107.661 E23.7924
G1 X120.066 Y107.734 E23.8158
G1 X119.680 Y107.763 E23.8352
G1 X119.412 Y107.754 E23.8485
G1 X119.175 Y107.700 E23.8607
G1 X119.107 Y107.646 E23.8650
G1 X118.166 Y106.016 E23.9589
G1 X118.110 Y105.824 E23.9688
G1 X118.157 Y105.655 E23.9776
G1 X118.249 Y105.468 E23.9880
G1 X118.434 Y105.175 E24.0053
G1 X118.698 Y104.829 E24.0270
G1 X119.094 Y104.390 E24.0565
G1 X119.798 Y103.729 E24.1047
G1 X120.970 Y102.972 E24.1743
G1 X120.572 Y100.711 E24.2888
G1 X119.211 Y100.400 E24.3585
G1 X118.459 Y100.085 E24.3991
G1 X117.958 Y99.832 E24.4271
G1 X117.556 Y99.590 E24.4505
G1 X117.242 Y99.363 E24.4699
G1 X117.047 Y99.188 E24.4829
G1 X116.895 Y98.989 E24.4954
G1 X116.878 Y98.905 E24.4997
G1 X117.210 Y97.024 E24.5950
G1 X117.277 Y96.875 E24.6032
G1 X117.431 Y96.770 E24.6124
G1 X117.621 Y96.686 E24.6228
G1 X117.951 Y96.580 E24.6401
G1 X118.376 Y96.485 E24.6618
G1 X118.962 Y96.403 E24.6913
G1 X119.925 Y96.349 E24.7395
G1 X121.310 Y96.522 E24.8091
G1 X121.893 Y95.513 E24.8673
;segType:HShell
G0 X122.010 Y96.031 F5400
G1 X135.061 Y109.082 E25.7881 F2400
G0 X134.809 Y108.265 F5400
G1 X122.217 Y95.672 E26.6765 F2400
G0 X122.424 Y95.314 F5400
G1 X134.941 Y107.831 E27.5597 F2400
G0 X135.249 Y107.573 F5400
G1 X122.631 Y94.955 E28.4500 F2400
G0 X122.838 Y94.596 F5400
G1 X135.556 Y107.315 E29.3474 F2400
G0 X135.864 Y107.057 F5400
G1 X121.800 Y92.993 E30.3397 F2400
G0 X121.323 Y91.950 F5400
G1 X136.172 Y106.799 E31.3874 F2400
G0 X136.479 Y106.541 F5400
G1 X121.118 Y91.180 E32.4711 F2400
G0 X121.312 Y90.808 F5400
G1 X136.787 Y106.283 E33.5630 F2400
G0 X137.758 Y106.689 F5400
G1 X121.620 Y90.550 E34.7016 F2400
G0 X121.927 Y90.292 F5400
G1 X138.726 Y107.091 E35.8869 F2400
G0 X139.494 Y107.293 F5400
G1 X122.235 Y90.034 E37.1046 F2400
G0 X122.681 Y89.914 F5400
G1 X140.156 Y107.390 E38.3376 F2400
G0 X140.661 Y107.328 F5400
G1 X123.945 Y90.612 E39.5169 F2400
G0 X125.984 Y92.086 F5400
G1 X140.868 Y106.969 E40.5670 F2400
G0 X141.075 Y106.611 F5400
G1 X126.399 Y91.935 E41.6025 F2400
G0 X126.814 Y91.784 F5400
G1 X141.282 Y106.252 E42.6233 F2400
G0 X141.489 Y105.894 F5400
G1 X138.933 Y103.338 E42.8036 F2400
G0 X139.135 Y103.040 F5400
G0 X139.030 Y102.972
G0 X139.428 Y100.711
G0 X140.789 Y100.400
G0 X140.975 Y100.320
G0 X140.975 Y100.320
G0 X142.593 Y97.929
G0 X142.586 Y97.939
G1 X141.473 Y96.827 E42.8821 F2400
G0 X140.826 Y96.746 F5400
G1 X142.707 Y98.626 E43.0148 F2400
G0 X142.558 Y99.043 F5400
G1 X140.232 Y96.717 E43.1789 F2400
G0 X139.707 Y96.758 F5400
G1 X142.239 Y99.289 E43.3575 F2400
G0 X141.885 Y99.501 F5400
G1 X139.204 Y96.821 E43.5466 F2400
G0 X138.702 Y96.884 F5400
G1 X141.515 Y99.697 E43.7451 F2400
G0 X141.119 Y99.867 F5400
G1 X132.950 Y91.698 E44.3215 F2400
G0 X132.061 Y91.374 F5400
G1 X140.723 Y100.036 E44.9326 F2400
G0 X140.270 Y100.149 F5400
G1 X128.603 Y88.482 E45.7558 F2400
G0 X128.472 Y88.917 F5400
G1 X139.810 Y100.254 E46.5557 F2400
G0 X139.349 Y100.360 F5400
G1 X128.368 Y89.378 E47.3305 F2400
G0 X128.292 Y89.868 F5400
G1 X139.074 Y100.650 E48.0912 F2400
G0 X138.989 Y101.131 F5400
G1 X128.264 Y90.406 E48.8479 F2400
G0 X128.237 Y90.945 F5400
G1 X138.904 Y101.612 E49.6005 F2400
G0 X138.819 Y102.092 F5400
G1 X128.058 Y91.331 E50.3597 F2400
G0 X127.643 Y91.482 F5400
G1 X138.734 Y102.573 E51.1423 F2400
G0 X138.649 Y103.054 F5400
G1 X127.228 Y91.633 E51.9481 F2400
G0 X128.756 Y88.069 F5400
G1 X131.769 Y91.083 E52.1607 F2400
G0 X131.739 Y90.487 F5400
G1 X128.935 Y87.683 E52.3585 F2400
G0 X129.242 Y87.425 F5400
G1 X131.709 Y89.892 E52.5326 F2400
G0 X131.590 Y89.206 F5400
G1 X129.808 Y87.425 E52.6583 F2400
G0 X130.374 Y87.425 F5400
G1 X131.375 Y88.426 E52.7290 F2400
G0 X131.786 Y88.526 F5400
G0 X131.837 Y88.684
G0 X131.986 Y89.286
G0 X132.056 Y89.617
G0 X132.127 Y91.015
G0 X134.284 Y91.800
G0 X135.234 Y90.777
G0 X135.882 Y90.284
G0 X136.352 Y89.977
G0 X136.762 Y89.749
G0 X136.773 Y89.744
G0 X136.773 Y89.744
G0 X137.376 Y89.892
G0 X137.363 Y89.889
G1 X138.846 Y91.371 E52.8336 F2400
G0 X138.725 Y91.816 F5400
G1 X136.963 Y90.054 E52.9579 F2400
G0 X136.596 Y90.253 F5400
G1 X138.567 Y92.224 E53.0969 F2400
G0 X138.390 Y92.612 F5400
G1 X136.251 Y90.473 E53.2479 F2400
G0 X135.920 Y90.708 F5400
G1 X138.200 Y92.988 E53.4087 F2400
G0 X137.991 Y93.345 F5400
G1 X135.599 Y90.952 E53.5775 F2400
G0 X135.308 Y91.227 F5400
G1 X137.747 Y93.667 E53.7496 F2400
G0 X137.503 Y93.988 F5400
G1 X135.035 Y91.520 E53.9238 F2400
G0 X134.763 Y91.814 F5400
G1 X137.260 Y94.310 E54.0999 F2400
G0 X137.411 Y95.027 F5400
G1 X134.491 Y92.107 E54.3060 F2400
G0 X133.840 Y92.022 F5400
G1 X138.184 Y96.366 E54.6125 F2400
G0 X131.491 Y109.472 F5400
G1 X134.284 Y112.265 E54.8095 F2400
G0 X133.869 Y112.416 F5400
G1 X131.904 Y110.451 E54.9482 F2400
G0 X135.308 Y110.461 F5400
G1 X121.596 Y96.748 E55.9157 F2400
G0 X121.146 Y96.865 F5400
G1 X135.326 Y111.044 E56.9161 F2400
G0 X135.292 Y111.576 F5400
G1 X120.500 Y96.784 E57.9598 F2400
G0 X119.863 Y96.713 F5400
G1 X135.113 Y111.963 E59.0357 F2400
G0 X134.699 Y112.114 F5400
G1 X119.328 Y96.743 E60.1202 F2400
G0 X118.807 Y96.788 F5400
G1 X131.244 Y109.225 E60.9977 F2400
G0 X130.678 Y109.225 F5400
G1 X118.320 Y96.866 E61.8697 F2400
G0 X117.871 Y96.984 F5400
G1 X130.113 Y109.225 E62.7334 F2400
G0 X129.547 Y109.225 F5400
G1 X120.917 Y100.595 E63.3423 F2400
G0 X121.038 Y101.282 F5400
G1 X128.981 Y109.225 E63.9028 F2400
G0 X128.555 Y109.364 F5400
G1 X121.159 Y101.969 E64.4246 F2400
G0 X121.280 Y102.655 F5400
G1 X128.387 Y109.762 E64.9260 F2400
G0 X128.219 Y110.160 F5400
G1 X121.267 Y103.208 E65.4164 F2400
G0 X120.924 Y103.430 F5400
G1 X128.051 Y110.558 E65.9193 F2400
G0 X127.849 Y110.922 F5400
G1 X125.191 Y108.264 E66.1068 F2400
G0 X125.058 Y108.696 F5400
G1 X127.628 Y111.266 E66.2882 F2400
G0 X127.391 Y111.595 F5400
G1 X124.925 Y109.129 E66.4621 F2400
G0 X124.795 Y109.565 F5400
G1 X127.140 Y111.909 E66.6275 F2400
G0 X126.869 Y112.204 F5400
G1 X124.735 Y110.070 E66.7781 F2400
G0 X124.685 Y110.585 F5400
G1 X126.569 Y112.469 E66.9110 F2400
G0 X125.846 Y112.312 F5400
G1 X124.675 Y111.142 E66.9936 F2400
G0 X124.366 Y110.123 F5400
G0 X124.445 Y109.465
G0 X124.855 Y108.131
G0 X123.387 Y106.899
G0 X123.387 Y106.899
G0 X123.192 Y106.256
G0 X123.196 Y106.268
G1 X120.580 Y103.653 E67.1781 F2400
G0 X120.237 Y103.875 F5400
G1 X122.777 Y106.415 E67.3573 F2400
G0 X122.402 Y106.606 F5400
G1 X119.912 Y104.116 E67.5330 F2400
G0 X119.621 Y104.390 F5400
G1 X122.028 Y106.798 E67.7029 F2400
G0 X121.645 Y106.980 F5400
G1 X119.331 Y104.666 E67.8662 F2400
G0 X119.062 Y104.963 F5400
G1 X121.213 Y107.114 E68.0179 F2400
G0 X120.769 Y107.235 F5400
G1 X118.810 Y105.276 E68.1561 F2400
G0 X118.583 Y105.615 F5400
G1 X120.301 Y107.333 E68.2774 F2400
G0 X119.795 Y107.393 F5400
G1 X118.805 Y106.403 E68.3472 F2400
G0 X118.538 Y105.039 F5400
G0 X118.698 Y104.829
G0 X119.094 Y104.390
G0 X119.798 Y103.729
G0 X120.970 Y102.972
G0 X120.572 Y100.711
G0 X119.211 Y100.400
G0 X118.459 Y100.085
G0 X117.958 Y99.832
G0 X117.556 Y99.590
G0 X117.454 Y99.516
G0 X117.454 Y99.516
G0 X117.284 Y98.649
G0 X117.287 Y98.662
G1 X118.149 Y99.525 E68.4081 F2400
G0 X119.192 Y100.002 F5400
G1 X117.372 Y98.181 E68.5365 F2400
G0 X117.456 Y97.700 F5400
G1 X119.957 Y100.201 E68.7130 F2400
G0 X120.691 Y100.369 F5400
G1 X117.551 Y97.229 E68.9345 F2400
; ------------------------------------
; Layer #1
; ------------------------------------

G0 X10 Y0 F7200
G1 X10 Y10 E0.0725
G1 X0 Y10 E0.0725
G1 X0 Y0 E0.0725
G1 X10 Y0 E0.0725

; ------------------------------------
; Layer #2
; ------------------------------------
M106 S0 ;turn off fan
G92 E0 ;reset extr
;segType:HShell
G0 F3000 E-1.0000
G0 F1200 Z0.900
G0 X135.326 Y111.044 F7200
G0 F3000 E0.0000
G1 X121.146 Y96.865 E1.0004 F3600
;segType:Perimeter
G0 X120.726 Y96.733 F7200
G1 X121.126 Y96.041 E1.0404 F2159
G1 X121.979 Y94.564 E1.1254
G1 X121.276 Y93.635 E1.1836
G1 X120.878 Y92.862 E1.2269
G1 X120.625 Y92.259 E1.2595
G1 X120.485 Y91.850 E1.2811
G1 X120.376 Y91.409 E1.3038
G1 X120.334 Y91.110 E1.3188
G1 X120.354 Y90.735 E1.3376
G1 X120.473 Y90.520 E1.3498
G1 X122.135 Y89.126 E1.4581
G1 X122.347 Y89.080 E1.4689
G1 X122.457 Y89.069 E1.4744
G1 X122.667 Y89.103 E1.4850
G1 X122.969 Y89.196 E1.5008
G1 X123.254 Y89.313 E1.5162
G1 X123.712 Y89.550 E1.5419
G1 X124.300 Y89.928 E1.5767
G1 X125.036 Y90.480 E1.6227
G1 X125.829 Y91.334 E1.6808
G1 X127.487 Y90.730 E1.7688
G1 X127.546 Y89.566 E1.8269
G1 X127.738 Y88.718 E1.8703
G1 X127.931 Y88.094 E1.9029
G1 X128.087 Y87.690 E1.9245
G1 X128.287 Y87.282 E1.9472
G1 X128.447 Y87.027 E1.9622
G1 X128.721 Y86.738 E1.9821
G1 X128.976 Y86.664 E1.9953
G1 X131.086 Y86.664 E2.1006
G1 X131.163 Y86.678 E2.1045
G1 X131.386 Y86.828 E2.1179
G1 X131.525 Y86.989 E2.1285
G1 X131.696 Y87.254 E2.1442
G1 X131.840 Y87.527 E2.1596
G1 X132.038 Y88.003 E2.1853
G1 X132.246 Y88.670 E2.2202
G1 X132.454 Y89.567 E2.2661
G1 X132.513 Y90.730 E2.3242
G1 X134.171 Y91.334 E2.4123
G1 X134.964 Y90.480 E2.4704
G1 X135.656 Y89.954 E2.5138
G1 X136.206 Y89.600 E2.5464
G1 X136.585 Y89.391 E2.5680
G1 X137.000 Y89.207 E2.5907
G1 X137.287 Y89.114 E2.6057
G1 X137.660 Y89.069 E2.6244
G1 X137.892 Y89.149 E2.6367
G1 X139.501 Y90.499 E2.7415
G1 X139.601 Y90.624 E2.7495
G1 X139.666 Y90.851 E2.7612
G1 X139.669 Y91.063 E2.7718
G1 X139.630 Y91.377 E2.7876
G1 X139.564 Y91.678 E2.8030
G1 X139.410 Y92.170 E2.8287
G1 X139.140 Y92.814 E2.8636
G1 X138.724 Y93.635 E2.9095
G1 X138.021 Y94.564 E2.9676
G1 X138.904 Y96.093 E3.0557
G1 X140.060 Y95.948 E3.1138
G1 X140.928 Y95.990 E3.1572
G1 X141.576 Y96.072 E3.1898
G1 X142.001 Y96.155 E3.2114
G1 X142.438 Y96.282 E3.2340
G1 X142.717 Y96.395 E3.2491
G1 X143.031 Y96.600 E3.2678
G1 X143.159 Y96.811 E3.2801
G1 X143.529 Y98.912 E3.3865
G1 X143.484 Y99.148 E3.3985
G1 X143.285 Y99.423 E3.4154
G1 X143.058 Y99.634 E3.4309
G1 X142.813 Y99.823 E3.4463
G1 X142.379 Y100.100 E3.4720
G1 X141.758 Y100.421 E3.5069
G1 X140.912 Y100.782 E3.5528
G1 X139.776 Y101.042 E3.6109
G1 X139.470 Y102.780 E3.6990
G1 X140.448 Y103.412 E3.7571
G1 X141.087 Y104.003 E3.8005
G1 X141.530 Y104.482 E3.8331
G1 X141.802 Y104.819 E3.8547
G1 X142.056 Y105.196 E3.8773
G1 X142.197 Y105.463 E3.8924
G1 X142.306 Y105.822 E3.9111
G1 X142.268 Y106.065 E3.9234
G1 X141.191 Y107.930 E4.0308
G1 X141.141 Y107.989 E4.0347
G1 X140.900 Y108.107 E4.0481
G1 X140.691 Y108.147 E4.0587
G1 X140.376 Y108.163 E4.0744
G1 X140.067 Y108.150 E4.0898
G1 X139.556 Y108.084 E4.1156
G1 X138.874 Y107.931 E4.1504
G1 X137.993 Y107.663 E4.1963
G1 X136.957 Y107.132 E4.2544
G1 X135.605 Y108.267 E4.3425
G1 X135.948 Y109.380 E4.4006
G1 X136.058 Y110.243 E4.4440
G1 X136.089 Y110.895 E4.4766
G1 X136.081 Y111.328 E4.4982
G1 X136.032 Y111.780 E4.5209
G1 X135.969 Y112.075 E4.5359
G1 X135.822 Y112.420 E4.5546
G1 X135.637 Y112.581 E4.5669
G1 X133.613 Y113.318 E4.6743
G1 X133.537 Y113.331 E4.6782
G1 X133.276 Y113.266 E4.6916
G1 X133.091 Y113.163 E4.7022
G1 X132.839 Y112.973 E4.7180
G1 X132.610 Y112.764 E4.7334
G1 X132.262 Y112.385 E4.7591
G1 X131.838 Y111.829 E4.7939
G1 X131.335 Y111.058 E4.8398
G1 X130.882 Y109.985 E4.8980
G1 X129.118 Y109.985 E4.9860
G1 X128.664 Y111.059 E5.0441
G1 X128.194 Y111.790 E5.0875
G1 X127.799 Y112.310 E5.1201
G1 X127.514 Y112.637 E5.1417
G1 X127.187 Y112.951 E5.1644
G1 X126.944 Y113.140 E5.1797
G1 X126.741 Y113.259 E5.1914
G1 X126.456 Y113.331 E5.2061
G1 X126.388 Y113.318 E5.2096
G1 X124.404 Y112.596 E5.3149
G1 X124.267 Y112.521 E5.3227
G1 X124.119 Y112.319 E5.3352
G1 X124.044 Y112.120 E5.3458
G1 X123.973 Y111.812 E5.3616
G1 X123.932 Y111.506 E5.3770
G1 X123.909 Y110.992 E5.4027
G1 X123.942 Y110.294 E5.4375
G1 X124.052 Y109.380 E5.4834
G1 X124.395 Y108.267 E5.5416
G1 X123.043 Y107.132 E5.6296
G1 X122.006 Y107.663 E5.6877
G1 X121.176 Y107.921 E5.7311
G1 X120.538 Y108.065 E5.7637
G1 X120.111 Y108.132 E5.7853
G1 X119.657 Y108.163 E5.8080
G1 X119.350 Y108.152 E5.8233
G1 X119.118 Y108.112 E5.8350
G1 X118.854 Y107.984 E5.8497
G1 X118.809 Y107.931 E5.8532
G1 X117.755 Y106.104 E5.9584
G1 X117.698 Y105.939 E5.9671
G1 X117.714 Y105.707 E5.9787
G1 X117.784 Y105.507 E5.9893
G1 X117.928 Y105.225 E6.0051
G1 X118.093 Y104.964 E6.0205
G1 X118.406 Y104.555 E6.0462
G1 X118.880 Y104.041 E6.0810
G1 X119.552 Y103.412 E6.1270
G1 X120.530 Y102.780 E6.1851
G1 X120.224 Y101.042 E6.2731
G1 X119.088 Y100.782 E6.3313
G1 X118.286 Y100.446 E6.3746
G1 X117.705 Y100.146 E6.4072
G1 X117.334 Y99.923 E6.4288
G1 X116.967 Y99.655 E6.4515
G1 X116.744 Y99.453 E6.4665
G1 X116.518 Y99.153 E6.4853
G1 X116.471 Y98.912 E6.4975
G1 X116.845 Y96.791 E6.6050
G1 X116.871 Y96.720 E6.6087
G1 X117.077 Y96.513 E6.6233
G1 X117.240 Y96.416 E6.6328
G1 X117.532 Y96.293 E6.6486
G1 X117.826 Y96.199 E6.6640
G1 X118.328 Y96.087 E6.6897
G1 X119.022 Y95.998 E6.7245
G1 X119.941 Y95.948 E6.7705
G1 X121.037 Y96.085 E6.8256
G0 X121.831 Y96.184 F7200
;segType:Loop
G0 X121.993 Y95.340
G1 X122.458 Y94.534 E6.8720 F3600
G1 X121.615 Y93.421 E6.9416
G1 X121.241 Y92.693 E6.9825
G1 X120.999 Y92.117 E7.0137
G1 X120.869 Y91.737 E7.0337
G1 X120.769 Y91.333 E7.0544
G1 X120.736 Y91.093 E7.0665
G1 X120.749 Y90.848 E7.0788
G1 X120.787 Y90.778 E7.0827
G1 X122.310 Y89.501 E7.1819
G1 X122.460 Y89.474 E7.1895
G1 X122.575 Y89.493 E7.1953
G1 X122.834 Y89.573 E7.2088
G1 X123.086 Y89.676 E7.2224
G1 X123.511 Y89.897 E7.2463
G1 X124.072 Y90.256 E7.2795
G1 X124.767 Y90.779 E7.3229
G1 X125.716 Y91.800 E7.3925
G1 X127.873 Y91.015 E7.5070
G1 X127.944 Y89.621 E7.5767
G1 X128.124 Y88.822 E7.6175
G1 X128.310 Y88.225 E7.6487
G1 X128.454 Y87.850 E7.6687
G1 X128.637 Y87.477 E7.6895
G1 X128.765 Y87.274 E7.7015
G1 X128.937 Y87.092 E7.7139
G1 X129.033 Y87.064 E7.7189
G1 X130.919 Y87.064 E7.8130
G1 X131.118 Y87.130 E7.8235
G1 X131.204 Y87.229 E7.8300
G1 X131.351 Y87.456 E7.8435
G1 X131.477 Y87.698 E7.8571
G1 X131.661 Y88.140 E7.8810
G1 X131.859 Y88.775 E7.9142
G1 X132.057 Y89.623 E7.9576
G1 X132.127 Y91.015 E8.0272
G1 X134.284 Y91.800 E8.1417
G1 X135.234 Y90.777 E8.2114
G1 X135.886 Y90.282 E8.2522
G1 X136.411 Y89.944 E8.2834
G1 X136.763 Y89.749 E8.3034
G1 X137.143 Y89.581 E8.3242
G1 X137.374 Y89.507 E8.3363
G1 X137.617 Y89.477 E8.3485
G1 X137.692 Y89.503 E8.3525
G1 X139.129 Y90.709 E8.4461
G1 X139.267 Y90.910 E8.4582
G1 X139.269 Y91.041 E8.4648
G1 X139.235 Y91.309 E8.4782
G1 X139.177 Y91.575 E8.4919
G1 X139.034 Y92.032 E8.5157
G1 X138.777 Y92.647 E8.5490
G1 X138.384 Y93.423 E8.5924
G1 X137.542 Y94.534 E8.6619
G1 X138.690 Y96.522 E8.7765
G1 X140.075 Y96.349 E8.8461
G1 X140.893 Y96.389 E8.8870
G1 X141.513 Y96.467 E8.9181
G1 X141.907 Y96.545 E8.9382
G1 X142.306 Y96.660 E8.9589
G1 X142.531 Y96.751 E8.9710
G1 X142.685 Y96.851 E8.9802
G1 X142.790 Y97.024 E8.9903
G1 X143.113 Y98.853 E9.0829
G1 X142.984 Y99.156 E9.0993
G1 X142.799 Y99.328 E9.1120
G1 X142.583 Y99.495 E9.1256
G1 X142.179 Y99.754 E9.1495
G1 X141.588 Y100.059 E9.1827
G1 X140.788 Y100.400 E9.2261
G1 X139.428 Y100.711 E9.2956
G1 X139.030 Y102.972 E9.4102
G1 X140.202 Y103.729 E9.4798
G1 X140.804 Y104.286 E9.5207
G1 X141.228 Y104.744 E9.5518
G1 X141.480 Y105.057 E9.5719
G1 X141.712 Y105.402 E9.5926
G1 X141.825 Y105.616 E9.6047
G1 X141.896 Y105.851 E9.6169
G1 X141.884 Y105.929 E9.6209
G1 X140.924 Y107.592 E9.7167
G1 X140.855 Y107.684 E9.7224
G1 X140.633 Y107.749 E9.7340
G1 X140.374 Y107.762 E9.7469
G1 X140.101 Y107.751 E9.7606
G1 X139.626 Y107.690 E9.7845
G1 X138.976 Y107.544 E9.8177
G1 X138.144 Y107.291 E9.8611
G1 X136.903 Y106.655 E9.9306
G1 X135.145 Y108.131 E10.0451
G1 X135.556 Y109.465 E10.1148
G1 X135.659 Y110.277 E10.1557
G1 X135.689 Y110.901 E10.1868
G1 X135.681 Y111.303 E10.2069
G1 X135.637 Y111.716 E10.2276
G1 X135.586 Y111.953 E10.2397
G1 X135.490 Y112.179 E10.2519
G1 X135.430 Y112.231 E10.2559
G1 X133.510 Y112.930 E10.3578
G1 X133.551 Y112.923 E10.3599
G1 X133.424 Y112.891 E10.3665
G1 X133.310 Y112.827 E10.3730
G1 X133.095 Y112.665 E10.3865
G1 X132.893 Y112.481 E10.4001
G1 X132.568 Y112.128 E10.4240
G1 X132.165 Y111.599 E10.4572
G1 X131.690 Y110.870 E10.5006
G1 X131.148 Y109.585 E10.5702
G1 X128.852 Y109.585 E10.6847
G1 X128.309 Y110.872 E10.7543
G1 X127.866 Y111.560 E10.7952
G1 X127.488 Y112.058 E10.8264
G1 X127.224 Y112.360 E10.8464
G1 X126.924 Y112.649 E10.8672
G1 X126.719 Y112.808 E10.8801
G1 X126.588 Y112.885 E10.8877
G1 X126.347 Y112.878 E10.8997
G1 X124.633 Y112.254 E10.9907
G1 X124.474 Y112.126 E11.0009
G1 X124.428 Y112.004 E11.0074
G1 X124.367 Y111.741 E11.0209
G1 X124.331 Y111.470 E11.0345
G1 X124.309 Y110.992 E11.0584
G1 X124.341 Y110.327 E11.0916
G1 X124.445 Y109.463 E11.1350
G1 X124.855 Y108.131 E11.2046
G1 X123.097 Y106.655 E11.3191
G1 X121.854 Y107.292 E11.3888
G1 X121.072 Y107.534 E11.4296
G1 X120.463 Y107.672 E11.4608
G1 X120.066 Y107.735 E11.4808
G1 X119.651 Y107.763 E11.5016
G1 X119.376 Y107.752 E11.5153
G1 X119.215 Y107.714 E11.5236
G1 X119.112 Y107.655 E11.5295
G1 X118.166 Y106.016 E11.6239
G1 X118.110 Y105.788 E11.6356
G1 X118.153 Y105.664 E11.6422
G1 X118.276 Y105.423 E11.6557
G1 X118.422 Y105.193 E11.6693
G1 X118.713 Y104.812 E11.6932
G1 X119.164 Y104.323 E11.7264
G1 X119.799 Y103.728 E11.7698
G1 X120.970 Y102.972 E11.8393
G1 X120.572 Y100.711 E11.9539
G1 X119.211 Y100.400 E12.0235
G1 X118.455 Y100.083 E12.0644
G1 X117.900 Y99.797 E12.0956
G1 X117.556 Y99.590 E12.1156
G1 X117.220 Y99.345 E12.1363
G1 X117.041 Y99.182 E12.1484
G1 X116.919 Y99.020 E12.1585
G1 X116.888 Y98.853 E12.1670
G1 X117.210 Y97.024 E12.2596
G1 X117.325 Y96.831 E12.2708
G1 X117.421 Y96.774 E12.2764
G1 X117.670 Y96.669 E12.2899
G1 X117.930 Y96.586 E12.3035
G1 X118.398 Y96.481 E12.3274
G1 X119.058 Y96.397 E12.3607
G1 X119.927 Y96.349 E12.4041
G1 X121.310 Y96.522 E12.4736
G1 X121.893 Y95.513 E12.5318
;segType:HShell
G0 X121.596 Y96.748 F7200
G1 X135.307 Y110.460 E13.4992 F3600
G0 X135.238 Y109.825 F7200
G1 X121.803 Y96.390 E14.4471 F3600
G0 X122.010 Y96.031 F7200
G1 X135.061 Y109.082 E15.3680 F3600
G0 X134.809 Y108.265 F7200
G1 X122.217 Y95.672 E16.2564 F3600
G0 X122.424 Y95.314 F7200
G1 X134.941 Y107.831 E17.1396 F3600
G0 X135.249 Y107.573 F7200
G1 X122.631 Y94.955 E18.0299 F3600
G0 X122.838 Y94.596 F7200
G1 X135.556 Y107.315 E18.9273 F3600
G0 X135.864 Y107.057 F7200
G1 X121.800 Y92.993 E19.9195 F3600
G0 X121.322 Y91.950 F7200
G1 X136.172 Y106.799 E20.9672 F3600
G0 X136.479 Y106.541 F7200
G1 X121.110 Y91.172 E22.0516 F3600
G0 X121.328 Y90.824 F7200
G1 X136.787 Y106.283 E23.1423 F3600
G0 X137.758 Y106.689 F7200
G1 X121.632 Y90.562 E24.2801 F3600
G0 X121.935 Y90.300 F7200
G1 X138.727 Y107.091 E25.4649 F3600
G0 X139.492 Y107.290 F7200
G1 X122.239 Y90.038 E26.6821 F3600
G0 X122.680 Y89.913 F7200
G1 X140.158 Y107.391 E27.9153 F3600
G0 X141.470 Y105.875 F7200
G1 X138.933 Y103.338 E28.0943 F3600
G0 X137.041 Y106.725 F7200
G0 X136.903 Y106.655
G0 X135.145 Y108.131
G0 X135.539 Y109.412
G0 X135.539 Y109.412
G0 X133.857 Y112.422
G0 X133.864 Y112.410
G1 X131.904 Y110.451 E28.2325 F3600
G0 X131.491 Y109.472 F7200
G1 X134.274 Y112.255 E28.4289 F3600
G0 X135.290 Y111.574 F7200
G1 X120.500 Y96.784 E29.4724 F3600
G0 X119.864 Y96.713 F7200
G1 X135.094 Y111.944 E30.5470 F3600
G0 X134.684 Y112.099 F7200
G1 X119.327 Y96.743 E31.6305 F3600
G0 X118.810 Y96.791 F7200
G1 X131.244 Y109.225 E32.5077 F3600
G0 X130.678 Y109.225 F7200
G1 X118.321 Y96.867 E33.3796 F3600
G0 X117.870 Y96.983 F7200
G1 X130.113 Y109.225 E34.2434 F3600
G0 X129.547 Y109.225 F7200
G1 X120.917 Y100.595 E34.8523 F3600
G0 X121.038 Y101.282 F7200
G1 X128.981 Y109.225 E35.4128 F3600
G0 X128.555 Y109.364 F7200
G1 X121.159 Y101.969 E35.9346 F3600
G0 X121.280 Y102.655 F7200
G1 X128.387 Y109.762 E36.4360 F3600
G0 X128.219 Y110.160 F7200
G1 X121.267 Y103.208 E36.9264 F3600
G0 X120.924 Y103.430 F7200
G1 X128.051 Y110.558 E37.4293 F3600
G0 X127.849 Y110.921 F7200
G1 X125.191 Y108.264 E37.6168 F3600
G0 X125.058 Y108.696 F7200
G1 X127.628 Y111.266 E37.7981 F3600
G0 X127.389 Y111.593 F7200
G1 X124.925 Y109.129 E37.9720 F3600
G0 X124.795 Y109.565 F7200
G1 X127.140 Y111.909 E38.1374 F3600
G0 X126.868 Y112.203 F7200
G1 X124.734 Y110.069 E38.2880 F3600
G0 X124.689 Y110.589 F7200
G1 X126.562 Y112.463 E38.4201 F3600
G0 X125.846 Y112.312 F7200
G1 X124.677 Y111.143 E38.5026 F3600
G0 X124.366 Y110.119 F7200
G0 X124.445 Y109.463
G0 X124.855 Y108.131
G0 X123.387 Y106.899
G0 X123.387 Y106.899
G0 X123.192 Y106.256
G0 X123.196 Y106.268
G1 X120.580 Y103.653 E38.6872 F3600
G0 X120.237 Y103.875 F7200
G1 X122.777 Y106.415 E38.8664 F3600
G0 X122.402 Y106.606 F7200
G1 X119.912 Y104.116 E39.0421 F3600
G0 X119.620 Y104.389 F7200
G1 X122.028 Y106.798 E39.2120 F3600
G0 X121.645 Y106.980 F7200
G1 X119.334 Y104.669 E39.3750 F3600
G0 X119.063 Y104.964 F7200
G1 X121.213 Y107.114 E39.5267 F3600
G0 X120.768 Y107.234 F7200
G1 X118.811 Y105.277 E39.6647 F3600
G0 X118.590 Y105.622 F7200
G1 X120.301 Y107.333 E39.7854 F3600
G0 X119.794 Y107.392 F7200
G1 X118.805 Y106.403 E39.8552 F3600
G0 X118.659 Y104.883 F7200
G0 X118.713 Y104.812
G0 X119.164 Y104.323
G0 X119.799 Y103.728
G0 X120.970 Y102.972
G0 X120.572 Y100.711
G0 X119.211 Y100.400
G0 X118.455 Y100.083
G0 X118.182 Y99.942
G0 X118.182 Y99.942
G0 X118.139 Y99.503
G0 X118.140 Y99.516
G1 X117.287 Y98.662 E39.9154 F3600
G0 X117.372 Y98.181 F7200
G1 X119.192 Y100.001 E40.0439 F3600
G0 X119.957 Y100.201 F7200
G1 X117.456 Y97.700 E40.2203 F3600
G0 X117.550 Y97.229 F7200
G1 X120.691 Y100.369 E40.4419 F3600
G0 X131.373 Y88.423 F7200
G1 X130.374 Y87.425 E40.5123 F3600
G0 X129.808 Y87.425 F7200
G1 X131.590 Y89.206 E40.6380 F3600
G0 X131.709 Y89.892 F7200
G1 X129.242 Y87.425 E40.8121 F3600
G0 X128.937 Y87.684 F7200
G1 X131.739 Y90.487 E41.0099 F3600
G0 X131.769 Y91.083 F7200
G1 X128.756 Y88.069 E41.2225 F3600
G0 X133.840 Y92.022 F7200
G1 X138.184 Y96.366 E41.5290 F3600
G0 X137.411 Y95.027 F7200
G1 X134.491 Y92.107 E41.7350 F3600
G0 X134.763 Y91.814 F7200
G1 X137.260 Y94.310 E41.9112 F3600
G0 X137.503 Y93.988 F7200
G1 X135.035 Y91.520 E42.0853 F3600
G0 X135.308 Y91.227 F7200
G1 X137.747 Y93.667 E42.2575 F3600
G0 X137.991 Y93.345 F7200
G1 X135.599 Y90.952 E42.4262 F3600
G0 X135.920 Y90.708 F7200
G1 X138.200 Y92.988 E42.5871 F3600
G0 X138.390 Y92.613 F7200
G1 X136.252 Y90.474 E42.7380 F3600
G0 X136.596 Y90.253 F7200
G1 X138.564 Y92.221 E42.8769 F3600
G0 X138.724 Y91.815 F7200
G1 X136.963 Y90.054 E43.0011 F3600
G0 X137.363 Y89.888 F7200
G1 X138.852 Y91.377 E43.1062 F3600
G0 X139.102 Y91.816 F7200
G0 X139.034 Y92.032
G0 X138.777 Y92.647
G0 X138.384 Y93.423
G0 X137.542 Y94.534
G0 X138.690 Y96.522
G0 X140.075 Y96.349
G0 X140.893 Y96.389
G0 X141.513 Y96.467
G0 X141.778 Y96.519
G0 X141.778 Y96.519
G0 X142.592 Y97.951
G0 X142.586 Y97.939
G1 X141.473 Y96.827 E43.1847 F3600
G0 X140.827 Y96.746 F7200
G1 X142.707 Y98.626 E43.3174 F3600
G0 X142.559 Y99.044 F7200
G1 X140.232 Y96.717 E43.4815 F3600
G0 X139.707 Y96.758 F7200
G1 X142.238 Y99.288 E43.6601 F3600
G0 X141.884 Y99.501 F7200
G1 X139.204 Y96.821 E43.8491 F3600
G0 X138.702 Y96.884 F7200
G1 X141.511 Y99.693 E44.0473 F3600
G0 X141.119 Y99.867 F7200
G1 X132.950 Y91.698 E44.6237 F3600
G0 X132.061 Y91.374 F7200
G1 X140.723 Y100.036 E45.2349 F3600
G0 X140.270 Y100.149 F7200
G1 X128.606 Y88.485 E46.0578 F3600
G0 X128.472 Y88.917 F7200
G1 X139.810 Y100.254 E46.8577 F3600
G0 X139.349 Y100.360 F7200
G1 X128.368 Y89.378 E47.6325 F3600
G0 X128.292 Y89.868 F7200
G1 X139.074 Y100.650 E48.3933 F3600
G0 X138.989 Y101.131 F7200
G1 X128.264 Y90.406 E49.1499 F3600
G0 X128.237 Y90.945 F7200
G1 X138.904 Y101.612 E49.9025 F3600
G0 X138.819 Y102.092 F7200
G1 X128.058 Y91.331 E50.6618 F3600
G0 X127.643 Y91.482 F7200
G1 X138.734 Y102.573 E51.4443 F3600
G0 X138.649 Y103.054 F7200
G1 X127.228 Y91.633 E52.2501 F3600
G0 X126.814 Y91.784 F7200
G1 X141.268 Y106.238 E53.2699 F3600
G0 X141.065 Y106.601 F7200
G1 X126.399 Y91.935 E54.3047 F3600
G0 X125.984 Y92.086 F7200
G1 X140.862 Y106.964 E55.3544 F3600
G0 X140.660 Y107.327 F7200
G1 X123.941 Y90.609 E56.5340 F3600
; ------------------------------------
; Layer #3
; ------------------------------------
M106 S255 ;set fan speed
G92 E0 ;reset extr
;segType:Infill
G0 F3000 E-1.0000
G0 F1200 Z1.200
G0 X131.619 Y89.330 F7200
G0 F3000 E0.0000
G1 X120.601 Y100.348 E0.9329 F4500
G0 X117.404 Y99.019 F7200
G1 X119.701 Y96.722 E1.1273 F4500
;segType:Perimeter
G0 X120.726 Y96.733 F7200
G1 X121.126 Y96.041 E1.1672 F2159
G1 X121.979 Y94.564 E1.2523
G1 X121.276 Y93.635 E1.3104
G1 X120.876 Y92.859 E1.3540
G1 X120.613 Y92.226 E1.3881
G1 X120.485 Y91.850 E1.4080
G1 X120.373 Y91.394 E1.4314
G1 X120.334 Y91.108 E1.4458
G1 X120.355 Y90.721 E1.4651
G1 X120.465 Y90.527 E1.4763
G1 X122.135 Y89.126 E1.5850
G1 X122.347 Y89.081 E1.5959
G1 X122.459 Y89.069 E1.6015
G1 X122.672 Y89.104 E1.6122
G1 X122.987 Y89.203 E1.6287
G1 X123.245 Y89.309 E1.6426
G1 X123.722 Y89.556 E1.6694
G1 X124.341 Y89.957 E1.7062
G1 X125.036 Y90.480 E1.7496
G1 X125.829 Y91.334 E1.8077
G1 X127.487 Y90.730 E1.8958
G1 X127.546 Y89.566 E1.9539
G1 X127.738 Y88.716 E1.9974
G1 X127.944 Y88.062 E2.0316
G1 X128.087 Y87.690 E2.0515
G1 X128.295 Y87.269 E2.0749
G1 X128.449 Y87.025 E2.0893
G1 X128.714 Y86.743 E2.1086
G1 X128.976 Y86.664 E2.1223
G1 X131.086 Y86.664 E2.2276
G1 X131.164 Y86.678 E2.2315
G1 X131.380 Y86.825 E2.2445
G1 X131.708 Y87.276 E2.2724
G1 X131.835 Y87.518 E2.2860
G1 X132.042 Y88.014 E2.3128
G1 X132.258 Y88.719 E2.3496
G1 X132.454 Y89.567 E2.3930
G1 X132.513 Y90.730 E2.4511
G1 X134.171 Y91.334 E2.5392
G1 X134.964 Y90.480 E2.5973
G1 X135.658 Y89.952 E2.6408
G1 X136.236 Y89.583 E2.6750
G1 X136.584 Y89.391 E2.6949
G1 X137.015 Y89.202 E2.7183
G1 X137.289 Y89.114 E2.7327
G1 X137.682 Y89.069 E2.7524
G1 X137.807 Y89.094 E2.7588
G1 X137.877 Y89.135 E2.7628
G1 X139.501 Y90.499 E2.8686
G1 X139.601 Y90.624 E2.8766
G1 X139.666 Y90.852 E2.8885
G1 X139.669 Y91.068 E2.8992
G1 X139.626 Y91.395 E2.9157
G1 X139.566 Y91.668 E2.9296
G1 X139.406 Y92.181 E2.9564
G1 X139.118 Y92.860 E2.9932
G1 X138.724 Y93.635 E3.0366
G1 X138.021 Y94.564 E3.0947
G1 X138.904 Y96.093 E3.1828
G1 X140.060 Y95.948 E3.2409
G1 X140.931 Y95.990 E3.2844
G1 X141.611 Y96.079 E3.3186
G1 X142.001 Y96.155 E3.3385
G1 X142.452 Y96.287 E3.3619
G1 X142.719 Y96.396 E3.3763
G1 X143.043 Y96.608 E3.3956
G1 X143.156 Y96.796 E3.4066
G1 X143.529 Y98.912 E3.5138
G1 X143.483 Y99.151 E3.5259
G1 X143.281 Y99.427 E3.5429
G1 X143.043 Y99.646 E3.5591
G1 X142.822 Y99.816 E3.5730
G1 X142.369 Y100.106 E3.5999
G1 X141.712 Y100.441 E3.6366
G1 X140.912 Y100.782 E3.6800
G1 X139.776 Y101.042 E3.7382
G1 X139.470 Y102.780 E3.8262
G1 X140.448 Y103.412 E3.8843
G1 X141.089 Y104.005 E3.9278
G1 X141.552 Y104.509 E3.9620
G1 X141.802 Y104.819 E3.9819
G1 X142.063 Y105.210 E4.0053
G1 X142.198 Y105.465 E4.0197
G1 X142.310 Y105.836 E4.0390
G1 X142.307 Y105.939 E4.0442
G1 X142.223 Y106.143 E4.0552
G1 X141.191 Y107.929 E4.1581
G1 X141.140 Y107.990 E4.1621
G1 X140.905 Y108.104 E4.1751
G1 X140.351 Y108.162 E4.2029
G1 X140.078 Y108.151 E4.2166
G1 X139.544 Y108.082 E4.2434
G1 X138.826 Y107.917 E4.2802
G1 X137.994 Y107.663 E4.3236
G1 X136.957 Y107.132 E4.3817
G1 X135.605 Y108.267 E4.4697
G1 X135.948 Y109.380 E4.5279
G1 X136.058 Y110.245 E4.5714
G1 X136.089 Y110.930 E4.6056
G1 X136.081 Y111.328 E4.6254
G1 X136.030 Y111.795 E4.6488
G1 X135.968 Y112.077 E4.6632
G1 X135.816 Y112.433 E4.6826
G1 X135.490 Y112.635 E4.7017
G1 X133.613 Y113.318 E4.8013
G1 X133.535 Y113.331 E4.8053
G1 X133.282 Y113.268 E4.8183
G1 X132.820 Y112.956 E4.8461
G1 X132.618 Y112.772 E4.8598
G1 X132.254 Y112.376 E4.8866
G1 X131.810 Y111.788 E4.9234
G1 X131.335 Y111.059 E4.9668
G1 X130.882 Y109.985 E5.0249
G1 X129.118 Y109.985 E5.1129
G1 X128.664 Y111.059 E5.1711
G1 X128.193 Y111.792 E5.2146
G1 X127.776 Y112.337 E5.2488
G1 X127.514 Y112.636 E5.2686
G1 X127.175 Y112.961 E5.2921
G1 X126.947 Y113.138 E5.3065
G1 X126.601 Y113.313 E5.3258
G1 X126.467 Y113.333 E5.3326
G1 X126.388 Y113.318 E5.3366
G1 X124.404 Y112.596 E5.4419
G1 X124.267 Y112.522 E5.4497
G1 X124.119 Y112.317 E5.4623
G1 X124.043 Y112.115 E5.4731
G1 X123.971 Y111.793 E5.4895
G1 X123.933 Y111.517 E5.5034
G1 X123.909 Y110.979 E5.5303
G1 X123.947 Y110.243 E5.5670
G1 X124.052 Y109.380 E5.6104
G1 X124.395 Y108.267 E5.6686
G1 X123.043 Y107.132 E5.7566
G1 X122.006 Y107.663 E5.8147
G1 X121.173 Y107.922 E5.8582
G1 X120.504 Y108.071 E5.8925
G1 X120.111 Y108.132 E5.9123
G1 X119.642 Y108.163 E5.9357
G1 X119.354 Y108.152 E5.9501
G1 X118.969 Y108.060 E5.9699
G1 X118.861 Y107.993 E5.9762
G1 X118.809 Y107.931 E5.9802
G1 X117.755 Y106.104 E6.0855
G1 X117.698 Y105.939 E6.0942
G1 X117.714 Y105.713 E6.1054
G1 X117.941 Y105.203 E6.1333
G1 X118.087 Y104.973 E6.1469
G1 X118.414 Y104.545 E6.1737
G1 X118.916 Y104.006 E6.2105
G1 X119.552 Y103.412 E6.2539
G1 X120.530 Y102.780 E6.3120
G1 X120.224 Y101.042 E6.4001
G1 X119.088 Y100.782 E6.4582
G1 X118.284 Y100.444 E6.5017
G1 X117.675 Y100.129 E6.5359
G1 X117.335 Y99.923 E6.5558
G1 X116.956 Y99.645 E6.5792
G1 X116.742 Y99.451 E6.5936
G1 X116.518 Y99.152 E6.6122
G1 X116.471 Y98.912 E6.6245
G1 X116.845 Y96.791 E6.7319
G1 X116.872 Y96.717 E6.7358
G1 X117.060 Y96.524 E6.7493
G1 X117.245 Y96.413 E6.7601
G1 X117.550 Y96.287 E6.7765
G1 X117.816 Y96.202 E6.7904
G1 X118.340 Y96.085 E6.8172
G1 X119.072 Y95.994 E6.8540
G1 X119.941 Y95.948 E6.8974
G1 X121.037 Y96.085 E6.9525
G0 X121.831 Y96.184 F7200
;segType:Loop
G0 X121.993 Y95.340
G1 X122.458 Y94.534 E6.9990 F3600
G1 X121.615 Y93.421 E7.0686
G1 X121.240 Y92.691 E7.1096
G1 X120.988 Y92.085 E7.1423
G1 X120.869 Y91.738 E7.1606
G1 X120.767 Y91.319 E7.1821
G1 X120.736 Y91.092 E7.1936
G1 X120.750 Y90.836 E7.2063
G1 X120.778 Y90.786 E7.2092
G1 X122.310 Y89.501 E7.3089
G1 X122.461 Y89.475 E7.3166
G1 X122.572 Y89.493 E7.3222
G1 X123.085 Y89.676 E7.3494
G1 X123.521 Y89.902 E7.3739
G1 X124.111 Y90.285 E7.4090
G1 X124.767 Y90.778 E7.4500
G1 X125.716 Y91.800 E7.5195
G1 X127.873 Y91.015 E7.6341
G1 X127.944 Y89.621 E7.7037
G1 X128.125 Y88.820 E7.7447
G1 X128.321 Y88.194 E7.7774
G1 X128.454 Y87.851 E7.7957
G1 X128.644 Y87.465 E7.8172
G1 X128.767 Y87.271 E7.8287
G1 X128.932 Y87.095 E7.8407
G1 X129.034 Y87.064 E7.8460
G1 X130.919 Y87.064 E7.9400
G1 X131.098 Y87.116 E7.9494
G1 X131.367 Y87.488 E7.9722
G1 X131.473 Y87.688 E7.9835
G1 X131.665 Y88.150 E8.0085
G1 X131.871 Y88.823 E8.0436
G1 X132.057 Y89.622 E8.0846
G1 X132.127 Y91.015 E8.1541
G1 X134.284 Y91.800 E8.2687
G1 X135.234 Y90.777 E8.3383
G1 X135.888 Y90.280 E8.3793
G1 X136.441 Y89.927 E8.4120
G1 X136.762 Y89.750 E8.4303
G1 X137.156 Y89.576 E8.4518
G1 X137.373 Y89.507 E8.4632
G1 X137.547 Y89.487 E8.4719
G1 X137.811 Y89.603 E8.4863
G1 X139.129 Y90.709 E8.5722
G1 X139.267 Y90.910 E8.5843
G1 X139.268 Y91.037 E8.5906
G1 X139.177 Y91.574 E8.6178
G1 X139.030 Y92.043 E8.6424
G1 X138.755 Y92.691 E8.6775
G1 X138.384 Y93.422 E8.7184
G1 X137.542 Y94.534 E8.7880
G1 X138.690 Y96.522 E8.9025
G1 X140.075 Y96.349 E8.9722
G1 X140.895 Y96.389 E9.0131
G1 X141.546 Y96.474 E9.0459
G1 X141.906 Y96.544 E9.0642
G1 X142.320 Y96.665 E9.0857
G1 X142.532 Y96.752 E9.0971
G1 X142.684 Y96.851 E9.1062
G1 X142.790 Y97.024 E9.1163
G1 X143.113 Y98.853 E9.2089
G1 X142.986 Y99.152 E9.2251
G1 X142.583 Y99.494 E9.2515
G1 X142.170 Y99.759 E9.2760
G1 X141.543 Y100.079 E9.3111
G1 X140.788 Y100.400 E9.3521
G1 X139.428 Y100.711 E9.4216
G1 X139.030 Y102.972 E9.5362
G1 X140.202 Y103.729 E9.6058
G1 X140.805 Y104.287 E9.6468
G1 X141.249 Y104.771 E9.6795
G1 X141.479 Y105.056 E9.6978
G1 X141.719 Y105.414 E9.7193
G1 X141.826 Y105.618 E9.7308
G1 X141.888 Y105.824 E9.7416
G1 X141.863 Y105.966 E9.7487
G1 X140.924 Y107.592 E9.8424
G1 X140.794 Y107.714 E9.8513
G1 X140.338 Y107.761 E9.8742
G1 X140.111 Y107.752 E9.8855
G1 X139.615 Y107.688 E9.9105
G1 X138.929 Y107.530 E9.9456
G1 X138.144 Y107.291 E9.9865
G1 X136.903 Y106.655 E10.0561
G1 X135.145 Y108.131 E10.1706
G1 X135.556 Y109.465 E10.2402
G1 X135.659 Y110.279 E10.2812
G1 X135.688 Y110.935 E10.3140
G1 X135.681 Y111.302 E10.3323
G1 X135.634 Y111.730 E10.3538
G1 X135.586 Y111.955 E10.3652
G1 X135.498 Y112.159 E10.3763
G1 X135.314 Y112.273 E10.3871
G1 X133.510 Y112.930 E10.4829
G1 X133.551 Y112.923 E10.4849
G1 X133.448 Y112.897 E10.4902
G1 X133.068 Y112.640 E10.5131
G1 X132.900 Y112.488 E10.5244
G1 X132.561 Y112.120 E10.5494
G1 X132.138 Y111.558 E10.5845
G1 X131.690 Y110.870 E10.6254
G1 X131.148 Y109.585 E10.6950
G1 X128.852 Y109.585 E10.8095
G1 X128.309 Y110.872 E10.8792
G1 X127.865 Y111.562 E10.9201
G1 X127.466 Y112.084 E10.9529
G1 X127.225 Y112.360 E10.9712
G1 X126.914 Y112.658 E10.9927
G1 X126.732 Y112.798 E11.0041
G1 X126.520 Y112.906 E11.0160
G1 X126.347 Y112.878 E11.0247
G1 X124.633 Y112.254 E11.1157
G1 X124.474 Y112.126 E11.1259
G1 X124.430 Y112.008 E11.1322
G1 X124.332 Y111.471 E11.1594
G1 X124.309 Y110.981 E11.1839
G1 X124.346 Y110.278 E11.2190
G1 X124.445 Y109.463 E11.2600
G1 X124.855 Y108.131 E11.3295
G1 X123.097 Y106.655 E11.4441
G1 X121.854 Y107.292 E11.5137
G1 X121.070 Y107.535 E11.5547
G1 X120.429 Y107.678 E11.5874
G1 X120.067 Y107.734 E11.6057
G1 X119.637 Y107.762 E11.6272
G1 X119.409 Y107.753 E11.6386
G1 X119.150 Y107.692 E11.6519
G1 X119.119 Y107.666 E11.6539
G1 X118.166 Y106.016 E11.7490
G1 X118.116 Y105.795 E11.7603
G1 X118.295 Y105.393 E11.7822
G1 X118.416 Y105.201 E11.7935
G1 X118.720 Y104.804 E11.8185
G1 X119.199 Y104.289 E11.8536
G1 X119.799 Y103.729 E11.8945
G1 X120.970 Y102.972 E11.9641
G1 X120.572 Y100.711 E12.0786
G1 X119.211 Y100.400 E12.1483
G1 X118.454 Y100.082 E12.1892
G1 X117.871 Y99.779 E12.2220
G1 X117.557 Y99.590 E12.2403
G1 X117.209 Y99.335 E12.2618
G1 X117.039 Y99.181 E12.2732
G1 X116.919 Y99.020 E12.2833
G1 X116.888 Y98.853 E12.2918
G1 X117.210 Y97.024 E12.3844
G1 X117.310 Y96.840 E12.3948
G1 X117.418 Y96.776 E12.4011
G1 X117.929 Y96.587 E12.4283
G1 X118.409 Y96.479 E12.4528
G1 X119.107 Y96.393 E12.4879
G1 X119.926 Y96.349 E12.5289
G1 X121.310 Y96.522 E12.5984
G1 X121.893 Y95.513 E12.6566
;segType:Infill
G0 X122.470 Y93.953 F7200
G1 X124.935 Y91.488 E12.8653 F4500
G0 X139.726 Y103.850 F7200
G1 X137.183 Y106.394 E13.0806 F4500
G0 X134.927 Y108.649 F7200
G1 X132.353 Y111.224 E13.2986 F4500
G0 X131.955 Y111.277 F7200
G0 X131.690 Y110.870
G0 X131.148 Y109.585
G0 X128.852 Y109.585
G0 X128.309 Y110.872
G0 X127.865 Y111.562
G0 X127.639 Y111.857
G0 X127.639 Y111.857
G0 X127.111 Y111.928
G0 X127.124 Y111.927
G1 X126.649 Y112.402 E13.3388 F4500
G0 X129.826 Y109.225 F7200
G1 X142.079 Y96.972 E14.3763 F4500
G0 X138.175 Y96.351 F7200
G1 X124.773 Y109.753 E15.5110 F4500
G0 X124.538 Y109.161 F7200
G0 X124.855 Y108.131
G0 X123.767 Y107.218
G0 X123.767 Y107.218
G0 X123.482 Y106.500
G0 X123.487 Y106.513
G1 X138.890 Y91.110 E16.8150 F4500
G0 X133.556 Y91.919 F7200
G1 X118.903 Y106.572 E18.0557 F4500
; ------------------------------------
; Layer #4
; ------------------------------------
G92 E0 ;reset extr
;segType:Infill
G0 F3000 E-1.0000
G0 F1200 Z1.500
G0 X135.094 Y111.944 F7200
G0 F3000 E0.0000
G1 X119.864 Y96.713 E1.2895 F4500
;segType:Perimeter
G0 X120.726 Y96.733 F7200
G1 X121.126 Y96.041 E1.3294 F2159
G1 X121.979 Y94.564 E1.4145
G1 X121.276 Y93.635 E1.4726
G1 X120.875 Y92.857 E1.5162
G1 X120.602 Y92.194 E1.5520
G1 X120.485 Y91.850 E1.5701
G1 X120.371 Y91.379 E1.5944
G1 X120.334 Y91.106 E1.6081
G1 X120.356 Y90.720 E1.6273
G1 X120.465 Y90.527 E1.6384
G1 X122.135 Y89.126 E1.7472
G1 X122.347 Y89.081 E1.7580
G1 X122.456 Y89.070 E1.7634
G1 X122.862 Y89.160 E1.7842
G1 X123.237 Y89.305 E1.8043
G1 X123.733 Y89.562 E1.8321
G1 X124.381 Y89.987 E1.8708
G1 X125.036 Y90.480 E1.9117
G1 X125.829 Y91.334 E1.9698
G1 X127.487 Y90.730 E2.0579
G1 X127.546 Y89.566 E2.1160
G1 X127.739 Y88.713 E2.1597
G1 X127.956 Y88.029 E2.1955
G1 X128.087 Y87.691 E2.2136
G1 X128.303 Y87.256 E2.2378
G1 X128.450 Y87.024 E2.2515
G1 X128.721 Y86.738 E2.2711
G1 X128.976 Y86.664 E2.2844
G1 X131.086 Y86.664 E2.3897
G1 X131.166 Y86.679 E2.3937
G1 X131.384 Y86.828 E2.4069
G1 X131.638 Y87.157 E2.4276
G1 X131.831 Y87.510 E2.4477
G1 X132.046 Y88.026 E2.4756
G1 X132.270 Y88.768 E2.5142
G1 X132.454 Y89.567 E2.5551
G1 X132.513 Y90.730 E2.6132
G1 X134.171 Y91.334 E2.7013
G1 X134.964 Y90.480 E2.7594
G1 X135.661 Y89.950 E2.8031
G1 X136.267 Y89.566 E2.8389
G1 X136.584 Y89.391 E2.8570
G1 X137.029 Y89.197 E2.8812
G1 X137.292 Y89.113 E2.8949
G1 X137.675 Y89.068 E2.9142
G1 X137.807 Y89.095 E2.9209
G1 X137.877 Y89.135 E2.9250
G1 X139.501 Y90.499 E3.0308
G1 X139.601 Y90.624 E3.0388
G1 X139.665 Y90.849 E3.0504
G1 X139.647 Y91.265 E3.0712
G1 X139.568 Y91.659 E3.0913
G1 X139.402 Y92.193 E3.1191
G1 X139.096 Y92.905 E3.1578
G1 X138.724 Y93.635 E3.1987
G1 X138.021 Y94.564 E3.2568
G1 X138.904 Y96.093 E3.3449
G1 X140.060 Y95.948 E3.4030
G1 X140.934 Y95.990 E3.4467
G1 X141.645 Y96.085 E3.4825
G1 X142.001 Y96.155 E3.5005
G1 X142.467 Y96.292 E3.5248
G1 X142.721 Y96.397 E3.5385
G1 X143.044 Y96.608 E3.5577
G1 X143.156 Y96.796 E3.5686
G1 X143.529 Y98.912 E3.6758
G1 X143.482 Y99.153 E3.6881
G1 X143.279 Y99.428 E3.7051
G1 X142.826 Y99.813 E3.7348
G1 X142.358 Y100.112 E3.7625
G1 X141.666 Y100.462 E3.8012
G1 X140.912 Y100.782 E3.8421
G1 X139.776 Y101.042 E3.9002
G1 X139.470 Y102.780 E3.9882
G1 X140.448 Y103.412 E4.0464
G1 X141.091 Y104.007 E4.0900
G1 X141.575 Y104.536 E4.1258
G1 X141.802 Y104.819 E4.1439
G1 X142.070 Y105.223 E4.1681
G1 X142.198 Y105.467 E4.1819
G1 X142.310 Y105.836 E4.2011
G1 X142.307 Y105.939 E4.2062
G1 X142.223 Y106.143 E4.2172
G1 X141.191 Y107.929 E4.3201
G1 X141.139 Y107.991 E4.3242
G1 X140.901 Y108.106 E4.3374
G1 X140.489 Y108.160 E4.3581
G1 X140.086 Y108.152 E4.3782
G1 X139.532 Y108.080 E4.4061
G1 X138.778 Y107.903 E4.4447
G1 X137.994 Y107.663 E4.4856
G1 X136.957 Y107.132 E4.5437
G1 X135.605 Y108.267 E4.6318
G1 X135.948 Y109.380 E4.6899
G1 X136.058 Y110.248 E4.7336
G1 X136.088 Y110.965 E4.7694
G1 X136.081 Y111.328 E4.7875
G1 X136.027 Y111.810 E4.8117
G1 X135.968 Y112.079 E4.8254
G1 X135.816 Y112.433 E4.8447
G1 X135.490 Y112.635 E4.8638
G1 X133.614 Y113.318 E4.9634
G1 X133.534 Y113.331 E4.9674
G1 X133.278 Y113.266 E4.9806
G1 X132.927 Y113.043 E5.0014
G1 X132.624 Y112.778 E5.0214
G1 X132.246 Y112.367 E5.0493
G1 X131.782 Y111.746 E5.0880
G1 X131.335 Y111.059 E5.1289
G1 X130.882 Y109.985 E5.1870
G1 X129.118 Y109.985 E5.2750
G1 X128.664 Y111.059 E5.3332
G1 X128.191 Y111.795 E5.3768
G1 X127.753 Y112.363 E5.4126
G1 X127.515 Y112.636 E5.4307
G1 X127.163 Y112.971 E5.4549
G1 X126.945 Y113.139 E5.4687
G1 X126.600 Y113.313 E5.4879
G1 X126.467 Y113.333 E5.4947
G1 X126.388 Y113.318 E5.4987
G1 X124.404 Y112.596 E5.6040
G1 X124.267 Y112.522 E5.6118
G1 X124.121 Y112.320 E5.6242
G1 X123.996 Y111.923 E5.6450
G1 X123.934 Y111.525 E5.6650
G1 X123.909 Y110.967 E5.6929
G1 X123.952 Y110.194 E5.7316
G1 X124.052 Y109.380 E5.7725
G1 X124.395 Y108.267 E5.8306
G1 X123.043 Y107.132 E5.9186
G1 X122.006 Y107.663 E5.9768
G1 X121.170 Y107.923 E6.0204
G1 X120.469 Y108.077 E6.0562
G1 X120.111 Y108.132 E6.0743
G1 X119.627 Y108.163 E6.0985
G1 X119.351 Y108.151 E6.1123
G1 X118.976 Y108.063 E6.1315
G1 X118.861 Y107.992 E6.1383
G1 X118.809 Y107.931 E6.1423
G1 X117.755 Y106.104 E6.2475
G1 X117.698 Y105.939 E6.2562
G1 X117.715 Y105.708 E6.2677
G1 X117.874 Y105.324 E6.2885
G1 X118.083 Y104.980 E6.3086
G1 X118.422 Y104.536 E6.3364
G1 X118.952 Y103.971 E6.3751
G1 X119.552 Y103.412 E6.4160
G1 X120.530 Y102.780 E6.4741
G1 X120.224 Y101.042 E6.5622
G1 X119.088 Y100.782 E6.6203
G1 X118.281 Y100.443 E6.6640
G1 X117.645 Y100.111 E6.6998
G1 X117.335 Y99.923 E6.7178
G1 X116.944 Y99.635 E6.7421
G1 X116.741 Y99.450 E6.7558
G1 X116.510 Y99.141 E6.7750
G1 X116.467 Y99.012 E6.7818
G1 X116.467 Y98.932 E6.7858
G1 X116.845 Y96.792 E6.8942
G1 X116.873 Y96.716 E6.8983
G1 X117.057 Y96.526 E6.9115
G1 X117.426 Y96.334 E6.9322
G1 X117.807 Y96.205 E6.9523
G1 X118.352 Y96.083 E6.9802
G1 X119.122 Y95.991 E7.0188
G1 X119.941 Y95.948 E7.0597
G1 X121.037 Y96.085 E7.1148
G0 X121.831 Y96.184 F7200
;segType:Loop
G0 X121.993 Y95.340
G1 X122.458 Y94.534 E7.1613 F3600
G1 X121.615 Y93.421 E7.2309
G1 X121.239 Y92.689 E7.2720
G1 X120.976 Y92.053 E7.3063
G1 X120.869 Y91.739 E7.3229
G1 X120.764 Y91.305 E7.3451
G1 X120.735 Y91.090 E7.3560
G1 X120.750 Y90.836 E7.3686
G1 X120.778 Y90.787 E7.3715
G1 X122.310 Y89.501 E7.4712
G1 X122.446 Y89.477 E7.4782
G1 X122.746 Y89.543 E7.4935
G1 X123.072 Y89.670 E7.5109
G1 X123.531 Y89.908 E7.5367
G1 X124.151 Y90.314 E7.5737
G1 X124.767 Y90.778 E7.6122
G1 X125.716 Y91.800 E7.6818
G1 X127.873 Y91.015 E7.7963
G1 X127.944 Y89.621 E7.8659
G1 X128.126 Y88.818 E7.9070
G1 X128.333 Y88.162 E7.9414
G1 X128.453 Y87.852 E7.9579
G1 X128.652 Y87.452 E7.9802
G1 X128.767 Y87.271 E7.9909
G1 X128.936 Y87.092 E8.0032
G1 X129.032 Y87.064 E8.0082
G1 X130.919 Y87.064 E8.1023
G1 X131.106 Y87.122 E8.1121
G1 X131.302 Y87.377 E8.1281
G1 X131.470 Y87.684 E8.1456
G1 X131.669 Y88.161 E8.1713
G1 X131.883 Y88.871 E8.2083
G1 X132.057 Y89.622 E8.2468
G1 X132.127 Y91.015 E8.3164
G1 X134.284 Y91.800 E8.4309
G1 X135.234 Y90.777 E8.5006
G1 X135.890 Y90.279 E8.5417
G1 X136.470 Y89.910 E8.5760
G1 X136.761 Y89.750 E8.5926
G1 X137.170 Y89.571 E8.6148
G1 X137.377 Y89.506 E8.6256
G1 X137.547 Y89.486 E8.6342
G1 X137.811 Y89.603 E8.6486
G1 X139.129 Y90.709 E8.7345
G1 X139.263 Y90.896 E8.7459
G1 X139.249 Y91.217 E8.7619
G1 X139.180 Y91.560 E8.7794
G1 X139.026 Y92.054 E8.8052
G1 X138.734 Y92.735 E8.8422
G1 X138.384 Y93.422 E8.8807
G1 X137.542 Y94.534 E8.9502
G1 X138.690 Y96.522 E9.0648
G1 X140.075 Y96.349 E9.1344
G1 X140.898 Y96.389 E9.1755
G1 X141.580 Y96.480 E9.2098
G1 X141.905 Y96.544 E9.2264
G1 X142.334 Y96.670 E9.2487
G1 X142.534 Y96.752 E9.2595
G1 X142.685 Y96.851 E9.2685
G1 X142.790 Y97.024 E9.2786
G1 X143.113 Y98.853 E9.3712
G1 X142.985 Y99.153 E9.3875
G1 X142.588 Y99.490 E9.4135
G1 X142.160 Y99.764 E9.4388
G1 X141.498 Y100.099 E9.4758
G1 X140.788 Y100.400 E9.5143
G1 X139.428 Y100.711 E9.5839
G1 X139.030 Y102.972 E9.6984
G1 X140.202 Y103.729 E9.7681
G1 X140.807 Y104.289 E9.8092
G1 X141.271 Y104.797 E9.8435
G1 X141.479 Y105.055 E9.8600
G1 X141.726 Y105.427 E9.8823
G1 X141.826 Y105.619 E9.8931
G1 X141.888 Y105.824 E9.9038
G1 X141.863 Y105.966 E9.9110
G1 X140.924 Y107.592 E10.0046
G1 X140.785 Y107.718 E10.0140
G1 X140.467 Y107.760 E10.0300
G1 X140.116 Y107.752 E10.0475
G1 X139.604 Y107.686 E10.0733
G1 X138.882 Y107.516 E10.1103
G1 X138.144 Y107.291 E10.1488
G1 X136.903 Y106.655 E10.2183
G1 X135.145 Y108.131 E10.3329
G1 X135.555 Y109.465 E10.4025
G1 X135.659 Y110.282 E10.4436
G1 X135.688 Y110.969 E10.4779
G1 X135.681 Y111.301 E10.4945
G1 X135.632 Y111.745 E10.5168
G1 X135.585 Y111.956 E10.5276
G1 X135.498 Y112.160 E10.5386
G1 X135.315 Y112.273 E10.5494
G1 X133.511 Y112.930 E10.6451
G1 X133.550 Y112.923 E10.6471
G1 X133.438 Y112.894 E10.6529
G1 X133.167 Y112.722 E10.6689
G1 X132.904 Y112.491 E10.6864
G1 X132.554 Y112.111 E10.7122
G1 X132.110 Y111.517 E10.7492
G1 X131.690 Y110.870 E10.7876
G1 X131.148 Y109.585 E10.8572
G1 X128.852 Y109.585 E10.9717
G1 X128.309 Y110.872 E11.0414
G1 X127.863 Y111.564 E11.0825
G1 X127.444 Y112.109 E11.1168
G1 X127.226 Y112.359 E11.1334
G1 X126.902 Y112.667 E11.1556
G1 X126.731 Y112.799 E11.1664
G1 X126.520 Y112.906 E11.1782
G1 X126.347 Y112.878 E11.1870
G1 X124.633 Y112.254 E11.2780
G1 X124.474 Y112.110 E11.2886
G1 X124.386 Y111.832 E11.3032
G1 X124.333 Y111.485 E11.3207
G1 X124.309 Y110.969 E11.3465
G1 X124.351 Y110.229 E11.3834
G1 X124.445 Y109.464 E11.4219
G1 X124.855 Y108.131 E11.4915
G1 X123.097 Y106.655 E11.6060
G1 X121.855 Y107.292 E11.6757
G1 X121.068 Y107.536 E11.7168
G1 X120.396 Y107.683 E11.7511
G1 X120.068 Y107.734 E11.7677
G1 X119.622 Y107.762 E11.7899
G1 X119.406 Y107.753 E11.8007
G1 X119.155 Y107.694 E11.8136
G1 X119.118 Y107.665 E11.8160
G1 X118.166 Y106.016 E11.9110
G1 X118.109 Y105.802 E11.9220
G1 X118.232 Y105.505 E11.9380
G1 X118.414 Y105.206 E11.9555
G1 X118.727 Y104.795 E11.9813
G1 X119.235 Y104.255 E12.0183
G1 X119.799 Y103.729 E12.0567
G1 X120.970 Y102.972 E12.1263
G1 X120.572 Y100.711 E12.2408
G1 X119.211 Y100.400 E12.3105
G1 X118.451 Y100.081 E12.3516
G1 X117.841 Y99.762 E12.3859
G1 X117.557 Y99.591 E12.4025
G1 X117.198 Y99.326 E12.4247
G1 X117.038 Y99.180 E12.4355
G1 X116.919 Y99.020 E12.4455
G1 X116.888 Y98.853 E12.4540
G1 X117.210 Y97.024 E12.5466
G1 X117.299 Y96.851 E12.5563
G1 X117.584 Y96.703 E12.5723
G1 X117.915 Y96.590 E12.5898
G1 X118.420 Y96.477 E12.6156
G1 X119.156 Y96.390 E12.6526
G1 X119.926 Y96.349 E12.6911
G1 X121.310 Y96.522 E12.7606
G1 X121.893 Y95.513 E12.8188
G0 X121.893 Y95.513 F7200
G0 X122.458 Y94.534
G0 X121.994 Y93.921
G0 X121.994 Y93.921
G0 X122.240 Y90.025
;segType:Infill
G0 X122.239 Y90.038
G1 X139.491 Y107.289 E14.2794 F4500
G0 X138.819 Y102.092 F7200
G1 X128.058 Y91.331 E15.1905 F4500
G0 X128.940 Y87.687 F7200
G1 X131.739 Y90.487 E15.4276 F4500
G0 X132.100 Y90.486 F7200
G0 X132.127 Y91.015
G0 X134.284 Y91.800
G0 X135.234 Y90.777
G0 X135.628 Y90.477
G0 X135.628 Y90.477
G0 X136.267 Y90.476
G0 X136.253 Y90.476
G1 X138.387 Y92.609 E15.6082 F4500
G0 X132.950 Y91.698 F7200
G1 X141.119 Y99.867 E16.2998 F4500
G0 X122.631 Y94.955 F7200
G1 X135.249 Y107.573 E17.3681 F4500
G0 X124.691 Y110.592 F7200
G1 X126.560 Y112.461 E17.5263 F4500
G0 X128.387 Y109.762 F7200
G1 X121.280 Y102.655 E18.1280 F4500
G0 X119.063 Y104.964 F7200
G1 X121.213 Y107.113 E18.3100 F4500
G0 X119.831 Y103.708 F7200
G0 X120.970 Y102.972
G0 X120.572 Y100.711
G0 X119.211 Y100.400
G0 X118.451 Y100.081
G0 X118.335 Y100.020
G0 X118.335 Y100.020
G0 X118.119 Y99.487
G0 X118.124 Y99.499
G1 X117.287 Y98.662 E18.3809 F4500
; ------------------------------------
; Layer #5
; ------------------------------------
G92 E0 ;reset extr
;segType:Infill
G0 F3000 E-1.0000
G0 F1200 Z1.800
G0 X131.619 Y89.330 F7200
G0 F3000 E0.0000
G1 X120.601 Y100.348 E0.9329 F4500
G0 X117.404 Y99.019 F7200
G1 X119.701 Y96.722 E1.1273 F4500
;segType:Perimeter
G0 X120.726 Y96.733 F7200
G1 X121.126 Y96.041 E1.1673 F2159
G1 X121.979 Y94.564 E1.2523
G1 X121.276 Y93.635 E1.3105
G1 X120.874 Y92.854 E1.3543
G1 X120.590 Y92.160 E1.3916
G1 X120.485 Y91.851 E1.4080
G1 X120.368 Y91.363 E1.4330
G1 X120.334 Y91.103 E1.4461
G1 X120.356 Y90.720 E1.4652
G1 X120.465 Y90.527 E1.4763
G1 X122.135 Y89.126 E1.5850
G1 X122.347 Y89.081 E1.5959
G1 X122.458 Y89.070 E1.6014
G1 X122.847 Y89.155 E1.6213
G1 X123.228 Y89.301 E1.6416
G1 X123.746 Y89.570 E1.6708
G1 X124.044 Y89.755 E1.6882
G1 X124.740 Y90.248 E1.7308
G1 X125.035 Y90.479 E1.7495
G1 X125.829 Y91.334 E1.8077
G1 X127.487 Y90.730 E1.8957
G1 X127.546 Y89.566 E1.9539
G1 X127.740 Y88.710 E1.9977
G1 X127.968 Y87.996 E2.0351
G1 X128.087 Y87.691 E2.0514
G1 X128.310 Y87.243 E2.0764
G1 X128.451 Y87.022 E2.0895
G1 X128.715 Y86.742 E2.1087
G1 X128.976 Y86.664 E2.1222
G1 X131.086 Y86.664 E2.2275
G1 X131.167 Y86.679 E2.2316
G1 X131.386 Y86.829 E2.2448
G1 X131.629 Y87.144 E2.2647
G1 X131.827 Y87.501 E2.2851
G1 X132.051 Y88.040 E2.3142
G1 X132.160 Y88.373 E2.3317
G1 X132.376 Y89.198 E2.3742
G1 X132.454 Y89.565 E2.3929
G1 X132.513 Y90.730 E2.4511
G1 X134.171 Y91.334 E2.5392
G1 X134.964 Y90.480 E2.5973
G1 X135.663 Y89.949 E2.6411
G1 X136.297 Y89.549 E2.6785
G1 X136.584 Y89.391 E2.6948
G1 X137.043 Y89.191 E2.7198
G1 X137.294 Y89.113 E2.7329
G1 X137.675 Y89.068 E2.7521
G1 X137.807 Y89.095 E2.7588
G1 X137.877 Y89.135 E2.7628
G1 X139.501 Y90.499 E2.8686
G1 X139.602 Y90.624 E2.8767
G1 X139.665 Y90.851 E2.8884
G1 X139.649 Y91.249 E2.9083
G1 X139.571 Y91.649 E2.9286
G1 X139.397 Y92.207 E2.9578
G1 X139.266 Y92.532 E2.9752
G1 X138.901 Y93.303 E3.0178
G1 X138.725 Y93.634 E3.0365
G1 X138.021 Y94.564 E3.0947
G1 X138.904 Y96.093 E3.1828
G1 X140.060 Y95.948 E3.2409
G1 X140.937 Y95.991 E3.2847
G1 X141.679 Y96.092 E3.3221
G1 X142.000 Y96.155 E3.3384
G1 X142.481 Y96.298 E3.3634
G1 X142.723 Y96.398 E3.3765
G1 X143.044 Y96.609 E3.3957
G1 X143.156 Y96.796 E3.4065
G1 X143.529 Y98.911 E3.5137
G1 X143.480 Y99.155 E3.5261
G1 X143.275 Y99.432 E3.5433
G1 X142.835 Y99.807 E3.5722
G1 X142.345 Y100.120 E3.6011
G1 X142.036 Y100.285 E3.6186
G1 X141.261 Y100.641 E3.6612
G1 X140.913 Y100.782 E3.6799
G1 X139.776 Y101.042 E3.7381
G1 X139.470 Y102.780 E3.8261
G1 X140.448 Y103.412 E3.8843
G1 X141.093 Y104.009 E3.9281
G1 X141.597 Y104.563 E3.9655
G1 X141.802 Y104.819 E3.9818
G1 X142.078 Y105.236 E4.0068
G1 X142.199 Y105.469 E4.0199
G1 X142.310 Y105.837 E4.0390
G1 X142.307 Y105.939 E4.0441
G1 X142.223 Y106.143 E4.0551
G1 X141.191 Y107.929 E4.1580
G1 X141.138 Y107.992 E4.1621
G1 X140.899 Y108.106 E4.1754
G1 X140.504 Y108.160 E4.1952
G1 X140.096 Y108.152 E4.2156
G1 X139.518 Y108.077 E4.2447
G1 X139.174 Y108.005 E4.2622
G1 X138.352 Y107.780 E4.3048
G1 X137.995 Y107.664 E4.3235
G1 X136.957 Y107.132 E4.3817
G1 X135.605 Y108.267 E4.4697
G1 X135.948 Y109.380 E4.5278
G1 X136.058 Y110.251 E4.5717
G1 X136.088 Y111.000 E4.6090
G1 X136.081 Y111.327 E4.6254
G1 X136.024 Y111.825 E4.6504
G1 X135.967 Y112.081 E4.6634
G1 X135.815 Y112.434 E4.6826
G1 X135.490 Y112.635 E4.7017
G1 X133.614 Y113.318 E4.8013
G1 X133.533 Y113.331 E4.8054
G1 X133.276 Y113.266 E4.8186
G1 X132.939 Y113.053 E4.8385
G1 X132.631 Y112.785 E4.8589
G1 X132.236 Y112.355 E4.8880
G1 X132.020 Y112.080 E4.9055
G1 X131.535 Y111.378 E4.9480
G1 X131.336 Y111.060 E4.9667
G1 X130.882 Y109.985 E5.0249
G1 X129.118 Y109.985 E5.1130
G1 X128.665 Y111.059 E5.1711
G1 X128.189 Y111.797 E5.2149
G1 X127.730 Y112.390 E5.2523
G1 X127.515 Y112.636 E5.2686
G1 X127.151 Y112.981 E5.2936
G1 X126.943 Y113.140 E5.3067
G1 X126.600 Y113.313 E5.3259
G1 X126.467 Y113.333 E5.3326
G1 X126.388 Y113.318 E5.3366
G1 X124.404 Y112.596 E5.4419
G1 X124.266 Y112.522 E5.4497
G1 X124.120 Y112.318 E5.4623
G1 X123.999 Y111.939 E5.4821
G1 X123.935 Y111.535 E5.5025
G1 X123.909 Y110.952 E5.5316
G1 X123.920 Y110.602 E5.5491
G1 X123.999 Y109.753 E5.5917
G1 X124.052 Y109.382 E5.6104
G1 X124.395 Y108.267 E5.6686
G1 X123.043 Y107.132 E5.7566
G1 X122.006 Y107.663 E5.8147
G1 X121.167 Y107.923 E5.8585
G1 X120.435 Y108.082 E5.8959
G1 X120.112 Y108.132 E5.9123
G1 X119.611 Y108.163 E5.9373
G1 X119.350 Y108.151 E5.9503
G1 X118.975 Y108.063 E5.9695
G1 X118.861 Y107.992 E5.9762
G1 X118.809 Y107.931 E5.9802
G1 X117.755 Y106.104 E6.0855
G1 X117.698 Y105.939 E6.0942
G1 X117.715 Y105.706 E6.1058
G1 X117.867 Y105.338 E6.1257
G1 X118.077 Y104.988 E6.1460
G1 X118.431 Y104.525 E6.1752
G1 X118.665 Y104.264 E6.1926
G1 X119.272 Y103.664 E6.2352
G1 X119.550 Y103.413 E6.2539
G1 X120.530 Y102.780 E6.3121
G1 X120.224 Y101.042 E6.4002
G1 X119.088 Y100.782 E6.4583
G1 X118.278 Y100.442 E6.5021
G1 X117.615 Y100.093 E6.5395
G1 X117.335 Y99.924 E6.5558
G1 X116.932 Y99.625 E6.5808
G1 X116.739 Y99.448 E6.5939
G1 X116.509 Y99.140 E6.6131
G1 X116.467 Y99.012 E6.6198
G1 X116.467 Y98.932 E6.6238
G1 X116.845 Y96.792 E6.7322
G1 X116.874 Y96.715 E6.7363
G1 X117.059 Y96.525 E6.7495
G1 X117.412 Y96.340 E6.7694
G1 X117.798 Y96.208 E6.7898
G1 X118.367 Y96.080 E6.8189
G1 X118.714 Y96.030 E6.8364
G1 X119.564 Y95.961 E6.8789
G1 X119.939 Y95.948 E6.8976
G1 X121.037 Y96.085 E6.9528
G0 X121.831 Y96.184 F7200
;segType:Loop
G0 X121.993 Y95.340
G1 X122.458 Y94.534 E6.9993 F3600
G1 X121.615 Y93.421 E7.0689
G1 X121.238 Y92.686 E7.1101
G1 X120.965 Y92.020 E7.1460
G1 X120.869 Y91.739 E7.1608
G1 X120.762 Y91.290 E7.1839
G1 X120.735 Y91.088 E7.1940
G1 X120.750 Y90.836 E7.2067
G1 X120.778 Y90.787 E7.2095
G1 X122.309 Y89.501 E7.3092
G1 X122.449 Y89.477 E7.3163
G1 X122.732 Y89.539 E7.3307
G1 X123.063 Y89.667 E7.3485
G1 X123.548 Y89.918 E7.3757
G1 X123.822 Y90.088 E7.3918
G1 X124.501 Y90.569 E7.4333
G1 X124.763 Y90.774 E7.4499
G1 X125.716 Y91.800 E7.5198
G1 X127.873 Y91.015 E7.6343
G1 X127.944 Y89.621 E7.7039
G1 X128.126 Y88.815 E7.7452
G1 X128.346 Y88.130 E7.7811
G1 X128.453 Y87.853 E7.7959
G1 X128.659 Y87.440 E7.8189
G1 X128.768 Y87.268 E7.8291
G1 X128.932 Y87.095 E7.8410
G1 X129.034 Y87.064 E7.8463
G1 X130.919 Y87.064 E7.9403
G1 X131.108 Y87.123 E7.9502
G1 X131.294 Y87.364 E7.9654
G1 X131.466 Y87.676 E7.9831
G1 X131.676 Y88.179 E8.0103
G1 X131.776 Y88.486 E8.0264
G1 X131.987 Y89.290 E8.0679
G1 X132.056 Y89.617 E8.0846
G1 X132.127 Y91.015 E8.1544
G1 X134.284 Y91.800 E8.2690
G1 X135.234 Y90.777 E8.3386
G1 X135.892 Y90.278 E8.3798
G1 X136.500 Y89.893 E8.4157
G1 X136.760 Y89.750 E8.4305
G1 X137.184 Y89.567 E8.4536
G1 X137.378 Y89.505 E8.4637
G1 X137.547 Y89.485 E8.4722
G1 X137.811 Y89.603 E8.4866
G1 X139.129 Y90.709 E8.5725
G1 X139.263 Y90.898 E8.5840
G1 X139.251 Y91.202 E8.5992
G1 X139.183 Y91.551 E8.6170
G1 X139.020 Y92.072 E8.6442
G1 X138.899 Y92.371 E8.6603
G1 X138.544 Y93.123 E8.7018
G1 X138.387 Y93.418 E8.7184
G1 X137.542 Y94.534 E8.7883
G1 X138.690 Y96.522 E8.9028
G1 X140.075 Y96.349 E8.9725
G1 X140.900 Y96.389 E9.0137
G1 X141.614 Y96.486 E9.0496
G1 X141.904 Y96.544 E9.0644
G1 X142.347 Y96.675 E9.0874
G1 X142.535 Y96.753 E9.0976
G1 X142.685 Y96.851 E9.1065
G1 X142.790 Y97.024 E9.1166
G1 X143.113 Y98.853 E9.2092
G1 X143.056 Y99.056 E9.2198
G1 X142.981 Y99.157 E9.2261
G1 X142.596 Y99.484 E9.2512
G1 X142.143 Y99.775 E9.2781
G1 X141.858 Y99.927 E9.2942
G1 X141.102 Y100.274 E9.3357
G1 X140.793 Y100.399 E9.3523
G1 X139.428 Y100.711 E9.4222
G1 X139.030 Y102.972 E9.5367
G1 X140.202 Y103.729 E9.6063
G1 X140.808 Y104.291 E9.6476
G1 X141.292 Y104.823 E9.6835
G1 X141.478 Y105.055 E9.6983
G1 X141.733 Y105.440 E9.7213
G1 X141.827 Y105.620 E9.7315
G1 X141.893 Y105.840 E9.7429
G1 X141.852 Y105.985 E9.7505
G1 X140.924 Y107.592 E9.8430
G1 X140.783 Y107.718 E9.8525
G1 X140.481 Y107.759 E9.8677
G1 X140.126 Y107.753 E9.8854
G1 X139.585 Y107.683 E9.9126
G1 X139.269 Y107.616 E9.9287
G1 X138.466 Y107.396 E9.9702
G1 X138.149 Y107.293 E9.9869
G1 X136.903 Y106.655 E10.0567
G1 X135.145 Y108.131 E10.1712
G1 X135.555 Y109.465 E10.2409
G1 X135.659 Y110.285 E10.2821
G1 X135.688 Y111.004 E10.3180
G1 X135.682 Y111.300 E10.3328
G1 X135.629 Y111.759 E10.3558
G1 X135.585 Y111.958 E10.3660
G1 X135.498 Y112.160 E10.3770
G1 X135.315 Y112.273 E10.3877
G1 X133.512 Y112.929 E10.4835
G1 X133.550 Y112.923 E10.4854
G1 X133.436 Y112.894 E10.4913
G1 X133.179 Y112.731 E10.5064
G1 X132.911 Y112.498 E10.5242
G1 X132.541 Y112.096 E10.5514
G1 X132.342 Y111.842 E10.5675
G1 X131.869 Y111.158 E10.6090
G1 X131.692 Y110.875 E10.6256
G1 X131.148 Y109.585 E10.6955
G1 X128.852 Y109.585 E10.8100
G1 X128.309 Y110.872 E10.8797
G1 X127.862 Y111.566 E10.9209
G1 X127.422 Y112.135 E10.9568
G1 X127.226 Y112.358 E10.9716
G1 X126.891 Y112.676 E10.9946
G1 X126.730 Y112.800 E11.0048
G1 X126.520 Y112.906 E11.0165
G1 X126.347 Y112.878 E11.0252
G1 X124.633 Y112.254 E11.1162
G1 X124.474 Y112.110 E11.1269
G1 X124.389 Y111.846 E11.1408
G1 X124.334 Y111.495 E11.1585
G1 X124.309 Y110.950 E11.1857
G1 X124.319 Y110.627 E11.2018
G1 X124.397 Y109.799 E11.2433
G1 X124.443 Y109.469 E11.2600
G1 X124.855 Y108.131 E11.3298
G1 X123.097 Y106.655 E11.4444
G1 X121.855 Y107.292 E11.5140
G1 X121.065 Y107.536 E11.5552
G1 X120.362 Y107.689 E11.5911
G1 X120.069 Y107.734 E11.6059
G1 X119.608 Y107.762 E11.6289
G1 X119.405 Y107.753 E11.6391
G1 X119.154 Y107.694 E11.6519
G1 X119.118 Y107.665 E11.6543
G1 X118.166 Y106.016 E11.7493
G1 X118.109 Y105.800 E11.7604
G1 X118.225 Y105.518 E11.7756
G1 X118.408 Y105.213 E11.7933
G1 X118.739 Y104.780 E11.8205
G1 X118.955 Y104.540 E11.8366
G1 X119.547 Y103.955 E11.8782
G1 X119.794 Y103.732 E11.8948
G1 X120.970 Y102.972 E11.9646
G1 X120.572 Y100.711 E12.0792
G1 X119.211 Y100.400 E12.1488
G1 X118.449 Y100.080 E12.1900
G1 X117.812 Y99.745 E12.2259
G1 X117.558 Y99.591 E12.2408
G1 X117.187 Y99.316 E12.2638
G1 X117.037 Y99.179 E12.2739
G1 X116.919 Y99.020 E12.2838
G1 X116.888 Y98.853 E12.2923
G1 X117.210 Y97.024 E12.3849
G1 X117.301 Y96.850 E12.3947
G1 X117.570 Y96.708 E12.4099
G1 X117.907 Y96.593 E12.4277
G1 X118.439 Y96.474 E12.4549
G1 X118.759 Y96.428 E12.4710
G1 X119.588 Y96.360 E12.5125
G1 X119.921 Y96.349 E12.5291
G1 X121.310 Y96.522 E12.5990
G1 X121.893 Y95.513 E12.6571
;segType:Infill
G0 X122.470 Y93.953 F7200
G1 X124.935 Y91.488 E12.8658 F4500
G0 X133.556 Y91.919 F7200
G1 X118.903 Y106.572 E14.1065 F4500
G0 X123.487 Y106.513 F7200
G1 X138.890 Y91.110 E15.4105 F4500
G0 X138.644 Y92.911 F7200
G0 X138.544 Y93.123
G0 X138.387 Y93.418
G0 X137.542 Y94.534
G0 X138.254 Y95.768
G0 X138.254 Y95.768
G0 X138.173 Y96.364
G0 X138.175 Y96.351
G1 X124.773 Y109.753 E16.5452 F4500
G0 X126.649 Y112.402 F7200
G1 X127.112 Y111.939 E16.5845 F4500
G0 X127.628 Y111.868 F7200
G0 X127.862 Y111.566
G0 X128.309 Y110.872
G0 X128.852 Y109.585
G0 X131.148 Y109.585
G0 X131.692 Y110.875
G0 X131.869 Y111.158
G0 X131.952 Y111.278
G0 X131.952 Y111.278
G0 X132.366 Y111.221
G0 X132.353 Y111.223
G1 X134.927 Y108.649 E16.8024 F4500
G0 X137.183 Y106.394 F7200
G1 X139.726 Y103.850 E17.0177 F4500
G0 X139.846 Y103.499 F7200
G0 X139.030 Y102.972
G0 X139.428 Y100.711
G0 X140.793 Y100.399
G0 X140.923 Y100.346
G0 X140.923 Y100.346
G0 X142.080 Y96.963
G0 X142.075 Y96.976
G1 X129.826 Y109.225 E18.0549 F4500
; ------------------------------------
; Layer #6
; ------------------------------------
G92 E0 ;reset extr
;segType:Infill
G0 F3000 E-1.0000
G0 F1200 Z2.100
G0 X135.103 Y111.953 F7200
G0 F3000 E0.0000
G1 X119.863 Y96.713 E1.2903 F4500
;segType:Perimeter
G0 X120.726 Y96.733 F7200
G1 X121.126 Y96.041 E1.3302 F2159
G1 X121.979 Y94.564 E1.4153
G1 X121.276 Y93.635 E1.4734
G1 X120.873 Y92.851 E1.5174
G1 X120.579 Y92.128 E1.5564
G1 X120.485 Y91.851 E1.5709
G1 X120.365 Y91.348 E1.5967
G1 X120.334 Y91.101 E1.6091
G1 X120.356 Y90.719 E1.6282
G1 X120.465 Y90.527 E1.6393
G1 X122.135 Y89.126 E1.7480
G1 X122.347 Y89.081 E1.7588
G1 X122.460 Y89.070 E1.7645
G1 X122.831 Y89.150 E1.7834
G1 X123.219 Y89.297 E1.8041
G1 X123.757 Y89.576 E1.8344
G1 X124.015 Y89.736 E1.8495
G1 X124.740 Y90.248 E1.8938
G1 X125.035 Y90.479 E1.9125
G1 X125.829 Y91.334 E1.9707
G1 X127.487 Y90.730 E2.0587
G1 X127.546 Y89.566 E2.1169
G1 X127.741 Y88.707 E2.1608
G1 X127.981 Y87.964 E2.1998
G1 X128.087 Y87.691 E2.2144
G1 X128.318 Y87.229 E2.2401
G1 X128.453 Y87.020 E2.2526
G1 X128.716 Y86.741 E2.2717
G1 X128.976 Y86.664 E2.2852
G1 X131.086 Y86.664 E2.3905
G1 X131.168 Y86.680 E2.3947
G1 X131.387 Y86.830 E2.4079
G1 X131.620 Y87.131 E2.4269
G1 X131.822 Y87.492 E2.4475
G1 X132.056 Y88.052 E2.4778
G1 X132.150 Y88.341 E2.4930
G1 X132.376 Y89.198 E2.5372
G1 X132.454 Y89.565 E2.5559
G1 X132.513 Y90.730 E2.6141
G1 X134.171 Y91.334 E2.7022
G1 X134.964 Y90.480 E2.7603
G1 X135.666 Y89.947 E2.8043
G1 X136.327 Y89.532 E2.8432
G1 X136.584 Y89.391 E2.8578
G1 X137.058 Y89.186 E2.8836
G1 X137.296 Y89.112 E2.8960
G1 X137.676 Y89.068 E2.9151
G1 X137.807 Y89.095 E2.9218
G1 X137.877 Y89.135 E2.9258
G1 X139.501 Y90.499 E3.0316
G1 X139.602 Y90.624 E3.0396
G1 X139.665 Y90.853 E3.0515
G1 X139.651 Y91.233 E3.0705
G1 X139.573 Y91.640 E3.0911
G1 X139.392 Y92.218 E3.1214
G1 X139.279 Y92.500 E3.1365
G1 X138.901 Y93.303 E3.1808
G1 X138.725 Y93.634 E3.1995
G1 X138.021 Y94.564 E3.2577
G1 X138.904 Y96.093 E3.3457
G1 X140.060 Y95.948 E3.4039
G1 X140.940 Y95.991 E3.4478
G1 X141.714 Y96.098 E3.4868
G1 X142.000 Y96.155 E3.5014
G1 X142.495 Y96.303 E3.5272
G1 X142.725 Y96.399 E3.5396
G1 X143.045 Y96.609 E3.5587
G1 X143.156 Y96.796 E3.5695
G1 X143.529 Y98.911 E3.6767
G1 X143.479 Y99.157 E3.6892
G1 X143.271 Y99.437 E3.7066
G1 X142.843 Y99.801 E3.7346
G1 X142.334 Y100.126 E3.7648
G1 X142.066 Y100.270 E3.7799
G1 X141.261 Y100.641 E3.8242
G1 X140.913 Y100.782 E3.8429
G1 X139.776 Y101.042 E3.9011
G1 X139.470 Y102.780 E3.9891
G1 X140.448 Y103.412 E4.0472
G1 X141.095 Y104.011 E4.0912
G1 X141.619 Y104.590 E4.1302
G1 X141.802 Y104.818 E4.1447
G1 X142.086 Y105.250 E4.1705
G1 X142.200 Y105.471 E4.1829
G1 X142.310 Y105.838 E4.2021
G1 X142.307 Y105.939 E4.2071
G1 X142.223 Y106.143 E4.2181
G1 X141.191 Y107.929 E4.3210
G1 X141.137 Y107.993 E4.3252
G1 X140.897 Y108.107 E4.3385
G1 X140.520 Y108.159 E4.3574
G1 X140.106 Y108.153 E4.3781
G1 X139.505 Y108.075 E4.4083
G1 X139.207 Y108.013 E4.4235
G1 X138.351 Y107.780 E4.4678
G1 X137.995 Y107.664 E4.4864
G1 X136.957 Y107.132 E4.5446
G1 X135.605 Y108.267 E4.6327
G1 X135.948 Y109.380 E4.6908
G1 X136.059 Y110.254 E4.7348
G1 X136.088 Y111.035 E4.7737
G1 X136.081 Y111.327 E4.7883
G1 X136.021 Y111.840 E4.8141
G1 X135.967 Y112.083 E4.8265
G1 X135.815 Y112.435 E4.8456
G1 X135.490 Y112.635 E4.8647
G1 X133.614 Y113.318 E4.9643
G1 X133.531 Y113.331 E4.9684
G1 X133.274 Y113.265 E4.9817
G1 X132.952 Y113.062 E5.0007
G1 X132.639 Y112.792 E5.0213
G1 X132.228 Y112.346 E5.0516
G1 X132.040 Y112.106 E5.0668
G1 X131.534 Y111.378 E5.1110
G1 X131.336 Y111.060 E5.1297
G1 X130.882 Y109.985 E5.1879
G1 X129.118 Y109.985 E5.2759
G1 X128.664 Y111.059 E5.3341
G1 X128.187 Y111.800 E5.3780
G1 X127.708 Y112.416 E5.4170
G1 X127.515 Y112.636 E5.4316
G1 X127.139 Y112.991 E5.4574
G1 X126.942 Y113.142 E5.4698
G1 X126.599 Y113.313 E5.4889
G1 X126.467 Y113.333 E5.4956
G1 X126.388 Y113.318 E5.4996
G1 X124.404 Y112.596 E5.6049
G1 X124.266 Y112.522 E5.6127
G1 X124.119 Y112.316 E5.6254
G1 X124.003 Y111.954 E5.6443
G1 X123.937 Y111.545 E5.6650
G1 X123.909 Y110.940 E5.6952
G1 X123.919 Y110.636 E5.7104
G1 X124.000 Y109.752 E5.7546
G1 X124.052 Y109.382 E5.7733
G1 X124.395 Y108.267 E5.8315
G1 X123.043 Y107.132 E5.9196
G1 X122.006 Y107.663 E5.9777
G1 X121.164 Y107.924 E6.0217
G1 X120.400 Y108.088 E6.0606
G1 X120.112 Y108.132 E6.0752
G1 X119.596 Y108.163 E6.1010
G1 X119.347 Y108.151 E6.1134
G1 X118.975 Y108.063 E6.1325
G1 X118.861 Y107.992 E6.1392
G1 X118.809 Y107.931 E6.1432
G1 X117.755 Y106.104 E6.2485
G1 X117.697 Y105.939 E6.2572
G1 X117.716 Y105.704 E6.2689
G1 X117.859 Y105.352 E6.2879
G1 X118.071 Y104.997 E6.3085
G1 X118.439 Y104.515 E6.3388
G1 X118.642 Y104.288 E6.3539
G1 X119.272 Y103.664 E6.3982
G1 X119.550 Y103.413 E6.4169
G1 X120.530 Y102.780 E6.4751
G1 X120.224 Y101.042 E6.5631
G1 X119.088 Y100.782 E6.6213
G1 X118.276 Y100.441 E6.6652
G1 X117.585 Y100.075 E6.7042
G1 X117.335 Y99.924 E6.7188
G1 X116.921 Y99.615 E6.7445
G1 X116.738 Y99.447 E6.7570
G1 X116.509 Y99.139 E6.7761
G1 X116.467 Y99.012 E6.7828
G1 X116.467 Y98.932 E6.7868
G1 X116.845 Y96.792 E6.8952
G1 X116.874 Y96.713 E6.8994
G1 X117.061 Y96.524 E6.9126
G1 X117.397 Y96.346 E6.9316
G1 X117.788 Y96.210 E6.9523
G1 X118.379 Y96.078 E6.9825
G1 X118.681 Y96.035 E6.9977
G1 X119.564 Y95.961 E7.0419
G1 X119.939 Y95.948 E7.0606
G1 X121.037 Y96.085 E7.1158
G0 X121.831 Y96.184 F7200
;segType:Loop
G0 X121.993 Y95.340
G1 X122.458 Y94.534 E7.1622 F3600
G1 X121.615 Y93.421 E7.2319
G1 X121.237 Y92.684 E7.2732
G1 X120.954 Y91.988 E7.3107
G1 X120.869 Y91.740 E7.3238
G1 X120.759 Y91.277 E7.3475
G1 X120.735 Y91.088 E7.3571
G1 X120.750 Y90.835 E7.3697
G1 X120.777 Y90.787 E7.3724
G1 X122.309 Y89.502 E7.4722
G1 X122.451 Y89.477 E7.4794
G1 X122.718 Y89.535 E7.4930
G1 X123.055 Y89.663 E7.5110
G1 X123.559 Y89.924 E7.5393
G1 X123.794 Y90.070 E7.5531
G1 X124.501 Y90.569 E7.5963
G1 X124.763 Y90.774 E7.6129
G1 X125.716 Y91.800 E7.6828
G1 X127.873 Y91.015 E7.7973
G1 X127.944 Y89.621 E7.8669
G1 X128.127 Y88.813 E7.9083
G1 X128.358 Y88.098 E7.9458
G1 X128.453 Y87.854 E7.9588
G1 X128.666 Y87.428 E7.9826
G1 X128.769 Y87.267 E7.9921
G1 X128.932 Y87.094 E8.0040
G1 X129.034 Y87.064 E8.0092
G1 X130.919 Y87.064 E8.1033
G1 X131.109 Y87.125 E8.1133
G1 X131.286 Y87.352 E8.1276
G1 X131.462 Y87.667 E8.1456
G1 X131.680 Y88.191 E8.1739
G1 X131.766 Y88.454 E8.1877
G1 X131.987 Y89.291 E8.2309
G1 X132.056 Y89.617 E8.2475
G1 X132.127 Y91.015 E8.3174
G1 X134.284 Y91.800 E8.4319
G1 X135.234 Y90.777 E8.5016
G1 X135.894 Y90.276 E8.5429
G1 X136.530 Y89.877 E8.5804
G1 X136.760 Y89.751 E8.5935
G1 X137.197 Y89.562 E8.6173
G1 X137.379 Y89.505 E8.6268
G1 X137.547 Y89.485 E8.6352
G1 X137.811 Y89.603 E8.6496
G1 X139.129 Y90.709 E8.7355
G1 X139.263 Y90.900 E8.7471
G1 X139.253 Y91.188 E8.7615
G1 X139.185 Y91.542 E8.7795
G1 X139.015 Y92.084 E8.8078
G1 X138.912 Y92.340 E8.8216
G1 X138.543 Y93.124 E8.8648
G1 X138.387 Y93.418 E8.8814
G1 X137.542 Y94.534 E8.9513
G1 X138.690 Y96.522 E9.0658
G1 X140.075 Y96.349 E9.1354
G1 X140.903 Y96.389 E9.1768
G1 X141.647 Y96.493 E9.2143
G1 X141.903 Y96.544 E9.2273
G1 X142.361 Y96.680 E9.2511
G1 X142.536 Y96.754 E9.2606
G1 X142.685 Y96.851 E9.2695
G1 X142.790 Y97.024 E9.2796
G1 X143.113 Y98.853 E9.3722
G1 X143.056 Y99.056 E9.3827
G1 X142.977 Y99.162 E9.3893
G1 X142.605 Y99.478 E9.4137
G1 X142.132 Y99.781 E9.4417
G1 X141.888 Y99.911 E9.4555
G1 X141.102 Y100.274 E9.4987
G1 X140.793 Y100.399 E9.5153
G1 X139.428 Y100.711 E9.5852
G1 X139.030 Y102.972 E9.6997
G1 X140.202 Y103.729 E9.7693
G1 X140.810 Y104.292 E9.8107
G1 X141.314 Y104.850 E9.8482
G1 X141.478 Y105.054 E9.8612
G1 X141.740 Y105.452 E9.8850
G1 X141.828 Y105.621 E9.8945
G1 X141.893 Y105.840 E9.9059
G1 X141.852 Y105.985 E9.9134
G1 X140.924 Y107.592 E10.0060
G1 X140.781 Y107.719 E10.0155
G1 X140.496 Y107.758 E10.0299
G1 X140.135 Y107.753 E10.0479
G1 X139.572 Y107.680 E10.0762
G1 X139.301 Y107.623 E10.0900
G1 X138.466 Y107.396 E10.1332
G1 X138.149 Y107.293 E10.1498
G1 X136.903 Y106.655 E10.2197
G1 X135.145 Y108.131 E10.3342
G1 X135.555 Y109.465 E10.4038
G1 X135.659 Y110.287 E10.4452
G1 X135.687 Y111.038 E10.4827
G1 X135.682 Y111.299 E10.4957
G1 X135.626 Y111.773 E10.5195
G1 X135.585 Y111.959 E10.5290
G1 X135.498 Y112.160 E10.5400
G1 X135.315 Y112.273 E10.5507
G1 X133.512 Y112.929 E10.6464
G1 X133.550 Y112.923 E10.6483
G1 X133.434 Y112.893 E10.6542
G1 X133.190 Y112.740 E10.6686
G1 X132.918 Y112.504 E10.6866
G1 X132.533 Y112.086 E10.7149
G1 X132.362 Y111.869 E10.7287
G1 X131.869 Y111.158 E10.7719
G1 X131.692 Y110.875 E10.7885
G1 X131.148 Y109.585 E10.8584
G1 X128.852 Y109.585 E10.9729
G1 X128.309 Y110.872 E11.0425
G1 X127.861 Y111.568 E11.0839
G1 X127.399 Y112.161 E11.1214
G1 X127.227 Y112.358 E11.1344
G1 X126.880 Y112.685 E11.1582
G1 X126.729 Y112.801 E11.1677
G1 X126.520 Y112.906 E11.1794
G1 X126.347 Y112.878 E11.1881
G1 X124.633 Y112.254 E11.2791
G1 X124.473 Y112.110 E11.2899
G1 X124.393 Y111.860 E11.3029
G1 X124.335 Y111.504 E11.3209
G1 X124.309 Y110.937 E11.3493
G1 X124.318 Y110.661 E11.3631
G1 X124.397 Y109.798 E11.4063
G1 X124.443 Y109.469 E11.4229
G1 X124.855 Y108.131 E11.4927
G1 X123.097 Y106.655 E11.6072
G1 X121.855 Y107.292 E11.6769
G1 X121.063 Y107.537 E11.7182
G1 X120.328 Y107.694 E11.7557
G1 X120.070 Y107.734 E11.7688
G1 X119.593 Y107.762 E11.7926
G1 X119.403 Y107.753 E11.8021
G1 X119.154 Y107.694 E11.8148
G1 X119.118 Y107.665 E11.8171
G1 X118.166 Y106.016 E11.9122
G1 X118.110 Y105.798 E11.9234
G1 X118.218 Y105.531 E11.9378
G1 X118.403 Y105.221 E11.9557
G1 X118.748 Y104.770 E11.9841
G1 X118.932 Y104.564 E11.9979
G1 X119.547 Y103.954 E12.0411
G1 X119.794 Y103.732 E12.0577
G1 X120.970 Y102.972 E12.1275
G1 X120.572 Y100.711 E12.2420
G1 X119.211 Y100.400 E12.3117
G1 X118.447 Y100.079 E12.3530
G1 X117.783 Y99.727 E12.3905
G1 X117.559 Y99.592 E12.4036
G1 X117.176 Y99.307 E12.4274
G1 X117.036 Y99.178 E12.4369
G1 X116.919 Y99.020 E12.4467
G1 X116.888 Y98.853 E12.4552
G1 X117.210 Y97.024 E12.5478
G1 X117.302 Y96.849 E12.5577
G1 X117.557 Y96.714 E12.5721
G1 X117.898 Y96.596 E12.5901
G1 X118.452 Y96.472 E12.6184
G1 X118.726 Y96.432 E12.6322
G1 X119.588 Y96.360 E12.6754
G1 X119.921 Y96.349 E12.6920
G1 X121.310 Y96.522 E12.7618
G1 X121.893 Y95.513 E12.8200
;segType:Infill
G0 X122.631 Y94.955 F7200
G1 X135.249 Y107.573 E13.8883 F4500
G0 X135.858 Y107.532 F7200
G0 X136.903 Y106.655
G0 X138.149 Y107.293
G0 X138.366 Y107.364
G0 X138.366 Y107.364
G0 X139.503 Y107.287
G0 X139.490 Y107.288
G1 X122.235 Y90.034 E15.3492 F4500
G0 X123.153 Y89.714 F7200
G0 X123.559 Y89.924
G0 X123.794 Y90.070
G0 X124.501 Y90.569
G0 X124.763 Y90.774
G0 X125.716 Y91.800
G0 X127.873 Y91.015
G0 X127.944 Y89.621
G0 X128.127 Y88.813
G0 X128.358 Y88.098
G0 X128.448 Y87.866
G0 X128.448 Y87.866
G0 X128.957 Y87.688
G0 X128.945 Y87.692
G1 X131.739 Y90.487 E15.5858 F4500
G0 X132.100 Y90.486 F7200
G0 X132.127 Y91.015
G0 X134.284 Y91.800
G0 X135.234 Y90.777
G0 X135.628 Y90.478
G0 X135.628 Y90.478
G0 X136.267 Y90.476
G0 X136.254 Y90.476
G1 X138.383 Y92.606 E15.7661 F4500
G0 X138.563 Y93.082 F7200
G0 X138.543 Y93.124
G0 X138.387 Y93.418
G0 X137.542 Y94.534
G0 X138.690 Y96.522
G0 X139.806 Y96.383
G0 X139.806 Y96.383
G0 X141.123 Y99.879
G0 X141.119 Y99.867
G1 X132.950 Y91.698 E16.4577 F4500
G0 X128.058 Y91.331 F7200
G1 X138.819 Y102.092 E17.3688 F4500
G0 X124.696 Y110.597 F7200
G1 X126.560 Y112.461 E17.5266 F4500
G0 X128.387 Y109.762 F7200
G1 X121.280 Y102.655 E18.1283 F4500
G0 X121.212 Y107.113 F7200
G1 X119.063 Y104.964 E18.3103 F4500
G0 X118.984 Y104.513 F7200
G0 X119.547 Y103.954
G0 X119.794 Y103.732
G0 X120.970 Y102.972
G0 X120.572 Y100.711
G0 X119.211 Y100.400
G0 X118.447 Y100.079
G0 X118.187 Y99.941
G0 X118.187 Y99.941
G0 X118.105 Y99.469
G0 X118.107 Y99.482
G1 X117.287 Y98.662 E18.3797 F4500
; ------------------------------------
; Layer #7
; ------------------------------------
G92 E0 ;reset extr
;segType:Infill
G0 F3000 E-1.0000
G0 F1200 Z2.400
G0 X131.619 Y89.330 F7200
G0 F3000 E0.0000
G1 X120.601 Y100.348 E0.9329 F4500
G0 X117.406 Y99.018 F7200
G1 X119.702 Y96.722 E1.1273 F4500
;segType:Perimeter
G0 X120.726 Y96.733 F7200
G1 X121.126 Y96.041 E1.1672 F2159
G1 X121.979 Y94.564 E1.2523
G1 X121.276 Y93.635 E1.3104
G1 X120.871 Y92.848 E1.3545
G1 X120.567 Y92.095 E1.3951
G1 X120.485 Y91.851 E1.4079
G1 X120.363 Y91.333 E1.4344
G1 X120.333 Y91.099 E1.4462
G1 X120.356 Y90.718 E1.4652
G1 X120.465 Y90.527 E1.4762
G1 X122.135 Y89.126 E1.5850
G1 X122.347 Y89.078 E1.5958
G1 X122.460 Y89.070 E1.6015
G1 X122.816 Y89.145 E1.6197
G1 X123.209 Y89.293 E1.6406
G1 X123.768 Y89.582 E1.6720
G1 X123.987 Y89.718 E1.6848
G1 X124.740 Y90.248 E1.7308
G1 X125.035 Y90.479 E1.7495
G1 X125.829 Y91.334 E1.8077
G1 X127.487 Y90.730 E1.8957
G1 X127.546 Y89.566 E1.9538
G1 X127.742 Y88.704 E1.9980
G1 X127.993 Y87.931 E2.0385
G1 X128.086 Y87.691 E2.0513
G1 X128.326 Y87.216 E2.0779
G1 X128.454 Y87.018 E2.0897
G1 X128.716 Y86.741 E2.1087
G1 X128.976 Y86.664 E2.1222
G1 X131.072 Y86.664 E2.2268
G1 X131.266 Y86.730 E2.2370
G1 X131.384 Y86.826 E2.2446
G1 X131.612 Y87.117 E2.2630
G1 X131.818 Y87.483 E2.2840
G1 X132.060 Y88.064 E2.3154
G1 X132.140 Y88.308 E2.3282
G1 X132.377 Y89.198 E2.3742
G1 X132.454 Y89.565 E2.3928
G1 X132.513 Y90.730 E2.4511
G1 X134.171 Y91.334 E2.5391
G1 X134.964 Y90.480 E2.5972
G1 X135.668 Y89.945 E2.6414
G1 X136.358 Y89.515 E2.6819
G1 X136.583 Y89.391 E2.6947
G1 X137.072 Y89.181 E2.7213
G1 X137.298 Y89.111 E2.7331
G1 X137.677 Y89.068 E2.7521
G1 X137.807 Y89.095 E2.7587
G1 X137.877 Y89.135 E2.7628
G1 X139.538 Y90.530 E2.8710
G1 X139.608 Y90.622 E2.8768
G1 X139.666 Y90.853 E2.8886
G1 X139.653 Y91.217 E2.9068
G1 X139.576 Y91.630 E2.9277
G1 X139.388 Y92.230 E2.9591
G1 X139.292 Y92.470 E2.9720
G1 X138.901 Y93.303 E3.0179
G1 X138.725 Y93.634 E3.0366
G1 X138.021 Y94.564 E3.0948
G1 X138.904 Y96.093 E3.1829
G1 X140.060 Y95.948 E3.2410
G1 X140.943 Y95.991 E3.2851
G1 X141.748 Y96.105 E3.3257
G1 X142.000 Y96.155 E3.3385
G1 X142.347 Y96.259 E3.3566
G1 X142.681 Y96.370 E3.3741
G1 X143.045 Y96.610 E3.3959
G1 X143.156 Y96.796 E3.4067
G1 X143.529 Y98.911 E3.5138
G1 X143.478 Y99.160 E3.5265
G1 X143.266 Y99.442 E3.5441
G1 X142.852 Y99.794 E3.5713
G1 X142.324 Y100.133 E3.6025
G1 X142.096 Y100.254 E3.6154
G1 X141.260 Y100.641 E3.6614
G1 X140.913 Y100.782 E3.6800
G1 X139.776 Y101.042 E3.7382
G1 X139.470 Y102.780 E3.8263
G1 X140.448 Y103.412 E3.8844
G1 X141.097 Y104.013 E3.9285
G1 X141.641 Y104.617 E3.9691
G1 X141.801 Y104.818 E3.9819
G1 X142.093 Y105.263 E4.0085
G1 X142.201 Y105.473 E4.0202
G1 X142.310 Y105.839 E4.0393
G1 X142.307 Y105.939 E4.0443
G1 X142.223 Y106.143 E4.0553
G1 X141.194 Y107.925 E4.1580
G1 X141.114 Y108.010 E4.1638
G1 X140.897 Y108.108 E4.1756
G1 X140.536 Y108.158 E4.1938
G1 X140.116 Y108.154 E4.2148
G1 X139.493 Y108.073 E4.2461
G1 X139.240 Y108.020 E4.2590
G1 X138.351 Y107.780 E4.3050
G1 X137.995 Y107.664 E4.3236
G1 X136.957 Y107.132 E4.3818
G1 X135.605 Y108.267 E4.4699
G1 X135.948 Y109.380 E4.5280
G1 X136.059 Y110.257 E4.5721
G1 X136.087 Y111.070 E4.6127
G1 X136.081 Y111.327 E4.6255
G1 X136.019 Y111.855 E4.6520
G1 X135.966 Y112.085 E4.6638
G1 X135.814 Y112.436 E4.6829
G1 X135.490 Y112.635 E4.7019
G1 X133.618 Y113.316 E4.8012
G1 X133.503 Y113.330 E4.8070
G1 X133.274 Y113.265 E4.8189
G1 X132.965 Y113.072 E4.8371
G1 X132.646 Y112.799 E4.8580
G1 X132.220 Y112.336 E4.8894
G1 X132.061 Y112.133 E4.9023
G1 X131.534 Y111.378 E4.9482
G1 X131.336 Y111.060 E4.9669
G1 X130.882 Y109.985 E5.0251
G1 X129.118 Y109.985 E5.1132
G1 X128.665 Y111.059 E5.1713
G1 X128.186 Y111.802 E5.2154
G1 X127.685 Y112.443 E5.2560
G1 X127.515 Y112.636 E5.2688
G1 X127.128 Y113.000 E5.2953
G1 X126.940 Y113.143 E5.3071
G1 X126.598 Y113.314 E5.3261
G1 X126.467 Y113.333 E5.3328
G1 X126.388 Y113.318 E5.3368
G1 X124.350 Y112.576 E5.4450
G1 X124.252 Y112.513 E5.4508
G1 X124.119 Y112.316 E5.4627
G1 X124.006 Y111.969 E5.4809
G1 X123.938 Y111.556 E5.5018
G1 X123.909 Y110.927 E5.5332
G1 X123.917 Y110.669 E5.5460
G1 X124.000 Y109.752 E5.5920
G1 X124.052 Y109.382 E5.6106
G1 X124.395 Y108.267 E5.6688
G1 X123.043 Y107.132 E5.7569
G1 X122.006 Y107.663 E5.8150
G1 X121.161 Y107.925 E5.8592
G1 X120.366 Y108.093 E5.8997
G1 X120.112 Y108.132 E5.9125
G1 X119.581 Y108.163 E5.9391
G1 X119.345 Y108.151 E5.9508
G1 X118.974 Y108.062 E5.9699
G1 X118.861 Y107.993 E5.9765
G1 X118.809 Y107.931 E5.9805
G1 X117.755 Y106.104 E6.0858
G1 X117.691 Y105.939 E6.0946
G1 X117.715 Y105.704 E6.1064
G1 X117.852 Y105.366 E6.1245
G1 X118.066 Y105.005 E6.1455
G1 X118.448 Y104.505 E6.1769
G1 X118.620 Y104.313 E6.1897
G1 X119.272 Y103.664 E6.2357
G1 X119.550 Y103.413 E6.2543
G1 X120.530 Y102.780 E6.3125
G1 X120.224 Y101.042 E6.4006
G1 X119.088 Y100.782 E6.4587
G1 X118.273 Y100.439 E6.5028
G1 X117.555 Y100.058 E6.5434
G1 X117.336 Y99.924 E6.5562
G1 X116.909 Y99.605 E6.5828
G1 X116.736 Y99.445 E6.5945
G1 X116.509 Y99.139 E6.6136
G1 X116.467 Y99.012 E6.6202
G1 X116.467 Y98.932 E6.6242
G1 X116.844 Y96.796 E6.7324
G1 X116.890 Y96.689 E6.7382
G1 X117.061 Y96.523 E6.7501
G1 X117.382 Y96.352 E6.7683
G1 X117.778 Y96.213 E6.7892
G1 X118.392 Y96.076 E6.8206
G1 X118.647 Y96.039 E6.8335
G1 X119.565 Y95.961 E6.8794
G1 X119.939 Y95.948 E6.8981
G1 X121.037 Y96.085 E6.9533
G0 X121.831 Y96.184 F7200
;segType:Loop
G0 X121.993 Y95.340
G1 X122.458 Y94.534 E6.9997 F3600
G1 X121.615 Y93.421 E7.0693
G1 X121.235 Y92.682 E7.1108
G1 X120.942 Y91.956 E7.1499
G1 X120.870 Y91.741 E7.1612
G1 X120.757 Y91.262 E7.1857
G1 X120.735 Y91.086 E7.1946
G1 X120.750 Y90.835 E7.2071
G1 X120.777 Y90.787 E7.2099
G1 X122.309 Y89.501 E7.3097
G1 X122.452 Y89.477 E7.3169
G1 X122.704 Y89.530 E7.3297
G1 X123.046 Y89.659 E7.3480
G1 X123.570 Y89.930 E7.3774
G1 X123.766 Y90.052 E7.3889
G1 X124.501 Y90.570 E7.4338
G1 X124.763 Y90.774 E7.4504
G1 X125.716 Y91.800 E7.5202
G1 X127.873 Y91.015 E7.6348
G1 X127.944 Y89.621 E7.7044
G1 X128.128 Y88.810 E7.7459
G1 X128.370 Y88.065 E7.7850
G1 X128.452 Y87.854 E7.7962
G1 X128.674 Y87.415 E7.8208
G1 X128.770 Y87.266 E7.8296
G1 X128.933 Y87.094 E7.8415
G1 X129.033 Y87.064 E7.8467
G1 X131.033 Y87.064 E7.9465
G1 X131.166 Y87.197 E7.9558
G1 X131.278 Y87.340 E7.9649
G1 X131.457 Y87.659 E7.9831
G1 X131.684 Y88.203 E8.0126
G1 X131.756 Y88.422 E8.0241
G1 X131.987 Y89.291 E8.0689
G1 X132.056 Y89.617 E8.0855
G1 X132.127 Y91.015 E8.1554
G1 X134.284 Y91.800 E8.2699
G1 X135.234 Y90.777 E8.3396
G1 X135.896 Y90.275 E8.3810
G1 X136.560 Y89.860 E8.4201
G1 X136.759 Y89.751 E8.4314
G1 X137.211 Y89.557 E8.4560
G1 X137.381 Y89.504 E8.4648
G1 X137.547 Y89.485 E8.4732
G1 X137.811 Y89.603 E8.4876
G1 X139.129 Y90.709 E8.5735
G1 X139.264 Y90.896 E8.5850
G1 X139.254 Y91.173 E8.5988
G1 X139.187 Y91.533 E8.6171
G1 X139.011 Y92.096 E8.6465
G1 X138.925 Y92.310 E8.6580
G1 X138.543 Y93.124 E8.7029
G1 X138.387 Y93.418 E8.7195
G1 X137.542 Y94.534 E8.7893
G1 X138.690 Y96.522 E8.9038
G1 X140.075 Y96.349 E8.9735
G1 X140.905 Y96.390 E9.0150
G1 X141.681 Y96.499 E9.0540
G1 X141.900 Y96.543 E9.0652
G1 X142.508 Y96.734 E9.0970
G1 X142.685 Y96.851 E9.1076
G1 X142.790 Y97.024 E9.1177
G1 X143.113 Y98.853 E9.2103
G1 X143.056 Y99.056 E9.2208
G1 X142.973 Y99.166 E9.2277
G1 X142.613 Y99.472 E9.2513
G1 X142.121 Y99.787 E9.2804
G1 X141.918 Y99.896 E9.2919
G1 X141.101 Y100.274 E9.3368
G1 X140.793 Y100.399 E9.3534
G1 X139.428 Y100.711 E9.4232
G1 X139.030 Y102.972 E9.5378
G1 X140.202 Y103.729 E9.6074
G1 X140.812 Y104.294 E9.6489
G1 X141.336 Y104.876 E9.6879
G1 X141.477 Y105.053 E9.6992
G1 X141.747 Y105.465 E9.7238
G1 X141.828 Y105.622 E9.7326
G1 X141.893 Y105.841 E9.7440
G1 X141.852 Y105.985 E9.7515
G1 X140.870 Y107.686 E9.8495
G1 X140.510 Y107.758 E9.8678
G1 X140.144 Y107.754 E9.8860
G1 X139.560 Y107.678 E9.9154
G1 X139.334 Y107.631 E9.9270
G1 X138.465 Y107.396 E9.9718
G1 X138.149 Y107.293 E9.9884
G1 X136.903 Y106.655 E10.0583
G1 X135.145 Y108.131 E10.1728
G1 X135.555 Y109.465 E10.2424
G1 X135.660 Y110.289 E10.2839
G1 X135.687 Y111.072 E10.3230
G1 X135.682 Y111.299 E10.3343
G1 X135.624 Y111.787 E10.3588
G1 X135.584 Y111.960 E10.3677
G1 X135.498 Y112.161 E10.3786
G1 X135.315 Y112.273 E10.3893
G1 X133.524 Y112.925 E10.4844
G1 X133.535 Y112.923 E10.4849
G1 X133.438 Y112.896 E10.4899
G1 X133.202 Y112.749 E10.5038
G1 X132.924 Y112.511 E10.5220
G1 X132.525 Y112.077 E10.5514
G1 X132.383 Y111.895 E10.5629
G1 X131.868 Y111.157 E10.6078
G1 X131.692 Y110.875 E10.6244
G1 X131.148 Y109.585 E10.6943
G1 X128.852 Y109.585 E10.8088
G1 X128.309 Y110.872 E10.8784
G1 X127.859 Y111.570 E10.9199
G1 X127.377 Y112.187 E10.9590
G1 X127.227 Y112.357 E10.9703
G1 X126.869 Y112.694 E10.9948
G1 X126.728 Y112.802 E11.0037
G1 X126.520 Y112.906 E11.0152
G1 X126.347 Y112.878 E11.0240
G1 X124.633 Y112.254 E11.1150
G1 X124.472 Y112.110 E11.1257
G1 X124.396 Y111.874 E11.1381
G1 X124.336 Y111.514 E11.1564
G1 X124.309 Y110.924 E11.1858
G1 X124.317 Y110.694 E11.1973
G1 X124.397 Y109.798 E11.2422
G1 X124.443 Y109.469 E11.2587
G1 X124.855 Y108.131 E11.3286
G1 X123.097 Y106.655 E11.4431
G1 X121.855 Y107.292 E11.5128
G1 X121.060 Y107.537 E11.5542
G1 X120.294 Y107.700 E11.5933
G1 X120.070 Y107.734 E11.6046
G1 X119.579 Y107.762 E11.6292
G1 X119.402 Y107.753 E11.6380
G1 X119.154 Y107.694 E11.6507
G1 X119.118 Y107.666 E11.6530
G1 X118.166 Y106.016 E11.7481
G1 X118.108 Y105.802 E11.7591
G1 X118.212 Y105.544 E11.7730
G1 X118.398 Y105.229 E11.7912
G1 X118.756 Y104.760 E11.8207
G1 X118.910 Y104.589 E11.8322
G1 X119.547 Y103.954 E11.8770
G1 X119.794 Y103.732 E11.8936
G1 X120.970 Y102.972 E11.9635
G1 X120.572 Y100.711 E12.0780
G1 X119.211 Y100.400 E12.1476
G1 X118.444 Y100.078 E12.1891
G1 X117.753 Y99.710 E12.2282
G1 X117.560 Y99.592 E12.2395
G1 X117.165 Y99.298 E12.2640
G1 X117.035 Y99.177 E12.2729
G1 X116.919 Y99.020 E12.2826
G1 X116.888 Y98.853 E12.2911
G1 X117.210 Y97.024 E12.3838
G1 X117.298 Y96.850 E12.3935
G1 X117.544 Y96.720 E12.4074
G1 X117.889 Y96.598 E12.4256
G1 X118.464 Y96.469 E12.4550
G1 X118.693 Y96.437 E12.4666
G1 X119.589 Y96.360 E12.5114
G1 X119.921 Y96.349 E12.5280
G1 X121.310 Y96.522 E12.5979
G1 X121.893 Y95.513 E12.6560
;segType:Infill
G0 X122.470 Y93.953 F7200
G1 X124.935 Y91.488 E12.8647 F4500
G0 X139.726 Y103.850 F7200
G1 X137.183 Y106.394 E13.0800 F4500
G0 X134.927 Y108.649 F7200
G1 X132.356 Y111.220 E13.2977 F4500
G0 X131.953 Y111.279 F7200
G0 X131.868 Y111.157
G0 X131.692 Y110.875
G0 X131.148 Y109.585
G0 X128.852 Y109.585
G0 X128.309 Y110.872
G0 X127.859 Y111.570
G0 X127.589 Y111.917
G0 X127.589 Y111.917
G0 X127.044 Y111.996
G0 X127.057 Y111.994
G1 X126.637 Y112.414 E13.3332 F4500
G0 X129.826 Y109.225 F7200
G1 X142.074 Y96.977 E14.3702 F4500
G0 X138.175 Y96.351 F7200
G1 X124.772 Y109.753 E15.5050 F4500
G0 X124.538 Y109.162 F7200
G0 X124.855 Y108.131
G0 X123.767 Y107.217
G0 X123.767 Y107.217
G0 X123.482 Y106.500
G0 X123.487 Y106.513
G1 X138.889 Y91.111 E16.8090 F4500
G0 X133.556 Y91.919 F7200
G1 X118.903 Y106.572 E18.0496 F4500
; ------------------------------------
; Layer #8
; ------------------------------------
G92 E0 ;reset extr
;segType:Infill
G0 F3000 E-1.0000
G0 F1200 Z2.700
G0 X135.103 Y111.953 F7200
G0 F3000 E0.0000
G1 X119.863 Y96.713 E1.2904 F4500
;segType:Perimeter
G0 X120.726 Y96.733 F7200
G1 X121.126 Y96.041 E1.3303 F2159
G1 X121.979 Y94.564 E1.4154
G1 X121.276 Y93.635 E1.4735
G1 X120.870 Y92.846 E1.5178
G1 X120.556 Y92.062 E1.5599
G1 X120.485 Y91.852 E1.5710
G1 X120.360 Y91.318 E1.5983
G1 X120.333 Y91.097 E1.6094
G1 X120.356 Y90.717 E1.6284
G1 X120.465 Y90.527 E1.6393
G1 X122.135 Y89.126 E1.7481
G1 X122.347 Y89.078 E1.7589
G1 X122.463 Y89.070 E1.7647
G1 X122.801 Y89.141 E1.7820
G1 X123.200 Y89.289 E1.8032
G1 X123.775 Y89.587 E1.8355
G1 X124.544 Y90.106 E1.8818
G1 X125.036 Y90.480 E1.9126
G1 X125.829 Y91.334 E1.9707
G1 X127.487 Y90.730 E2.0588
G1 X127.546 Y89.566 E2.1169
G1 X127.742 Y88.701 E2.1612
G1 X128.005 Y87.898 E2.2033
G1 X128.086 Y87.692 E2.2144
G1 X128.334 Y87.203 E2.2417
G1 X128.455 Y87.016 E2.2528
G1 X128.717 Y86.740 E2.2718
G1 X128.976 Y86.664 E2.2853
G1 X131.082 Y86.664 E2.3903
G1 X131.192 Y86.689 E2.3960
G1 X131.389 Y86.832 E2.4081
G1 X131.603 Y87.104 E2.4254
G1 X131.813 Y87.474 E2.4466
G1 X132.063 Y88.072 E2.4789
G1 X132.318 Y88.963 E2.5252
G1 X132.454 Y89.566 E2.5560
G1 X132.513 Y90.730 E2.6142
G1 X134.171 Y91.334 E2.7022
G1 X134.964 Y90.480 E2.7604
G1 X135.671 Y89.943 E2.8046
G1 X136.388 Y89.497 E2.8468
G1 X136.583 Y89.391 E2.8578
G1 X137.087 Y89.176 E2.8852
G1 X137.300 Y89.111 E2.8963
G1 X137.678 Y89.068 E2.9152
G1 X137.807 Y89.095 E2.9218
G1 X137.877 Y89.135 E2.9259
G1 X139.538 Y90.530 E3.0341
G1 X139.606 Y90.619 E3.0397
G1 X139.666 Y90.856 E3.0519
G1 X139.655 Y91.202 E3.0691
G1 X139.578 Y91.620 E3.0904
G1 X139.385 Y92.238 E3.1227
G1 X139.007 Y93.086 E3.1689
G1 X138.724 Y93.635 E3.1998
G1 X138.021 Y94.564 E3.2579
G1 X138.904 Y96.093 E3.3460
G1 X140.060 Y95.948 E3.4041
G1 X140.946 Y95.992 E3.4484
G1 X141.782 Y96.111 E3.4905
G1 X142.000 Y96.155 E3.5016
G1 X142.347 Y96.260 E3.5197
G1 X142.682 Y96.369 E3.5372
G1 X143.046 Y96.610 E3.5590
G1 X143.156 Y96.796 E3.5698
G1 X143.529 Y98.911 E3.6769
G1 X143.478 Y99.158 E3.6896
G1 X143.185 Y99.520 E3.7127
G1 X142.861 Y99.787 E3.7337
G1 X142.316 Y100.137 E3.7660
G1 X141.482 Y100.543 E3.8123
G1 X140.912 Y100.782 E3.8431
G1 X139.776 Y101.042 E3.9013
G1 X139.470 Y102.780 E3.9893
G1 X140.448 Y103.412 E4.0474
G1 X141.099 Y104.015 E4.0917
G1 X141.663 Y104.644 E4.1339
G1 X141.802 Y104.817 E4.1449
G1 X142.101 Y105.276 E4.1723
G1 X142.202 Y105.475 E4.1834
G1 X142.310 Y105.839 E4.2023
G1 X142.307 Y105.939 E4.2073
G1 X142.223 Y106.143 E4.2183
G1 X141.193 Y107.926 E4.3210
G1 X141.117 Y108.008 E4.3266
G1 X140.894 Y108.108 E4.3388
G1 X140.552 Y108.157 E4.3561
G1 X140.127 Y108.154 E4.3773
G1 X139.484 Y108.071 E4.4096
G1 X138.584 Y107.847 E4.4559
G1 X137.994 Y107.663 E4.4867
G1 X136.957 Y107.132 E4.5448
G1 X135.605 Y108.267 E4.6329
G1 X135.948 Y109.380 E4.6910
G1 X136.059 Y110.260 E4.7353
G1 X136.087 Y111.105 E4.7774
G1 X136.081 Y111.326 E4.7885
G1 X136.016 Y111.870 E4.8158
G1 X135.966 Y112.087 E4.8269
G1 X135.814 Y112.436 E4.8459
G1 X135.490 Y112.635 E4.8649
G1 X133.618 Y113.316 E4.9643
G1 X133.506 Y113.331 E4.9699
G1 X133.271 Y113.264 E4.9821
G1 X132.977 Y113.081 E4.9993
G1 X132.653 Y112.806 E5.0205
G1 X132.215 Y112.329 E5.0529
G1 X131.670 Y111.579 E5.0991
G1 X131.336 Y111.059 E5.1300
G1 X130.882 Y109.985 E5.1881
G1 X129.118 Y109.985 E5.2762
G1 X128.665 Y111.059 E5.3343
G1 X128.184 Y111.805 E5.3786
G1 X127.662 Y112.469 E5.4207
G1 X127.516 Y112.636 E5.4318
G1 X127.116 Y113.010 E5.4591
G1 X126.938 Y113.144 E5.4702
G1 X126.598 Y113.314 E5.4892
G1 X126.467 Y113.333 E5.4958
G1 X126.388 Y113.318 E5.4998
G1 X124.349 Y112.576 E5.6080
G1 X124.254 Y112.515 E5.6136
G1 X124.117 Y112.314 E5.6258
G1 X124.010 Y111.985 E5.6431
G1 X123.939 Y111.566 E5.6643
G1 X123.909 Y110.918 E5.6966
G1 X123.974 Y109.993 E5.7429
G1 X124.052 Y109.380 E5.7737
G1 X124.395 Y108.267 E5.8318
G1 X123.043 Y107.132 E5.9199
G1 X122.006 Y107.663 E5.9780
G1 X121.158 Y107.926 E6.0223
G1 X120.332 Y108.099 E6.0644
G1 X120.112 Y108.133 E6.0755
G1 X119.565 Y108.162 E6.1028
G1 X119.343 Y108.151 E6.1139
G1 X118.973 Y108.062 E6.1329
G1 X118.861 Y107.993 E6.1395
G1 X118.809 Y107.931 E6.1435
G1 X117.755 Y106.104 E6.2488
G1 X117.692 Y105.939 E6.2576
G1 X117.716 Y105.702 E6.2695
G1 X117.845 Y105.380 E6.2867
G1 X118.060 Y105.014 E6.3079
G1 X118.453 Y104.499 E6.3403
G1 X119.098 Y103.832 E6.3865
G1 X119.552 Y103.412 E6.4173
G1 X120.530 Y102.780 E6.4755
G1 X120.224 Y101.042 E6.5635
G1 X119.088 Y100.782 E6.6217
G1 X118.270 Y100.438 E6.6659
G1 X117.525 Y100.040 E6.7081
G1 X117.336 Y99.924 E6.7191
G1 X116.897 Y99.596 E6.7465
G1 X116.735 Y99.444 E6.7576
G1 X116.508 Y99.138 E6.7766
G1 X116.467 Y99.013 E6.7831
G1 X116.467 Y98.932 E6.7872
G1 X116.844 Y96.796 E6.8954
G1 X116.888 Y96.692 E6.9010
G1 X117.063 Y96.522 E6.9132
G1 X117.368 Y96.358 E6.9304
G1 X117.768 Y96.216 E6.9517
G1 X118.401 Y96.074 E6.9840
G1 X119.323 Y95.977 E7.0302
G1 X119.940 Y95.948 E7.0611
G1 X121.037 Y96.085 E7.1162
G0 X121.831 Y96.184 F7200
;segType:Loop
G0 X121.993 Y95.340
G1 X122.458 Y94.534 E7.1626 F3600
G1 X121.615 Y93.421 E7.2323
G1 X121.234 Y92.679 E7.2739
G1 X120.931 Y91.923 E7.3145
G1 X120.870 Y91.742 E7.3241
G1 X120.755 Y91.248 E7.3494
G1 X120.735 Y91.085 E7.3576
G1 X120.750 Y90.835 E7.3701
G1 X120.777 Y90.787 E7.3728
G1 X122.309 Y89.502 E7.4726
G1 X122.455 Y89.477 E7.4800
G1 X122.690 Y89.526 E7.4920
G1 X123.038 Y89.655 E7.5104
G1 X123.571 Y89.931 E7.5404
G1 X124.311 Y90.431 E7.5850
G1 X124.766 Y90.777 E7.6135
G1 X125.716 Y91.800 E7.6831
G1 X127.873 Y91.015 E7.7977
G1 X127.944 Y89.621 E7.8673
G1 X128.128 Y88.808 E7.9089
G1 X128.382 Y88.034 E7.9496
G1 X128.452 Y87.855 E7.9591
G1 X128.681 Y87.403 E7.9844
G1 X128.770 Y87.265 E7.9926
G1 X128.933 Y87.094 E8.0044
G1 X129.033 Y87.064 E8.0096
G1 X130.919 Y87.064 E8.1037
G1 X131.110 Y87.123 E8.1136
G1 X131.270 Y87.328 E8.1266
G1 X131.454 Y87.650 E8.1451
G1 X131.684 Y88.205 E8.1751
G1 X131.931 Y89.063 E8.2196
G1 X132.056 Y89.621 E8.2481
